creative/exports/jpo-capcut-kit/09-luts/backlit-player.cube
TITLE "Let's Pepper · Backlit Player"
# Apply at 20–40% after exposure and white-balance correction.
LUT_3D_SIZE 9
DOMAIN_MIN 0.0 0.0 0.0
DOMAIN_MAX 1.0 1.0 1.0
0.0677500 0.0677500 0.0677500
0.1891818 0.0662709 0.0662709
0.3122034 0.0647724 0.0647724
0.4368148 0.0632546 0.0632546
0.5630161 0.0617174 0.0617174
0.6908072 0.0601608 0.0601608
0.8145617 0.0585849 0.0585849
0.9271966 0.0569896 0.0569896
1.0000000 0.0553749 0.0553749
0.0628963 0.1827903 0.0628963
0.1843281 0.1813112 0.0614172
0.3073497 0.1798127 0.0599188
0.4319612 0.1782948 0.0584009
0.5581624 0.1767576 0.0568637
0.6859535 0.1752011 0.0553072
0.8103876 0.1736252 0.0537312
0.9230224 0.1720299 0.0521359
1.0000000 0.1704152 0.0505213
0.0579807 0.2993002 0.0579807
0.1794124 0.2978210 0.0565016
0.3024341 0.2963226 0.0550031
0.4270455 0.2948047 0.0534852
0.5532468 0.2932675 0.0519480
0.6810378 0.2917110 0.0503915
0.8061601 0.2901350 0.0488156
0.9187949 0.2885398 0.0472203
1.0000000 0.2869251 0.0456056
0.0530030 0.4172797 0.0530030
0.1744348 0.4158006 0.0515239
0.2974564 0.4143021 0.0500254
0.4220678 0.4127843 0.0485076
0.5482691 0.4112471 0.0469704
0.6760602 0.4096905 0.0454138
0.8018793 0.4081146 0.0438379
0.9145141 0.4065193 0.0422426
1.0000000 0.4049046 0.0406279
0.0479633 0.5367289 0.0479633
0.1693951 0.5352498 0.0464842
0.2924167 0.5337513 0.0449857
0.4170281 0.5322335 0.0434679
0.5432294 0.5306963 0.0419307
0.6710205 0.5291397 0.0403741
0.7975452 0.5275638 0.0387982
0.9101800 0.5259685 0.0372029
1.0000000 0.5243538 0.0355882
0.0428616 0.6576477 0.0428616
0.1642934 0.6561686 0.0413825
0.2873150 0.6546701 0.0398840
0.4119264 0.6531523 0.0383662
0.5381277 0.6516151 0.0368290
0.6659188 0.6500585 0.0352724
0.7931577 0.6484826 0.0336965
0.9057925 0.6468873 0.0321012
1.0000000 0.6452726 0.0304865
0.0376979 0.7800311 0.0376979
0.1591297 0.7785570 0.0362188
0.2821513 0.7770586 0.0347203
0.4067627 0.7755407 0.0332025
0.5329640 0.7740035 0.0316653
0.6607551 0.7724470 0.0301087
0.7887169 0.7708710 0.0285328
0.9013518 0.7692758 0.0269375
1.0000000 0.7676611 0.0253228
0.0324722 0.8865491 0.0324722
0.1539040 0.8852770 0.0309931
0.2769256 0.8839883 0.0294946
0.4015370 0.8826830 0.0279768
0.5277383 0.8813610 0.0264396
0.6555294 0.8800224 0.0248830
0.7842228 0.8786671 0.0233071
0.8968577 0.8772951 0.0217118
1.0000000 0.8759065 0.0200971
0.0271845 0.9943309 0.0271845
0.1486163 0.9930589 0.0257054
0.2716379 0.9917702 0.0242069
0.3962493 0.9904649 0.0226891
0.5224506 0.9891429 0.0211519
0.6502417 0.9878042 0.0195953
0.7796226 0.9864489 0.0180194
0.8923102 0.9850770 0.0164241
1.0000000 0.9836884 0.0148094
0.0672748 0.0672748 0.1835496
0.1887066 0.0657957 0.1820705
0.3117282 0.0642972 0.1805721
0.4363396 0.0627794 0.1790542
0.5625409 0.0612422 0.1775170
0.6903320 0.0596856 0.1759605
0.8141531 0.0581097 0.1743845
0.9267879 0.0565144 0.1727892
1.0000000 0.0548998 0.1711746
0.0624211 0.1823151 0.1786960
0.1838529 0.1808360 0.1772169
0.3068745 0.1793375 0.1757184
0.4314860 0.1778197 0.1742006
0.5576872 0.1762825 0.1726634
0.6854783 0.1747259 0.1711068
0.8099789 0.1731500 0.1695309
0.9226137 0.1715547 0.1679356
1.0000000 0.1699400 0.1663209
0.0575055 0.2988250 0.1737803
0.1789373 0.2973459 0.1723012
0.3019589 0.2958474 0.1708027
0.4265703 0.2943296 0.1692849
0.5527716 0.2927924 0.1677477
0.6805626 0.2912358 0.1661911
0.8057514 0.2896599 0.1646152
0.9183863 0.2880646 0.1630199
1.0000000 0.2864499 0.1614052
0.0525278 0.4168045 0.1688026
0.1739596 0.4153254 0.1673235
0.2969812 0.4138269 0.1658250
0.4215926 0.4123091 0.1643072
0.5477939 0.4107719 0.1627700
0.6755850 0.4092153 0.1612134
0.8014706 0.4076394 0.1596375
0.9141055 0.4060441 0.1580422
1.0000000 0.4044294 0.1564276
0.0474881 0.5362537 0.1637629
0.1689199 0.5347746 0.1622838
0.2919415 0.5332761 0.1607853
0.4165529 0.5317583 0.1592675
0.5427542 0.5302211 0.1577303
0.6705453 0.5286645 0.1561737
0.7971365 0.5270886 0.1545978
0.9097713 0.5254933 0.1530025
1.0000000 0.5238786 0.1513879
0.0423864 0.6571725 0.1586612
0.1638182 0.6556934 0.1571821
0.2868398 0.6541949 0.1556837
0.4114512 0.6526771 0.1541658
0.5376525 0.6511399 0.1526286
0.6654436 0.6495833 0.1510721
0.7927491 0.6480074 0.1494961
0.9053839 0.6464121 0.1479008
1.0000000 0.6447974 0.1462862
0.0372227 0.7795610 0.1534975
0.1586545 0.7780819 0.1520184
0.2816761 0.7765834 0.1505200
0.4062876 0.7750656 0.1490021
0.5324888 0.7735284 0.1474649
0.6602799 0.7719718 0.1459084
0.7883083 0.7703959 0.1443324
0.9009431 0.7688006 0.1427371
1.0000000 0.7671859 0.1411225
0.0319970 0.8861404 0.1482718
0.1534288 0.8848684 0.1467927
0.2764504 0.8835797 0.1452943
0.4010619 0.8822743 0.1437764
0.5272631 0.8809524 0.1422392
0.6550542 0.8796137 0.1406827
0.7838142 0.8782584 0.1391067
0.8964490 0.8768865 0.1375114
1.0000000 0.8754978 0.1358968
0.0267093 0.9939223 0.1429841
0.1481411 0.9926502 0.1415050
0.2711627 0.9913615 0.1400066
0.3957741 0.9900562 0.1384887
0.5219754 0.9887342 0.1369515
0.6497665 0.9873956 0.1353950
0.7791474 0.9860403 0.1338190
0.8919016 0.9846683 0.1322237
1.0000000 0.9832797 0.1306091
0.0667937 0.0667937 0.3007845
0.1882255 0.0653146 0.2993054
0.3112471 0.0638162 0.2978069
0.4358586 0.0622983 0.2962891
0.5620598 0.0607611 0.2947519
0.6898509 0.0592046 0.2931953
0.8137393 0.0576286 0.2916194
0.9263742 0.0560333 0.2900241
1.0000000 0.0544187 0.2884094
0.0619401 0.1818340 0.2959308
0.1833719 0.1803549 0.2944517
0.3063935 0.1788564 0.2929533
0.4310049 0.1773386 0.2914354
0.5572062 0.1758014 0.2898982
0.6849972 0.1742448 0.2883417
0.8095652 0.1726689 0.2867657
0.9222000 0.1710736 0.2851704
1.0000000 0.1694589 0.2835558
0.0570244 0.2983439 0.2910152
0.1784562 0.2968648 0.2895360
0.3014778 0.2953663 0.2880376
0.4260892 0.2938485 0.2865197
0.5522905 0.2923113 0.2849825
0.6800816 0.2907547 0.2834260
0.8053377 0.2891788 0.2818501
0.9179725 0.2875835 0.2802548
1.0000000 0.2859688 0.2786401
0.0520467 0.4163234 0.2860375
0.1734785 0.4148443 0.2845584
0.2965001 0.4133458 0.2830599
0.4211115 0.4118280 0.2815421
0.5473128 0.4102908 0.2800049
0.6751039 0.4087342 0.2784483
0.8010569 0.4071583 0.2768724
0.9136917 0.4055630 0.2752771
1.0000000 0.4039484 0.2736624
0.0470070 0.5357726 0.2809978
0.1684388 0.5342935 0.2795187
0.2914604 0.5327950 0.2780202
0.4160719 0.5312772 0.2765024
0.5422731 0.5297400 0.2749652
0.6700642 0.5281834 0.2734086
0.7967228 0.5266075 0.2718327
0.9093576 0.5250122 0.2702374
1.0000000 0.5233975 0.2686227
0.0419053 0.6566914 0.2758961
0.1633371 0.6552123 0.2744170
0.2863587 0.6537138 0.2729185
0.4109702 0.6521960 0.2714007
0.5371714 0.6506588 0.2698635
0.6649625 0.6491022 0.2683069
0.7923353 0.6475263 0.2667310
0.9049701 0.6459310 0.2651357
1.0000000 0.6443164 0.2635210
0.0367416 0.7790799 0.2707324
0.1581734 0.7776008 0.2692533
0.2811950 0.7761023 0.2677548
0.4058065 0.7745845 0.2662370
0.5320077 0.7730473 0.2646998
0.6597988 0.7714907 0.2631432
0.7878945 0.7699148 0.2615673
0.9005294 0.7683195 0.2599720
1.0000000 0.7667048 0.2583573
0.0315159 0.8857267 0.2655067
0.1529477 0.8844546 0.2640276
0.2759693 0.8831660 0.2625291
0.4005808 0.8818606 0.2610113
0.5267820 0.8805386 0.2594741
0.6545731 0.8792000 0.2579175
0.7834004 0.8778447 0.2563416
0.8960353 0.8764727 0.2547463
1.0000000 0.8750841 0.2531316
0.0262282 0.9935085 0.2602190
0.1476600 0.9922365 0.2587399
0.2706816 0.9909478 0.2572414
0.3952931 0.9896425 0.2557236
0.5214943 0.9883205 0.2541864
0.6492854 0.9869818 0.2526298
0.7786663 0.9856265 0.2510539
0.8914878 0.9842546 0.2494586
1.0000000 0.9828660 0.2478439
0.0663068 0.0663068 0.4194546
0.1877385 0.0648277 0.4179755
0.3107602 0.0633292 0.4164770
0.4353716 0.0618113 0.4149592
0.5615729 0.0602741 0.4134220
0.6893639 0.0587176 0.4118654
0.8133206 0.0571417 0.4102895
0.9259554 0.0555464 0.4086942
1.0000000 0.0539317 0.4070795
0.0614531 0.1813470 0.4146009
0.1828849 0.1798679 0.4131218
0.3059065 0.1783694 0.4116234
0.4305179 0.1768516 0.4101055
0.5567192 0.1753144 0.4085683
0.6845103 0.1737578 0.4070118
0.8091464 0.1721819 0.4054358
0.9217812 0.1705866 0.4038405
1.0000000 0.1689720 0.4022259
0.0565374 0.2978569 0.4096853
0.1779692 0.2963778 0.4082062
0.3009908 0.2948793 0.4067077
0.4256023 0.2933615 0.4051898
0.5518035 0.2918243 0.4036526
0.6795946 0.2902677 0.4020961
0.8049189 0.2886918 0.4005202
0.9175537 0.2870965 0.3989249
1.0000000 0.2854819 0.3973102
0.0515597 0.4158364 0.4047076
0.1729915 0.4143573 0.4032285
0.2960131 0.4128589 0.4017300
0.4206246 0.4113410 0.4002122
0.5468258 0.4098038 0.3986750
0.6746169 0.4082473 0.3971184
0.8006381 0.4066713 0.3955425
0.9132729 0.4050761 0.3939472
1.0000000 0.4034614 0.3923325
0.0465201 0.5352856 0.3996679
0.1679518 0.5338065 0.3981888
0.2909735 0.5323081 0.3966903
0.4155849 0.5307902 0.3951725
0.5417861 0.5292530 0.3936353
0.6695772 0.5276965 0.3920787
0.7963040 0.5261205 0.3905028
0.9089388 0.5245252 0.3889075
1.0000000 0.5229106 0.3872928
0.0414184 0.6562044 0.3945662
0.1628502 0.6547253 0.3930871
0.2858718 0.6532269 0.3915886
0.4104832 0.6517090 0.3900708
0.5366845 0.6501718 0.3885336
0.6644755 0.6486153 0.3869770
0.7919165 0.6470393 0.3854011
0.9045514 0.6454441 0.3838058
1.0000000 0.6438294 0.3821911
0.0362547 0.7785929 0.3894025
0.1576865 0.7771138 0.3879234
0.2807081 0.7756153 0.3864249
0.4053195 0.7740975 0.3849071
0.5315208 0.7725603 0.3833699
0.6593118 0.7710037 0.3818133
0.7874758 0.7694278 0.3802374
0.9001106 0.7678325 0.3786421
1.0000000 0.7662179 0.3770274
0.0310290 0.8853079 0.3841768
0.1524608 0.8840358 0.3826977
0.2754824 0.8827472 0.3811992
0.4000938 0.8814418 0.3796814
0.5262951 0.8801198 0.3781442
0.6540861 0.8787812 0.3765876
0.7829816 0.8774259 0.3750117
0.8956165 0.8760539 0.3734164
1.0000000 0.8746653 0.3718017
0.0257413 0.9930897 0.3788891
0.1471730 0.9918177 0.3774100
0.2701947 0.9905290 0.3759115
0.3948061 0.9892237 0.3743937
0.5210073 0.9879017 0.3728565
0.6487984 0.9865630 0.3712999
0.7781793 0.9852077 0.3697240
0.8910690 0.9838358 0.3681287
1.0000000 0.9824472 0.3665140
0.0658139 0.0658139 0.5395599
0.1872457 0.0643348 0.5380808
0.3102673 0.0628363 0.5365824
0.4348787 0.0613185 0.5350645
0.5610800 0.0597813 0.5335273
0.6888711 0.0582247 0.5319708
0.8128967 0.0566488 0.5303948
0.9255315 0.0550535 0.5287995
1.0000000 0.0534388 0.5271849
0.0609602 0.1808542 0.5347063
0.1823920 0.1793750 0.5332272
0.3054136 0.1778766 0.5317287
0.4300251 0.1763587 0.5302109
0.5562263 0.1748215 0.5286737
0.6840174 0.1732650 0.5271171
0.8087225 0.1716890 0.5255412
0.9213574 0.1700938 0.5239459
1.0000000 0.1684791 0.5223312
0.0560446 0.2973641 0.5297906
0.1774763 0.2958849 0.5283115
0.3004980 0.2943865 0.5268130
0.4251094 0.2928686 0.5252952
0.5513106 0.2913314 0.5237580
0.6791017 0.2897749 0.5222014
0.8044951 0.2881989 0.5206255
0.9171299 0.2866037 0.5190302
1.0000000 0.2849890 0.5174155
0.0510669 0.4153436 0.5248129
0.1724987 0.4138645 0.5233338
0.2955203 0.4123660 0.5218353
0.4201317 0.4108482 0.5203175
0.5463330 0.4093110 0.5187803
0.6741240 0.4077544 0.5172237
0.8002143 0.4061785 0.5156478
0.9128491 0.4045832 0.5140525
1.0000000 0.4029685 0.5124379
0.0460272 0.5347928 0.5197732
0.1674590 0.5333137 0.5182941
0.2904806 0.5318152 0.5167957
0.4150920 0.5302974 0.5152778
0.5412933 0.5287602 0.5137406
0.6690844 0.5272036 0.5121841
0.7958801 0.5256277 0.5106081
0.9085149 0.5240324 0.5090128
1.0000000 0.5224177 0.5073982
0.0409255 0.6557116 0.5146715
0.1623573 0.6542325 0.5131924
0.2853789 0.6527340 0.5116940
0.4099903 0.6512162 0.5101761
0.5361916 0.6496790 0.5086389
0.6639827 0.6481224 0.5070824
0.7914927 0.6465465 0.5055064
0.9041275 0.6449512 0.5039111
1.0000000 0.6433365 0.5022965
0.0357618 0.7781001 0.5095078
0.1571936 0.7766209 0.5080287
0.2802152 0.7751225 0.5065303
0.4048266 0.7736046 0.5050124
0.5310279 0.7720674 0.5034752
0.6588190 0.7705109 0.5019187
0.7870519 0.7689349 0.5003427
0.8996867 0.7673397 0.4987474
1.0000000 0.7657250 0.4971328
0.0305361 0.8848840 0.5042821
0.1519679 0.8836120 0.5028030
0.2749895 0.8823233 0.5013046
0.3996009 0.8810180 0.4997867
0.5258022 0.8796960 0.4982495
0.6535933 0.8783573 0.4966930
0.7825578 0.8770020 0.4951170
0.8951926 0.8756301 0.4935217
1.0000000 0.8742415 0.4919071
0.0252484 0.9926659 0.4989944
0.1466802 0.9913938 0.4975153
0.2697018 0.9901052 0.4960169
0.3943132 0.9887998 0.4944990
0.5205145 0.9874778 0.4929618
0.6483056 0.9861392 0.4914053
0.7776865 0.9847839 0.4898293
0.8906452 0.9834119 0.4882340
1.0000000 0.9820233 0.4866194
0.0653151 0.0653151 0.6611005
0.1867469 0.0638360 0.6596214
0.3097686 0.0623376 0.6581229
0.4343800 0.0608197 0.6566051
0.5605812 0.0592825 0.6550679
0.6883723 0.0577260 0.6535113
0.8124678 0.0561500 0.6519354
0.9251026 0.0545548 0.6503401
1.0000000 0.0529401 0.6487255
0.0604615 0.1803554 0.6562468
0.1818933 0.1788763 0.6547677
0.3049149 0.1773778 0.6532693
0.4295263 0.1758600 0.6517514
0.5557276 0.1743228 0.6502142
0.6835187 0.1727662 0.6486577
0.8082936 0.1711903 0.6470817
0.9209284 0.1695950 0.6454865
1.0000000 0.1679803 0.6438718
0.0555458 0.2968653 0.6513312
0.1769776 0.2953862 0.6498521
0.2999992 0.2938877 0.6483536
0.4246106 0.2923699 0.6468358
0.5508119 0.2908327 0.6452986
0.6786030 0.2892761 0.6437420
0.8040661 0.2877002 0.6421661
0.9167010 0.2861049 0.6405708
1.0000000 0.2844902 0.6389561
0.0505681 0.4148448 0.6463535
0.1719999 0.4133657 0.6448744
0.2950215 0.4118673 0.6433759
0.4196330 0.4103494 0.6418581
0.5458342 0.4088122 0.6403209
0.6736253 0.4072557 0.6387643
0.7997853 0.4056797 0.6371884
0.9124202 0.4040844 0.6355931
1.0000000 0.4024698 0.6339784
0.0455284 0.5342940 0.6413138
0.1669602 0.5328149 0.6398347
0.2899818 0.5313164 0.6383362
0.4145933 0.5297986 0.6368184
0.5407945 0.5282614 0.6352812
0.6685856 0.5267048 0.6337246
0.7954512 0.5251289 0.6321487
0.9080860 0.5235336 0.6305534
1.0000000 0.5219190 0.6289388
0.0404268 0.6552128 0.6362121
0.1618585 0.6537337 0.6347330
0.2848802 0.6522353 0.6332345
0.4094916 0.6507174 0.6317167
0.5356928 0.6491802 0.6301795
0.6634839 0.6476237 0.6286229
0.7910637 0.6460477 0.6270470
0.9036986 0.6444524 0.6254517
1.0000000 0.6428378 0.6238371
0.0352631 0.7776013 0.6310484
0.1566948 0.7761222 0.6295693
0.2797165 0.7746237 0.6280708
0.4043279 0.7731059 0.6265530
0.5305291 0.7715687 0.6250158
0.6583202 0.7700121 0.6234592
0.7866230 0.7684362 0.6218833
0.8992578 0.7668409 0.6202880
1.0000000 0.7652262 0.6186734
0.0300374 0.8844551 0.6258227
0.1514691 0.8831831 0.6243436
0.2744908 0.8818944 0.6228451
0.3991022 0.8805890 0.6213273
0.5253034 0.8792670 0.6197901
0.6530945 0.8779284 0.6182335
0.7821289 0.8765731 0.6166576
0.8947637 0.8752011 0.6150623
1.0000000 0.8738125 0.6134477
0.0247496 0.9922369 0.6205350
0.1461814 0.9909649 0.6190559
0.2692030 0.9896762 0.6175574
0.3938145 0.9883709 0.6160396
0.5200157 0.9870489 0.6145024
0.6478068 0.9857103 0.6129458
0.7771877 0.9843550 0.6113699
0.8902163 0.9829830 0.6097746
1.0000000 0.9815944 0.6081600
0.0648105 0.0648105 0.7835056
0.1862423 0.0633314 0.7822336
0.3092639 0.0618329 0.7809449
0.4338753 0.0603151 0.7795809
0.5600766 0.0587779 0.7780437
0.6878677 0.0572213 0.7764872
0.8120338 0.0556454 0.7749112
0.9246686 0.0540501 0.7733159
1.0000000 0.0524355 0.7717013
0.0599568 0.1798508 0.7792227
0.1813886 0.1783717 0.7777436
0.3044102 0.1768732 0.7762451
0.4290217 0.1753554 0.7747273
0.5552229 0.1738182 0.7731901
0.6830140 0.1722616 0.7716335
0.8078596 0.1706857 0.7700576
0.9204944 0.1690904 0.7684623
1.0000000 0.1674757 0.7668476
0.0550412 0.2963607 0.7743070
0.1764730 0.2948816 0.7728279
0.2994946 0.2933831 0.7713294
0.4241060 0.2918653 0.7698116
0.5503073 0.2903281 0.7682744
0.6780983 0.2887715 0.7667178
0.8036321 0.2871956 0.7651419
0.9162670 0.2856003 0.7635466
1.0000000 0.2839856 0.7619319
0.0500635 0.4143402 0.7693293
0.1714953 0.4128611 0.7678502
0.2945169 0.4113626 0.7663517
0.4191283 0.4098448 0.7648339
0.5453296 0.4083076 0.7632967
0.6731207 0.4067510 0.7617401
0.7993513 0.4051751 0.7601642
0.9119862 0.4035798 0.7585689
1.0000000 0.4019651 0.7569543
0.0450238 0.5337894 0.7642896
0.1664556 0.5323103 0.7628105
0.2894772 0.5308118 0.7613121
0.4140886 0.5292940 0.7597942
0.5402899 0.5277568 0.7582570
0.6680810 0.5262002 0.7567005
0.7950172 0.5246243 0.7551245
0.9076520 0.5230290 0.7535292
1.0000000 0.5214143 0.7519146
0.0399221 0.6547082 0.7591879
0.1613539 0.6532291 0.7577088
0.2843755 0.6517306 0.7562104
0.4089870 0.6502128 0.7546925
0.5351882 0.6486756 0.7531553
0.6629793 0.6471190 0.7515988
0.7906298 0.6455431 0.7500228
0.9032646 0.6439478 0.7484275
1.0000000 0.6423331 0.7468129
0.0347584 0.7770967 0.7540242
0.1561902 0.7756176 0.7525451
0.2792118 0.7741191 0.7510467
0.4038233 0.7726013 0.7495288
0.5300245 0.7710641 0.7479916
0.6578156 0.7695075 0.7464351
0.7861890 0.7679316 0.7448591
0.8988238 0.7663363 0.7432638
1.0000000 0.7647216 0.7416492
0.0295327 0.8840211 0.7487985
0.1509645 0.8827491 0.7473194
0.2739861 0.8814604 0.7458210
0.3985976 0.8801550 0.7443031
0.5247988 0.8788331 0.7427659
0.6525899 0.8774944 0.7412094
0.7816949 0.8761391 0.7396334
0.8943297 0.8747672 0.7380381
1.0000000 0.8733785 0.7364235
0.0242450 0.9918030 0.7435108
0.1456768 0.9905309 0.7420317
0.2686984 0.9892422 0.7405333
0.3933098 0.9879369 0.7390154
0.5195111 0.9866149 0.7374782
0.6473022 0.9852763 0.7359217
0.7766831 0.9839210 0.7343457
0.8897823 0.9825490 0.7327504
1.0000000 0.9811604 0.7311358
0.0643000 0.0643000 0.8904991
0.1857318 0.0628209 0.8892271
0.3087534 0.0613224 0.8879384
0.4333648 0.0598046 0.8866331
0.5595661 0.0582674 0.8853111
0.6873572 0.0567108 0.8839725
0.8115947 0.0551349 0.8826172
0.9242295 0.0535396 0.8812452
1.0000000 0.0519249 0.8798566
0.0594463 0.1793402 0.8863250
0.1808781 0.1778611 0.8850530
0.3038997 0.1763627 0.8837643
0.4285112 0.1748448 0.8824589
0.5547124 0.1733076 0.8811370
0.6825035 0.1717511 0.8797983
0.8074206 0.1701751 0.8784430
0.9200554 0.1685798 0.8770711
1.0000000 0.1669652 0.8756824
0.0545306 0.2958501 0.8820975
0.1759624 0.2943710 0.8808255
0.2989840 0.2928726 0.8795368
0.4235955 0.2913547 0.8782315
0.5497967 0.2898175 0.8769095
0.6775878 0.2882610 0.8755708
0.8031931 0.2866850 0.8742155
0.9158279 0.2850897 0.8728436
1.0000000 0.2834751 0.8714550
0.0495530 0.4138297 0.8778167
0.1709848 0.4123506 0.8765447
0.2940064 0.4108521 0.8752560
0.4186178 0.4093343 0.8739507
0.5448191 0.4077971 0.8726287
0.6726101 0.4062405 0.8712900
0.7989123 0.4046646 0.8699347
0.9115471 0.4030693 0.8685628
1.0000000 0.4014546 0.8671742
0.0445133 0.5332789 0.8734826
0.1659451 0.5317997 0.8722106
0.2889667 0.5303013 0.8709219
0.4135781 0.5287834 0.8696165
0.5397794 0.5272462 0.8682945
0.6675704 0.5256897 0.8669559
0.7945782 0.5241137 0.8656006
0.9072130 0.5225185 0.8642286
1.0000000 0.5209038 0.8628400
0.0394116 0.6541977 0.8690951
0.1608434 0.6527186 0.8678231
0.2838650 0.6512201 0.8665344
0.4084764 0.6497023 0.8652291
0.5346777 0.6481651 0.8639071
0.6624688 0.6466085 0.8625684
0.7901907 0.6450326 0.8612131
0.9028255 0.6434373 0.8598412
1.0000000 0.6418226 0.8584526
0.0342479 0.7765861 0.8646543
0.1556797 0.7751070 0.8633823
0.2787013 0.7736086 0.8620936
0.4033127 0.7720907 0.8607883
0.5295140 0.7705535 0.8594663
0.6573051 0.7689970 0.8581277
0.7857499 0.7674210 0.8567724
0.8983847 0.7658257 0.8554004
1.0000000 0.7642111 0.8540118
0.0290222 0.8835820 0.8601602
0.1504540 0.8823100 0.8588882
0.2734756 0.8810213 0.8575995
0.3980870 0.8797160 0.8562942
0.5242883 0.8783940 0.8549722
0.6520794 0.8770554 0.8536336
0.7812558 0.8757001 0.8522783
0.8938906 0.8743281 0.8509063
1.0000000 0.8729395 0.8495177
0.0237345 0.9913639 0.8556128
0.1451663 0.9900919 0.8543408
0.2681879 0.9888032 0.8530521
0.3927993 0.9874979 0.8517468
0.5190006 0.9861759 0.8504248
0.6467916 0.9848372 0.8490861
0.7761725 0.9834819 0.8477308
0.8893432 0.9821100 0.8463589
1.0000000 0.9807214 0.8449703
0.0637836 0.0637836 0.9987270
0.1852154 0.0623045 0.9974549
0.3082370 0.0608060 0.9961662
0.4328484 0.0592882 0.9948609
0.5590497 0.0577510 0.9935389
0.6868407 0.0561944 0.9922003
0.8111506 0.0546185 0.9908450
0.9237854 0.0530232 0.9894730
1.0000000 0.0514085 0.9880844
0.0589299 0.1788238 0.9945528
0.1803617 0.1773447 0.9932808
0.3033833 0.1758462 0.9919921
0.4279947 0.1743284 0.9906868
0.5541960 0.1727912 0.9893648
0.6819871 0.1712346 0.9880261
0.8069765 0.1696587 0.9866708
0.9196113 0.1680634 0.9852989
1.0000000 0.1664488 0.9839103
0.0540142 0.2953337 0.9903253
0.1754460 0.2938546 0.9890533
0.2984676 0.2923561 0.9877646
0.4230791 0.2908383 0.9864593
0.5492803 0.2893011 0.9851373
0.6770714 0.2877445 0.9837986
0.8027490 0.2861686 0.9824433
0.9153838 0.2845733 0.9810714
1.0000000 0.2829587 0.9796828
0.0490365 0.4133133 0.9860445
0.1704683 0.4118341 0.9847725
0.2934899 0.4103357 0.9834838
0.4181014 0.4088178 0.9821785
0.5443026 0.4072806 0.9808565
0.6720937 0.4057241 0.9795178
0.7984682 0.4041481 0.9781625
0.9111030 0.4025529 0.9767906
1.0000000 0.4009382 0.9754020
0.0439969 0.5327624 0.9817104
0.1654286 0.5312833 0.9804384
0.2884503 0.5297849 0.9791497
0.4130617 0.5282670 0.9778443
0.5392630 0.5267298 0.9765223
0.6670540 0.5251733 0.9751837
0.7941340 0.5235973 0.9738284
0.9067689 0.5220020 0.9724564
1.0000000 0.5203874 0.9710678
0.0388952 0.6536813 0.9773229
0.1603270 0.6522021 0.9760509
0.2833486 0.6507037 0.9747622
0.4079600 0.6491858 0.9734569
0.5341613 0.6476486 0.9721349
0.6619523 0.6460921 0.9707962
0.7897466 0.6445161 0.9694409
0.9023814 0.6429209 0.9680690
1.0000000 0.6413062 0.9666804
0.0337315 0.7760697 0.9728822
0.1551633 0.7745906 0.9716101
0.2781849 0.7730921 0.9703214
0.4027963 0.7715743 0.9690161
0.5289976 0.7700371 0.9676941
0.6567886 0.7684805 0.9663555
0.7853058 0.7669046 0.9650002
0.8979406 0.7653093 0.9636282
1.0000000 0.7636947 0.9622396
0.0285058 0.8831379 0.9683881
0.1499376 0.8818659 0.9671160
0.2729592 0.8805772 0.9658273
0.3975706 0.8792719 0.9645220
0.5237719 0.8779499 0.9632000
0.6515629 0.8766112 0.9618614
0.7808117 0.8752559 0.9605061
0.8934465 0.8738840 0.9591341
1.0000000 0.8724954 0.9577455
0.0232181 0.9909198 0.9638406
0.1446499 0.9896478 0.9625686
0.2676715 0.9883591 0.9612799
0.3922829 0.9870537 0.9599746
0.5184842 0.9857317 0.9586526
0.6462752 0.9843931 0.9573139
0.7756561 0.9830378 0.9559586
0.8888991 0.9816658 0.9545867
1.0000000 0.9802772 0.9531981
