creative/exports/jpo-capcut-kit/09-luts/backlit-player.cube
TITLE "Let's Pepper · Backlit Player"
# Apply at 20–40% after exposure and white-balance correction.
LUT_3D_SIZE 5
DOMAIN_MIN 0.0 0.0 0.0
DOMAIN_MAX 1.0 1.0 1.0
0.0677500 0.0677500 0.0677500
0.3122034 0.0647724 0.0647724
0.5630161 0.0617174 0.0617174
0.8145617 0.0585849 0.0585849
1.0000000 0.0553749 0.0553749
0.0579807 0.2993002 0.0579807
0.3024341 0.2963226 0.0550031
0.5532468 0.2932675 0.0519480
0.8061601 0.2901350 0.0488156
1.0000000 0.2869251 0.0456056
0.0479633 0.5367289 0.0479633
0.2924167 0.5337513 0.0449857
0.5432294 0.5306963 0.0419307
0.7975452 0.5275638 0.0387982
1.0000000 0.5243538 0.0355882
0.0376979 0.7800311 0.0376979
0.2821513 0.7770586 0.0347203
0.5329640 0.7740035 0.0316653
0.7887169 0.7708710 0.0285328
1.0000000 0.7676611 0.0253228
0.0271845 0.9943309 0.0271845
0.2716379 0.9917702 0.0242069
0.5224506 0.9891429 0.0211519
0.7796226 0.9864489 0.0180194
1.0000000 0.9836884 0.0148094
0.0667937 0.0667937 0.3007845
0.3112471 0.0638162 0.2978069
0.5620598 0.0607611 0.2947519
0.8137393 0.0576286 0.2916194
1.0000000 0.0544187 0.2884094
0.0570244 0.2983439 0.2910152
0.3014778 0.2953663 0.2880376
0.5522905 0.2923113 0.2849825
0.8053377 0.2891788 0.2818501
1.0000000 0.2859688 0.2786401
0.0470070 0.5357726 0.2809978
0.2914604 0.5327950 0.2780202
0.5422731 0.5297400 0.2749652
0.7967228 0.5266075 0.2718327
1.0000000 0.5233975 0.2686227
0.0367416 0.7790799 0.2707324
0.2811950 0.7761023 0.2677548
0.5320077 0.7730473 0.2646998
0.7878945 0.7699148 0.2615673
1.0000000 0.7667048 0.2583573
0.0262282 0.9935085 0.2602190
0.2706816 0.9909478 0.2572414
0.5214943 0.9883205 0.2541864
0.7786663 0.9856265 0.2510539
1.0000000 0.9828660 0.2478439
0.0658139 0.0658139 0.5395599
0.3102673 0.0628363 0.5365824
0.5610800 0.0597813 0.5335273
0.8128967 0.0566488 0.5303948
1.0000000 0.0534388 0.5271849
0.0560446 0.2973641 0.5297906
0.3004980 0.2943865 0.5268130
0.5513106 0.2913314 0.5237580
0.8044951 0.2881989 0.5206255
1.0000000 0.2849890 0.5174155
0.0460272 0.5347928 0.5197732
0.2904806 0.5318152 0.5167957
0.5412933 0.5287602 0.5137406
0.7958801 0.5256277 0.5106081
1.0000000 0.5224177 0.5073982
0.0357618 0.7781001 0.5095078
0.2802152 0.7751225 0.5065303
0.5310279 0.7720674 0.5034752
0.7870519 0.7689349 0.5003427
1.0000000 0.7657250 0.4971328
0.0252484 0.9926659 0.4989944
0.2697018 0.9901052 0.4960169
0.5205145 0.9874778 0.4929618
0.7776865 0.9847839 0.4898293
1.0000000 0.9820233 0.4866194
0.0648105 0.0648105 0.7835056
0.3092639 0.0618329 0.7809449
0.5600766 0.0587779 0.7780437
0.8120338 0.0556454 0.7749112
1.0000000 0.0524355 0.7717013
0.0550412 0.2963607 0.7743070
0.2994946 0.2933831 0.7713294
0.5503073 0.2903281 0.7682744
0.8036321 0.2871956 0.7651419
1.0000000 0.2839856 0.7619319
0.0450238 0.5337894 0.7642896
0.2894772 0.5308118 0.7613121
0.5402899 0.5277568 0.7582570
0.7950172 0.5246243 0.7551245
1.0000000 0.5214143 0.7519146
0.0347584 0.7770967 0.7540242
0.2792118 0.7741191 0.7510467
0.5300245 0.7710641 0.7479916
0.7861890 0.7679316 0.7448591
1.0000000 0.7647216 0.7416492
0.0242450 0.9918030 0.7435108
0.2686984 0.9892422 0.7405333
0.5195111 0.9866149 0.7374782
0.7766831 0.9839210 0.7343457
1.0000000 0.9811604 0.7311358
0.0637836 0.0637836 0.9987270
0.3082370 0.0608060 0.9961662
0.5590497 0.0577510 0.9935389
0.8111506 0.0546185 0.9908450
1.0000000 0.0514085 0.9880844
0.0540142 0.2953337 0.9903253
0.2984676 0.2923561 0.9877646
0.5492803 0.2893011 0.9851373
0.8027490 0.2861686 0.9824433
1.0000000 0.2829587 0.9796828
0.0439969 0.5327624 0.9817104
0.2884503 0.5297849 0.9791497
0.5392630 0.5267298 0.9765223
0.7941340 0.5235973 0.9738284
1.0000000 0.5203874 0.9710678
0.0337315 0.7760697 0.9728822
0.2781849 0.7730921 0.9703214
0.5289976 0.7700371 0.9676941
0.7853058 0.7669046 0.9650002
1.0000000 0.7636947 0.9622396
0.0232181 0.9909198 0.9638406
0.2676715 0.9883591 0.9612799
0.5184842 0.9857317 0.9586526
0.7756561 0.9830378 0.9559586
1.0000000 0.9802772 0.9531981
