creative/exports/jpo-capcut-kit/09-luts/backlit-player.cube
TITLE "Let's Pepper · Backlit Player"
# Apply at 20–40% after exposure and white-balance correction.
LUT_3D_SIZE 33
DOMAIN_MIN 0.0 0.0 0.0
DOMAIN_MAX 1.0 1.0 1.0
0.0677500 0.0677500 0.0677500
0.0979589 0.0673820 0.0673820
0.1282672 0.0670129 0.0670129
0.1586748 0.0666425 0.0666425
0.1891818 0.0662709 0.0662709
0.2197881 0.0658981 0.0658981
0.2504939 0.0655241 0.0655241
0.2812990 0.0651489 0.0651489
0.3122034 0.0647724 0.0647724
0.3432072 0.0643948 0.0643948
0.3743104 0.0640159 0.0640159
0.4055129 0.0636359 0.0636359
0.4368148 0.0632546 0.0632546
0.4682161 0.0628721 0.0628721
0.4997167 0.0624884 0.0624884
0.5313167 0.0621035 0.0621035
0.5630161 0.0617174 0.0617174
0.5948148 0.0613301 0.0613301
0.6267129 0.0609415 0.0609415
0.6587104 0.0605518 0.0605518
0.6908072 0.0601608 0.0601608
0.7230034 0.0597687 0.0597687
0.7552989 0.0593753 0.0593753
0.7866167 0.0589807 0.0589807
0.8145617 0.0585849 0.0585849
0.8425923 0.0581879 0.0581879
0.8707082 0.0577897 0.0577897
0.8989097 0.0573902 0.0573902
0.9271966 0.0569896 0.0569896
0.9555689 0.0565878 0.0565878
0.9840267 0.0561847 0.0561847
1.0000000 0.0557804 0.0557804
1.0000000 0.0553749 0.0553749
0.0665424 0.0963723 0.0665424
0.0967513 0.0960043 0.0661744
0.1270596 0.0956352 0.0658053
0.1574672 0.0952648 0.0654349
0.1879742 0.0948932 0.0650633
0.2185805 0.0945204 0.0646905
0.2492863 0.0941464 0.0643165
0.2800914 0.0937711 0.0639413
0.3109958 0.0933947 0.0635648
0.3419996 0.0930171 0.0631872
0.3731028 0.0926382 0.0628083
0.4043053 0.0922581 0.0624283
0.4356072 0.0918769 0.0620470
0.4670085 0.0914944 0.0616645
0.4985091 0.0911107 0.0612808
0.5301091 0.0907258 0.0608959
0.5618085 0.0903397 0.0605098
0.5936072 0.0899523 0.0601225
0.6255053 0.0895638 0.0597339
0.6575028 0.0891741 0.0593442
0.6895996 0.0887831 0.0589532
0.7217957 0.0883909 0.0585611
0.7540913 0.0879976 0.0581677
0.7855781 0.0876030 0.0577731
0.8135232 0.0872072 0.0573773
0.8415537 0.0868102 0.0569803
0.8696697 0.0864120 0.0565821
0.8978711 0.0860125 0.0561826
0.9261580 0.0856119 0.0557820
0.9545304 0.0852100 0.0553801
0.9829881 0.0848070 0.0549771
1.0000000 0.0844027 0.0545728
1.0000000 0.0839972 0.0541673
0.0653309 0.1250864 0.0653309
0.0955398 0.1247185 0.0649630
0.1258481 0.1243493 0.0645938
0.1562557 0.1239789 0.0642234
0.1867627 0.1236073 0.0638518
0.2173691 0.1232345 0.0634790
0.2480748 0.1228605 0.0631050
0.2788799 0.1224853 0.0627298
0.3097843 0.1221088 0.0623533
0.3407881 0.1217312 0.0619757
0.3718913 0.1213524 0.0615968
0.4030938 0.1209723 0.0612168
0.4343958 0.1205910 0.0608355
0.4657970 0.1202085 0.0604530
0.4972977 0.1198248 0.0600693
0.5288977 0.1194399 0.0596844
0.5605970 0.1190538 0.0592983
0.5923957 0.1186665 0.0589110
0.6242938 0.1182780 0.0585224
0.6562913 0.1178882 0.0581327
0.6883881 0.1174972 0.0577417
0.7205843 0.1171051 0.0573496
0.7528798 0.1167117 0.0569562
0.7845363 0.1163171 0.0565616
0.8124813 0.1159213 0.0561658
0.8405119 0.1155243 0.0557688
0.8686278 0.1151261 0.0553706
0.8968293 0.1147267 0.0549712
0.9251161 0.1143260 0.0545705
0.9534885 0.1139242 0.0541687
0.9819463 0.1135211 0.0537656
1.0000000 0.1131168 0.0533613
1.0000000 0.1127114 0.0529559
0.0641156 0.1538924 0.0641156
0.0943245 0.1535245 0.0637476
0.1246327 0.1531553 0.0633784
0.1550404 0.1527849 0.0630080
0.1855474 0.1524133 0.0626365
0.2161537 0.1520405 0.0622637
0.2468594 0.1516665 0.0618896
0.2776645 0.1512913 0.0615144
0.3085690 0.1509148 0.0611380
0.3395728 0.1505372 0.0607603
0.3706760 0.1501583 0.0603815
0.4018785 0.1497783 0.0600014
0.4331804 0.1493970 0.0596202
0.4645817 0.1490145 0.0592377
0.4960823 0.1486308 0.0588540
0.5276823 0.1482459 0.0584691
0.5593817 0.1478598 0.0580830
0.5911804 0.1474725 0.0576956
0.6230785 0.1470839 0.0573071
0.6550759 0.1466942 0.0569173
0.6871727 0.1463032 0.0565264
0.7193689 0.1459111 0.0561342
0.7516645 0.1455177 0.0557408
0.7834911 0.1451231 0.0553463
0.8114361 0.1447273 0.0549505
0.8394666 0.1443303 0.0545535
0.8675826 0.1439321 0.0541552
0.8957841 0.1435327 0.0537558
0.9240709 0.1431320 0.0533552
0.9524433 0.1427302 0.0529533
0.9809011 0.1423271 0.0525503
1.0000000 0.1419228 0.0521460
1.0000000 0.1415174 0.0517405
0.0628963 0.1827903 0.0628963
0.0931052 0.1824223 0.0625284
0.1234135 0.1820531 0.0621592
0.1538211 0.1816827 0.0617888
0.1843281 0.1813112 0.0614172
0.2149345 0.1809383 0.0610444
0.2456402 0.1805643 0.0606704
0.2764453 0.1801891 0.0602952
0.3073497 0.1798127 0.0599188
0.3383535 0.1794350 0.0595411
0.3694567 0.1790562 0.0591623
0.4006593 0.1786761 0.0587822
0.4319612 0.1782948 0.0584009
0.4633624 0.1779124 0.0580184
0.4948631 0.1775287 0.0576347
0.5264631 0.1771438 0.0572498
0.5581624 0.1767576 0.0568637
0.5899611 0.1763703 0.0564764
0.6218592 0.1759818 0.0560879
0.6538567 0.1755920 0.0556981
0.6859535 0.1752011 0.0553072
0.7181497 0.1748089 0.0549150
0.7504452 0.1744155 0.0545216
0.7824425 0.1740209 0.0541270
0.8103876 0.1736252 0.0537312
0.8384181 0.1732281 0.0533342
0.8665341 0.1728299 0.0529360
0.8947355 0.1724305 0.0525366
0.9230224 0.1720299 0.0521359
0.9513947 0.1716280 0.0517341
0.9798525 0.1712249 0.0513310
1.0000000 0.1708207 0.0509268
1.0000000 0.1704152 0.0505213
0.0616732 0.2117800 0.0616732
0.0918821 0.2114120 0.0613053
0.1221904 0.2110428 0.0609361
0.1525980 0.2106724 0.0605657
0.1831050 0.2103008 0.0601941
0.2137114 0.2099280 0.0598213
0.2444171 0.2095540 0.0594473
0.2752222 0.2091788 0.0590721
0.3061266 0.2088024 0.0586957
0.3371304 0.2084247 0.0583180
0.3682336 0.2080459 0.0579392
0.3994362 0.2076658 0.0575591
0.4307381 0.2072845 0.0571778
0.4621393 0.2069021 0.0567953
0.4936400 0.2065184 0.0564116
0.5252400 0.2061335 0.0560267
0.5569393 0.2057473 0.0556406
0.5887380 0.2053600 0.0552533
0.6206361 0.2049715 0.0548648
0.6526336 0.2045817 0.0544750
0.6847304 0.2041908 0.0540841
0.7169266 0.2037986 0.0536919
0.7492221 0.2034052 0.0532985
0.7813906 0.2030106 0.0529039
0.8093357 0.2026148 0.0525081
0.8373662 0.2022178 0.0521111
0.8654822 0.2018196 0.0517129
0.8936837 0.2014202 0.0513135
0.9219705 0.2010196 0.0509128
0.9503429 0.2006177 0.0505110
0.9788007 0.2002146 0.0501079
1.0000000 0.1998104 0.0497036
1.0000000 0.1994049 0.0492982
0.0604462 0.2408615 0.0604462
0.0906551 0.2404935 0.0600783
0.1209634 0.2401244 0.0597091
0.1513710 0.2397540 0.0593387
0.1818780 0.2393824 0.0589671
0.2124844 0.2390096 0.0585943
0.2431901 0.2386356 0.0582203
0.2739952 0.2382604 0.0578451
0.3048996 0.2378839 0.0574687
0.3359035 0.2375063 0.0570910
0.3670066 0.2371274 0.0567122
0.3982092 0.2367474 0.0563321
0.4295111 0.2363661 0.0559508
0.4609124 0.2359836 0.0555684
0.4924130 0.2355999 0.0551847
0.5240130 0.2352150 0.0547998
0.5557123 0.2348289 0.0544136
0.5875111 0.2344416 0.0540263
0.6194092 0.2340530 0.0536378
0.6514066 0.2336633 0.0532480
0.6835034 0.2332723 0.0528571
0.7156996 0.2328802 0.0524649
0.7479951 0.2324868 0.0520715
0.7803354 0.2320922 0.0516769
0.8082805 0.2316964 0.0512811
0.8363110 0.2312994 0.0508841
0.8644270 0.2309012 0.0504859
0.8926284 0.2305017 0.0500865
0.9209153 0.2301011 0.0496858
0.9492877 0.2296993 0.0492840
0.9777455 0.2292962 0.0488809
1.0000000 0.2288919 0.0484767
1.0000000 0.2284864 0.0480712
0.0592154 0.2700349 0.0592154
0.0894243 0.2696669 0.0588474
0.1197326 0.2692978 0.0584783
0.1501402 0.2689274 0.0581079
0.1806472 0.2685558 0.0577363
0.2112535 0.2681830 0.0573635
0.2419593 0.2678090 0.0569895
0.2727643 0.2674338 0.0566142
0.3036688 0.2670573 0.0562378
0.3346726 0.2666797 0.0558602
0.3657758 0.2663008 0.0554813
0.3969783 0.2659208 0.0551013
0.4282802 0.2655395 0.0547200
0.4596815 0.2651570 0.0543375
0.4911821 0.2647733 0.0539538
0.5227821 0.2643884 0.0535689
0.5544815 0.2640023 0.0531828
0.5862802 0.2636150 0.0527955
0.6181783 0.2632264 0.0524069
0.6501757 0.2628367 0.0520172
0.6822726 0.2624457 0.0516262
0.7144687 0.2620536 0.0512340
0.7467643 0.2616602 0.0508407
0.7791592 0.2612656 0.0504461
0.8072220 0.2608698 0.0500503
0.8352525 0.2604728 0.0496533
0.8633685 0.2600746 0.0492551
0.8915699 0.2596751 0.0488556
0.9198568 0.2592745 0.0484550
0.9482291 0.2588727 0.0480531
0.9766869 0.2584696 0.0476501
1.0000000 0.2580653 0.0472458
1.0000000 0.2576598 0.0468403
0.0579807 0.2993002 0.0579807
0.0881896 0.2989322 0.0576127
0.1184978 0.2985630 0.0572435
0.1489055 0.2981926 0.0568731
0.1794124 0.2978210 0.0565016
0.2100188 0.2974482 0.0561288
0.2407245 0.2970742 0.0557547
0.2715296 0.2966990 0.0553795
0.3024341 0.2963226 0.0550031
0.3334379 0.2959449 0.0546254
0.3645411 0.2955661 0.0542466
0.3957436 0.2951860 0.0538665
0.4270455 0.2948047 0.0534852
0.4584468 0.2944223 0.0531028
0.4899474 0.2940386 0.0527191
0.5215474 0.2936537 0.0523342
0.5532468 0.2932675 0.0519480
0.5850455 0.2928802 0.0515607
0.6169436 0.2924917 0.0511722
0.6489410 0.2921019 0.0507824
0.6810378 0.2917110 0.0503915
0.7132340 0.2913188 0.0499993
0.7455296 0.2909254 0.0496059
0.7779245 0.2905308 0.0492114
0.8061601 0.2901350 0.0488156
0.8341906 0.2897380 0.0484185
0.8623066 0.2893398 0.0480203
0.8905080 0.2889404 0.0476209
0.9187949 0.2885398 0.0472203
0.9471673 0.2881379 0.0468184
0.9756251 0.2877348 0.0464154
1.0000000 0.2873306 0.0460111
1.0000000 0.2869251 0.0456056
0.0567421 0.3286573 0.0567421
0.0869510 0.3282893 0.0563741
0.1172592 0.3279201 0.0560049
0.1476668 0.3275497 0.0556345
0.1781738 0.3271782 0.0552629
0.2087802 0.3268054 0.0548901
0.2394859 0.3264313 0.0545161
0.2702910 0.3260561 0.0541409
0.3011955 0.3256797 0.0537645
0.3321993 0.3253020 0.0533868
0.3633024 0.3249232 0.0530080
0.3945050 0.3245431 0.0526279
0.4258069 0.3241618 0.0522466
0.4572082 0.3237794 0.0518642
0.4887088 0.3233957 0.0514805
0.5203088 0.3230108 0.0510956
0.5520081 0.3226246 0.0507094
0.5838069 0.3222373 0.0503221
0.6157050 0.3218488 0.0499336
0.6477024 0.3214590 0.0495438
0.6797992 0.3210681 0.0491529
0.7119954 0.3206759 0.0487607
0.7442909 0.3202825 0.0483673
0.7766859 0.3198880 0.0479727
0.8050949 0.3194922 0.0475769
0.8331254 0.3190951 0.0471799
0.8612414 0.3186969 0.0467817
0.8894428 0.3182975 0.0463823
0.9177297 0.3178969 0.0459817
0.9461021 0.3174950 0.0455798
0.9745599 0.3170920 0.0451767
1.0000000 0.3166877 0.0447725
1.0000000 0.3162822 0.0443670
0.0554996 0.3581062 0.0554996
0.0857085 0.3577383 0.0551316
0.1160167 0.3573691 0.0547624
0.1464244 0.3569987 0.0543921
0.1769314 0.3566271 0.0540205
0.2075377 0.3562543 0.0536477
0.2382434 0.3558803 0.0532736
0.2690485 0.3555051 0.0528984
0.2999530 0.3551286 0.0525220
0.3309568 0.3547510 0.0521444
0.3620600 0.3543721 0.0517655
0.3932625 0.3539921 0.0513854
0.4245644 0.3536108 0.0510042
0.4559657 0.3532283 0.0506217
0.4874663 0.3528446 0.0502380
0.5190663 0.3524597 0.0498531
0.5507657 0.3520736 0.0494670
0.5825644 0.3516863 0.0490796
0.6144625 0.3512977 0.0486911
0.6464599 0.3509080 0.0483014
0.6785567 0.3505170 0.0479104
0.7107529 0.3501249 0.0475182
0.7430485 0.3497315 0.0471249
0.7754434 0.3493369 0.0467303
0.8040264 0.3489411 0.0463345
0.8320569 0.3485441 0.0459375
0.8601729 0.3481459 0.0455392
0.8883743 0.3477465 0.0451398
0.9166612 0.3473458 0.0447392
0.9450335 0.3469440 0.0443373
0.9734913 0.3465409 0.0439343
1.0000000 0.3461366 0.0435300
1.0000000 0.3457312 0.0431245
0.0542532 0.3876470 0.0542532
0.0844621 0.3872791 0.0538853
0.1147704 0.3869099 0.0535161
0.1451780 0.3865395 0.0531457
0.1756850 0.3861679 0.0527741
0.2062914 0.3857951 0.0524013
0.2369971 0.3854211 0.0520273
0.2678022 0.3850459 0.0516521
0.2987066 0.3846695 0.0512756
0.3297104 0.3842918 0.0508980
0.3608136 0.3839130 0.0505191
0.3920161 0.3835329 0.0501391
0.4233180 0.3831516 0.0497578
0.4547193 0.3827691 0.0493753
0.4862199 0.3823854 0.0489916
0.5178199 0.3820005 0.0486067
0.5495193 0.3816144 0.0482206
0.5813180 0.3812271 0.0478333
0.6132161 0.3808386 0.0474447
0.6452136 0.3804488 0.0470550
0.6773104 0.3800579 0.0466640
0.7095066 0.3796657 0.0462719
0.7418021 0.3792723 0.0458785
0.7741970 0.3788777 0.0454839
0.8029545 0.3784819 0.0450881
0.8309850 0.3780849 0.0446911
0.8591010 0.3776867 0.0442929
0.8873024 0.3772873 0.0438935
0.9155893 0.3768866 0.0434928
0.9439617 0.3764848 0.0430910
0.9724195 0.3760817 0.0426879
1.0000000 0.3756774 0.0422836
1.0000000 0.3752720 0.0418782
0.0530030 0.4172797 0.0530030
0.0832119 0.4169117 0.0526350
0.1135201 0.4165426 0.0522658
0.1439278 0.4161722 0.0518955
0.1744348 0.4158006 0.0515239
0.2050411 0.4154278 0.0511511
0.2357468 0.4150538 0.0507771
0.2665519 0.4146785 0.0504018
0.2974564 0.4143021 0.0500254
0.3284602 0.4139245 0.0496478
0.3595634 0.4135456 0.0492689
0.3907659 0.4131656 0.0488888
0.4220678 0.4127843 0.0485076
0.4534691 0.4124018 0.0481251
0.4849697 0.4120181 0.0477414
0.5165697 0.4116332 0.0473565
0.5482691 0.4112471 0.0469704
0.5800678 0.4108598 0.0465830
0.6119659 0.4104712 0.0461945
0.6439633 0.4100815 0.0458048
0.6760602 0.4096905 0.0454138
0.7082563 0.4092983 0.0450216
0.7405519 0.4089050 0.0446283
0.7729468 0.4085104 0.0442337
0.8018793 0.4081146 0.0438379
0.8299098 0.4077176 0.0434409
0.8580258 0.4073194 0.0430426
0.8862272 0.4069199 0.0426432
0.9145141 0.4065193 0.0422426
0.9428865 0.4061174 0.0418407
0.9713443 0.4057144 0.0414377
0.9998875 0.4053101 0.0410334
1.0000000 0.4049046 0.0406279
0.0517489 0.4470042 0.0517489
0.0819578 0.4466362 0.0513809
0.1122660 0.4462671 0.0510117
0.1426737 0.4458967 0.0506414
0.1731807 0.4455251 0.0502698
0.2037870 0.4451523 0.0498970
0.2344927 0.4447783 0.0495230
0.2652978 0.4444031 0.0491477
0.2962023 0.4440266 0.0487713
0.3272061 0.4436490 0.0483937
0.3583093 0.4432701 0.0480148
0.3895118 0.4428901 0.0476347
0.4208137 0.4425088 0.0472535
0.4522150 0.4421263 0.0468710
0.4837156 0.4417426 0.0464873
0.5153156 0.4413577 0.0461024
0.5470150 0.4409716 0.0457163
0.5788137 0.4405843 0.0453289
0.6107118 0.4401957 0.0449404
0.6427092 0.4398060 0.0445507
0.6748060 0.4394150 0.0441597
0.7070022 0.4390229 0.0437675
0.7392978 0.4386295 0.0433742
0.7716927 0.4382349 0.0429796
0.8008008 0.4378391 0.0425838
0.8288313 0.4374421 0.0421868
0.8569473 0.4370439 0.0417885
0.8851487 0.4366444 0.0413891
0.9134356 0.4362438 0.0409885
0.9418079 0.4358420 0.0405866
0.9702657 0.4354389 0.0401836
0.9988090 0.4350346 0.0397793
1.0000000 0.4346291 0.0393738
0.0504909 0.4768206 0.0504909
0.0806998 0.4764526 0.0501229
0.1110081 0.4760834 0.0497538
0.1414157 0.4757131 0.0493834
0.1719227 0.4753415 0.0490118
0.2025290 0.4749687 0.0486390
0.2332348 0.4745947 0.0482650
0.2640398 0.4742194 0.0478897
0.2949443 0.4738430 0.0475133
0.3259481 0.4734654 0.0471357
0.3570513 0.4730865 0.0467568
0.3882538 0.4727064 0.0463768
0.4195557 0.4723252 0.0459955
0.4509570 0.4719427 0.0456130
0.4824576 0.4715590 0.0452293
0.5140576 0.4711741 0.0448444
0.5457570 0.4707880 0.0444583
0.5775557 0.4704006 0.0440710
0.6094538 0.4700121 0.0436824
0.6414512 0.4696224 0.0432927
0.6735481 0.4692314 0.0429017
0.7057442 0.4688392 0.0425095
0.7380398 0.4684459 0.0421162
0.7704347 0.4680513 0.0417216
0.7997189 0.4676555 0.0413258
0.8277494 0.4672585 0.0409288
0.8558654 0.4668602 0.0405306
0.8840668 0.4664608 0.0401311
0.9123537 0.4660602 0.0397305
0.9407261 0.4656583 0.0393286
0.9691839 0.4652553 0.0389256
0.9977271 0.4648510 0.0385213
1.0000000 0.4644455 0.0381158
0.0492290 0.5067288 0.0492290
0.0794379 0.5063608 0.0488611
0.1097462 0.5059917 0.0484919
0.1401538 0.5056213 0.0481215
0.1706608 0.5052497 0.0477499
0.2012672 0.5048769 0.0473771
0.2319729 0.5045029 0.0470031
0.2627780 0.5041277 0.0466279
0.2936824 0.5037512 0.0462515
0.3246862 0.5033736 0.0458738
0.3557894 0.5029947 0.0454950
0.3869920 0.5026147 0.0451149
0.4182939 0.5022334 0.0447336
0.4496951 0.5018509 0.0443511
0.4811958 0.5014672 0.0439674
0.5127958 0.5010823 0.0435825
0.5444951 0.5006962 0.0431964
0.5762938 0.5003089 0.0428091
0.6081919 0.4999203 0.0424206
0.6401894 0.4995306 0.0420308
0.6722862 0.4991396 0.0416399
0.7044824 0.4987475 0.0412477
0.7367779 0.4983541 0.0408543
0.7691728 0.4979595 0.0404597
0.7986337 0.4975637 0.0400639
0.8266642 0.4971667 0.0396669
0.8547802 0.4967685 0.0392687
0.8829816 0.4963690 0.0388693
0.9112685 0.4959684 0.0384686
0.9396409 0.4955665 0.0380668
0.9680987 0.4951635 0.0376637
0.9966419 0.4947592 0.0372595
1.0000000 0.4943537 0.0368540
0.0479633 0.5367289 0.0479633
0.0781722 0.5363609 0.0475953
0.1084805 0.5359917 0.0472262
0.1388881 0.5356214 0.0468558
0.1693951 0.5352498 0.0464842
0.2000014 0.5348770 0.0461114
0.2307072 0.5345030 0.0457374
0.2615122 0.5341277 0.0453622
0.2924167 0.5337513 0.0449857
0.3234205 0.5333737 0.0446081
0.3545237 0.5329948 0.0442292
0.3857262 0.5326147 0.0438492
0.4170281 0.5322335 0.0434679
0.4484294 0.5318510 0.0430854
0.4799300 0.5314673 0.0427017
0.5115300 0.5310824 0.0423168
0.5432294 0.5306963 0.0419307
0.5750281 0.5303089 0.0415434
0.6069262 0.5299204 0.0411548
0.6389236 0.5295307 0.0407651
0.6710205 0.5291397 0.0403741
0.7032166 0.5287475 0.0399820
0.7355122 0.5283542 0.0395886
0.7679071 0.5279596 0.0391940
0.7975452 0.5275638 0.0387982
0.8255757 0.5271668 0.0384012
0.8536917 0.5267685 0.0380030
0.8818931 0.5263691 0.0376035
0.9101800 0.5259685 0.0372029
0.9385523 0.5255666 0.0368010
0.9670101 0.5251636 0.0363980
0.9955534 0.5247593 0.0359937
1.0000000 0.5243538 0.0355882
0.0466937 0.5668208 0.0466937
0.0769026 0.5664528 0.0463257
0.1072109 0.5660837 0.0459566
0.1376185 0.5657133 0.0455862
0.1681255 0.5653417 0.0452146
0.1987318 0.5649689 0.0448418
0.2294376 0.5645949 0.0444678
0.2602426 0.5642197 0.0440925
0.2911471 0.5638432 0.0437161
0.3221509 0.5634656 0.0433385
0.3532541 0.5630867 0.0429596
0.3844566 0.5627067 0.0425795
0.4157585 0.5623254 0.0421983
0.4471598 0.5619429 0.0418158
0.4786604 0.5615592 0.0414321
0.5102604 0.5611743 0.0410472
0.5419598 0.5607882 0.0406611
0.5737585 0.5604009 0.0402737
0.6056566 0.5600123 0.0398852
0.6376540 0.5596226 0.0394955
0.6697509 0.5592316 0.0391045
0.7019470 0.5588395 0.0387123
0.7342426 0.5584461 0.0383190
0.7666375 0.5580515 0.0379244
0.7964533 0.5576557 0.0375286
0.8244838 0.5572587 0.0371316
0.8525998 0.5568605 0.0367334
0.8808012 0.5564610 0.0363339
0.9090881 0.5560604 0.0359333
0.9374605 0.5556585 0.0355314
0.9659183 0.5552555 0.0351284
0.9944615 0.5548512 0.0347241
1.0000000 0.5544457 0.0343186
0.0454202 0.5970046 0.0454202
0.0756291 0.5966366 0.0450522
0.1059374 0.5962674 0.0446831
0.1363450 0.5958971 0.0443127
0.1668520 0.5955255 0.0439411
0.1974583 0.5951527 0.0435683
0.2281641 0.5947787 0.0431943
0.2589692 0.5944034 0.0428191
0.2898736 0.5940270 0.0424426
0.3208774 0.5936494 0.0420650
0.3519806 0.5932705 0.0416861
0.3831831 0.5928904 0.0413061
0.4144850 0.5925092 0.0409248
0.4458863 0.5921267 0.0405423
0.4773869 0.5917430 0.0401586
0.5089869 0.5913581 0.0397737
0.5406863 0.5909720 0.0393876
0.5724850 0.5905846 0.0390003
0.6043831 0.5901961 0.0386117
0.6363806 0.5898064 0.0382220
0.6684774 0.5894154 0.0378310
0.7006735 0.5890232 0.0374389
0.7329691 0.5886299 0.0370455
0.7653640 0.5882353 0.0366509
0.7953581 0.5878395 0.0362551
0.8233886 0.5874425 0.0358581
0.8515046 0.5870442 0.0354599
0.8797060 0.5866448 0.0350604
0.9079929 0.5862442 0.0346598
0.9363653 0.5858423 0.0342580
0.9648231 0.5854393 0.0338549
0.9933663 0.5850350 0.0334506
1.0000000 0.5846295 0.0330451
0.0441428 0.6272802 0.0441428
0.0743517 0.6269122 0.0437749
0.1046600 0.6265431 0.0434057
0.1350676 0.6261727 0.0430353
0.1655746 0.6258011 0.0426637
0.1961810 0.6254283 0.0422909
0.2268867 0.6250543 0.0419169
0.2576918 0.6246791 0.0415417
0.2885962 0.6243026 0.0411653
0.3196001 0.6239250 0.0407876
0.3507032 0.6235461 0.0404088
0.3819058 0.6231661 0.0400287
0.4132077 0.6227848 0.0396474
0.4446089 0.6224023 0.0392649
0.4761096 0.6220186 0.0388812
0.5077096 0.6216337 0.0384963
0.5394089 0.6212476 0.0381102
0.5712077 0.6208603 0.0377229
0.6031057 0.6204717 0.0373344
0.6351032 0.6200820 0.0369446
0.6672000 0.6196910 0.0365537
0.6993962 0.6192989 0.0361615
0.7316917 0.6189055 0.0357681
0.7640866 0.6185109 0.0353735
0.7942596 0.6181151 0.0349777
0.8222901 0.6177181 0.0345807
0.8504061 0.6173199 0.0341825
0.8786075 0.6169204 0.0337831
0.9068944 0.6165198 0.0333824
0.9352667 0.6161180 0.0329806
0.9637245 0.6157149 0.0325775
0.9922678 0.6153106 0.0321733
1.0000000 0.6149051 0.0317678
0.0428616 0.6576477 0.0428616
0.0730705 0.6572797 0.0424936
0.1033788 0.6569106 0.0421245
0.1337864 0.6565402 0.0417541
0.1642934 0.6561686 0.0413825
0.1948998 0.6557958 0.0410097
0.2256055 0.6554218 0.0406357
0.2564106 0.6550465 0.0402605
0.2873150 0.6546701 0.0398840
0.3183188 0.6542925 0.0395064
0.3494220 0.6539136 0.0391275
0.3806245 0.6535336 0.0387475
0.4119264 0.6531523 0.0383662
0.4433277 0.6527698 0.0379837
0.4748283 0.6523861 0.0376000
0.5064283 0.6520012 0.0372151
0.5381277 0.6516151 0.0368290
0.5699264 0.6512278 0.0364417
0.6018245 0.6508392 0.0360531
0.6338220 0.6504495 0.0356634
0.6659188 0.6500585 0.0352724
0.6981150 0.6496663 0.0348803
0.7304105 0.6492730 0.0344869
0.7628054 0.6488784 0.0340923
0.7931577 0.6484826 0.0336965
0.8211882 0.6480856 0.0332995
0.8493042 0.6476874 0.0329013
0.8775057 0.6472879 0.0325018
0.9057925 0.6468873 0.0321012
0.9341649 0.6464854 0.0316994
0.9626227 0.6460824 0.0312963
0.9911659 0.6456781 0.0308920
1.0000000 0.6452726 0.0304865
0.0415765 0.6881070 0.0415765
0.0717854 0.6877391 0.0412085
0.1020937 0.6873699 0.0408394
0.1325013 0.6869995 0.0404690
0.1630083 0.6866279 0.0400974
0.1936146 0.6862551 0.0397246
0.2243204 0.6858811 0.0393506
0.2551254 0.6855059 0.0389754
0.2860299 0.6851295 0.0385989
0.3170337 0.6847518 0.0382213
0.3481369 0.6843730 0.0378424
0.3793394 0.6839929 0.0374624
0.4106413 0.6836116 0.0370811
0.4420426 0.6832291 0.0366986
0.4735432 0.6828454 0.0363149
0.5051432 0.6824605 0.0359300
0.5368426 0.6820744 0.0355439
0.5686413 0.6816871 0.0351566
0.6005394 0.6812986 0.0347680
0.6325368 0.6809088 0.0343783
0.6646337 0.6805179 0.0339873
0.6968298 0.6801257 0.0335952
0.7291254 0.6797323 0.0332018
0.7615203 0.6793377 0.0328072
0.7920525 0.6789419 0.0324114
0.8200830 0.6785449 0.0320144
0.8481990 0.6781467 0.0316162
0.8764005 0.6777473 0.0312167
0.9046873 0.6773466 0.0308161
0.9330597 0.6769448 0.0304142
0.9615175 0.6765417 0.0300112
0.9900607 0.6761375 0.0296069
1.0000000 0.6757320 0.0292014
0.0402875 0.7186582 0.0402875
0.0704964 0.7182903 0.0399195
0.1008047 0.7179211 0.0395504
0.1312123 0.7175507 0.0391800
0.1617193 0.7171791 0.0388084
0.1923257 0.7168063 0.0384356
0.2230314 0.7164323 0.0380616
0.2538365 0.7160571 0.0376864
0.2847409 0.7156806 0.0373099
0.3157447 0.7153030 0.0369323
0.3468479 0.7149241 0.0365534
0.3780504 0.7145441 0.0361734
0.4093523 0.7141628 0.0357921
0.4407536 0.7137803 0.0354096
0.4722542 0.7133966 0.0350259
0.5038542 0.7130117 0.0346410
0.5355536 0.7126256 0.0342549
0.5673523 0.7122383 0.0338676
0.5992504 0.7118497 0.0334790
0.6312479 0.7114600 0.0330893
0.6633447 0.7110690 0.0326983
0.6955409 0.7106769 0.0323062
0.7278364 0.7102835 0.0319128
0.7602313 0.7098889 0.0315182
0.7909440 0.7094931 0.0311224
0.8189745 0.7090961 0.0307254
0.8470905 0.7086979 0.0303272
0.8752919 0.7082985 0.0299277
0.9035788 0.7078978 0.0295271
0.9319512 0.7074960 0.0291253
0.9604089 0.7070929 0.0287222
0.9889522 0.7066886 0.0283179
1.0000000 0.7062832 0.0279124
0.0389946 0.7493013 0.0389946
0.0692035 0.7489333 0.0386267
0.0995118 0.7485641 0.0382575
0.1299194 0.7481937 0.0378871
0.1604264 0.7478222 0.0375155
0.1910328 0.7474494 0.0371427
0.2217385 0.7470753 0.0367687
0.2525436 0.7467001 0.0363935
0.2834480 0.7463237 0.0360171
0.3144519 0.7459460 0.0356394
0.3455550 0.7455672 0.0352606
0.3767576 0.7451871 0.0348805
0.4080595 0.7448058 0.0344992
0.4394607 0.7444234 0.0341167
0.4709614 0.7440397 0.0337331
0.5025614 0.7436548 0.0333481
0.5342607 0.7432686 0.0329620
0.5660595 0.7428813 0.0325747
0.5979575 0.7424928 0.0321862
0.6299550 0.7421030 0.0317964
0.6620518 0.7417121 0.0314055
0.6942480 0.7413199 0.0310133
0.7265435 0.7409265 0.0306199
0.7589384 0.7405320 0.0302253
0.7898321 0.7401362 0.0298295
0.8178627 0.7397391 0.0294325
0.8459786 0.7393409 0.0290343
0.8741801 0.7389415 0.0286349
0.9024670 0.7385409 0.0282342
0.9308393 0.7381390 0.0278324
0.9592971 0.7377360 0.0274293
0.9878403 0.7373317 0.0270251
1.0000000 0.7369262 0.0266196
0.0376979 0.7800311 0.0376979
0.0679068 0.7796682 0.0373299
