creative/exports/jpo-capcut-kit/09-luts/flat-phone-punch.cube
TITLE "Let's Pepper · Flat Phone Punch"
# Apply at 20–40% after exposure and white-balance correction.
LUT_3D_SIZE 9
DOMAIN_MIN 0.0 0.0 0.0
DOMAIN_MAX 1.0 1.0 1.0
0.0000000 0.0000000 0.0000000
0.0875469 0.0000000 0.0000000
0.2329276 0.0000000 0.0000000
0.3783818 0.0000000 0.0000000
0.5239097 0.0000000 0.0000000
0.6695113 0.0000000 0.0000000
0.8102604 0.0000000 0.0000000
0.9356045 0.0000000 0.0000000
1.0000000 0.0000000 0.0000000
0.0000000 0.0833039 0.0000000
0.0835568 0.0821059 0.0000000
0.2289375 0.0809074 0.0000000
0.3743917 0.0797082 0.0000000
0.5199196 0.0785084 0.0000000
0.6655212 0.0773080 0.0000000
0.8068289 0.0761070 0.0000000
0.9321730 0.0749054 0.0000000
1.0000000 0.0737032 0.0000000
0.0000000 0.2244386 0.0000000
0.0795647 0.2232406 0.0000000
0.2249453 0.2220421 0.0000000
0.3703996 0.2208429 0.0000000
0.5159275 0.2196431 0.0000000
0.6615291 0.2184427 0.0000000
0.8033957 0.2172417 0.0000000
0.9287398 0.2160401 0.0000000
1.0000000 0.2148379 0.0000000
0.0000000 0.3656441 0.0000000
0.0755706 0.3644461 0.0000000
0.2209512 0.3632476 0.0000000
0.3664055 0.3620484 0.0000000
0.5119334 0.3608486 0.0000000
0.6575350 0.3596482 0.0000000
0.7999608 0.3584472 0.0000000
0.9253048 0.3572456 0.0000000
1.0000000 0.3560434 0.0000000
0.0000000 0.5069204 0.0000000
0.0715745 0.5057224 0.0000000
0.2169551 0.5045239 0.0000000
0.3624094 0.5033247 0.0000000
0.5079373 0.5021249 0.0000000
0.6535389 0.5009245 0.0000000
0.7965241 0.4997235 0.0000000
0.9218682 0.4985219 0.0000000
1.0000000 0.4973197 0.0000000
0.0000000 0.6482675 0.0000000
0.0675764 0.6470695 0.0000000
0.2129570 0.6458709 0.0000000
0.3584113 0.6446718 0.0000000
0.5039392 0.6434720 0.0000000
0.6495408 0.6422716 0.0000000
0.7930858 0.6410706 0.0000000
0.9184298 0.6398690 0.0000000
1.0000000 0.6386668 0.0000000
0.0000000 0.7883294 0.0000000
0.0635763 0.7872992 0.0000000
0.2089569 0.7862684 0.0000000
0.3544112 0.7852371 0.0000000
0.4999391 0.7842053 0.0000000
0.6455407 0.7831730 0.0000000
0.7896457 0.7821401 0.0000000
0.9149897 0.7811067 0.0000000
1.0000000 0.7800728 0.0000000
0.0000000 0.9100097 0.0000000
0.0595742 0.9089794 0.0000000
0.2049548 0.9079487 0.0000000
0.3504091 0.9069174 0.0000000
0.4959370 0.9058856 0.0000000
0.6415385 0.9048532 0.0000000
0.7862038 0.9038204 0.0000000
0.9115479 0.9027870 0.0000000
1.0000000 0.9017531 0.0000000
0.0000000 1.0000000 0.0000000
0.0555701 1.0000000 0.0000000
0.2009507 1.0000000 0.0000000
0.3464049 1.0000000 0.0000000
0.4919329 1.0000000 0.0000000
0.6375344 1.0000000 0.0000000
0.7827603 1.0000000 0.0000000
0.9081043 1.0000000 0.0000000
1.0000000 1.0000000 0.0000000
0.0000000 0.0000000 0.0847209
0.0871502 0.0000000 0.0835229
0.2325308 0.0000000 0.0823244
0.3779851 0.0000000 0.0811252
0.5235130 0.0000000 0.0799254
0.6691145 0.0000000 0.0787250
0.8099192 0.0000000 0.0775240
0.9352632 0.0000000 0.0763224
1.0000000 0.0000000 0.0751202
0.0000000 0.0829071 0.0807308
0.0831601 0.0817092 0.0795328
0.2285407 0.0805106 0.0783343
0.3739950 0.0793114 0.0771351
0.5195229 0.0781117 0.0759353
0.6651244 0.0769113 0.0747349
0.8064877 0.0757103 0.0735339
0.9318318 0.0745087 0.0723323
1.0000000 0.0733065 0.0711301
0.0000000 0.2240418 0.0767387
0.0791680 0.2228439 0.0755407
0.2245486 0.2216453 0.0743422
0.3700028 0.2204461 0.0731430
0.5155308 0.2192464 0.0719432
0.6611323 0.2180460 0.0707428
0.8030545 0.2168450 0.0695418
0.9283985 0.2156434 0.0683402
1.0000000 0.2144412 0.0671380
0.0000000 0.3652473 0.0727446
0.0751739 0.3640494 0.0715466
0.2205545 0.3628508 0.0703481
0.3660087 0.3616516 0.0691489
0.5115367 0.3604518 0.0679491
0.6571382 0.3592515 0.0667487
0.7996196 0.3580505 0.0655477
0.9249636 0.3568489 0.0643461
1.0000000 0.3556467 0.0631439
0.0000000 0.5065236 0.0687485
0.0711778 0.5053257 0.0675505
0.2165584 0.5041271 0.0663519
0.3620126 0.5029279 0.0651528
0.5075406 0.5017281 0.0639530
0.6531421 0.5005278 0.0627526
0.7961829 0.4993268 0.0615516
0.9215270 0.4981252 0.0603500
1.0000000 0.4969229 0.0591478
0.0000000 0.6478707 0.0647504
0.0671797 0.6466728 0.0635524
0.2125603 0.6454742 0.0623538
0.3580145 0.6442750 0.0611547
0.5035424 0.6430752 0.0599549
0.6491440 0.6418748 0.0587545
0.7927445 0.6406738 0.0575535
0.9180886 0.6394722 0.0563519
1.0000000 0.6382700 0.0551497
0.0000000 0.7879882 0.0607502
0.0631795 0.7869579 0.0595523
0.2085601 0.7859272 0.0583537
0.3540144 0.7848959 0.0571545
0.4995423 0.7838641 0.0559548
0.6451439 0.7828317 0.0547544
0.7893044 0.7817989 0.0535534
0.9146485 0.7807655 0.0523518
1.0000000 0.7796879 0.0511496
0.0000000 0.9096685 0.0567481
0.0591774 0.9086382 0.0555502
0.2045580 0.9076074 0.0543516
0.3500123 0.9065762 0.0531524
0.4955402 0.9055443 0.0519527
0.6411418 0.9045120 0.0507523
0.7858626 0.9034792 0.0495513
0.9112067 0.9024458 0.0483497
1.0000000 0.9014119 0.0471475
0.0000000 1.0000000 0.0527440
0.0551733 1.0000000 0.0515461
0.2005539 1.0000000 0.0503475
0.3460082 1.0000000 0.0491483
0.4915361 1.0000000 0.0479485
0.6371377 1.0000000 0.0467481
0.7824191 1.0000000 0.0455471
0.9077631 1.0000000 0.0443455
1.0000000 1.0000000 0.0431433
0.0000000 0.0000000 0.2272722
0.0867532 0.0000000 0.2260743
0.2321338 0.0000000 0.2248757
0.3775881 0.0000000 0.2236765
0.5231160 0.0000000 0.2224767
0.6687176 0.0000000 0.2212764
0.8095778 0.0000000 0.2200754
0.9349219 0.0000000 0.2188738
1.0000000 0.0000000 0.2176715
0.0000000 0.0825102 0.2232821
0.0827631 0.0813122 0.2220842
0.2281437 0.0801137 0.2208856
0.3735980 0.0789145 0.2196864
0.5191259 0.0777147 0.2184866
0.6647275 0.0765143 0.2172863
0.8061463 0.0753133 0.2160853
0.9314904 0.0741117 0.2148837
1.0000000 0.0729095 0.2136814
0.0000000 0.2236449 0.2192900
0.0787710 0.2224469 0.2180921
0.2241516 0.2212484 0.2168935
0.3696059 0.2200492 0.2156943
0.5151338 0.2188494 0.2144945
0.6607354 0.2176490 0.2132941
0.8027131 0.2164480 0.2120932
0.9280572 0.2152464 0.2108915
1.0000000 0.2140442 0.2096893
0.0000000 0.3648504 0.2152959
0.0747769 0.3636524 0.2140980
0.2201575 0.3624538 0.2128994
0.3656118 0.3612547 0.2117002
0.5111397 0.3600549 0.2105004
0.6567413 0.3588545 0.2093000
0.7992782 0.3576535 0.2080990
0.9246222 0.3564519 0.2068974
1.0000000 0.3552497 0.2056952
0.0000000 0.5061267 0.2112998
0.0707808 0.5049287 0.2101018
0.2161614 0.5037301 0.2089033
0.3616157 0.5025310 0.2077041
0.5071436 0.5013312 0.2065043
0.6527452 0.5001308 0.2053039
0.7958415 0.4989298 0.2041029
0.9211856 0.4977282 0.2029013
1.0000000 0.4965260 0.2016991
0.0000000 0.6474738 0.2073017
0.0667827 0.6462758 0.2061037
0.2121633 0.6450772 0.2049052
0.3576176 0.6438781 0.2037060
0.5031455 0.6426783 0.2025062
0.6487471 0.6414779 0.2013058
0.7924032 0.6402769 0.2001048
0.9177472 0.6390753 0.1989032
1.0000000 0.6378731 0.1977010
0.0000000 0.7876468 0.2033016
0.0627826 0.7866166 0.2021036
0.2081632 0.7855858 0.2009051
0.3536175 0.7845545 0.1997059
0.4991454 0.7835227 0.1985061
0.6447469 0.7824904 0.1973057
0.7889631 0.7814575 0.1961047
0.9143071 0.7804241 0.1949031
1.0000000 0.7792910 0.1937009
0.0000000 0.9093271 0.1992995
0.0587805 0.9082968 0.1981015
0.2041611 0.9072661 0.1969029
0.3496153 0.9062348 0.1957038
0.4951433 0.9052030 0.1945040
0.6407448 0.9041706 0.1933036
0.7855212 0.9031378 0.1921026
0.9108653 0.9021044 0.1909010
1.0000000 0.9010705 0.1896988
0.0000000 1.0000000 0.1952953
0.0547764 1.0000000 0.1940974
0.2001570 1.0000000 0.1928988
0.3456112 1.0000000 0.1916996
0.4911391 1.0000000 0.1904999
0.6367407 1.0000000 0.1892995
0.7820777 1.0000000 0.1880985
0.9074217 1.0000000 0.1868969
1.0000000 1.0000000 0.1856947
0.0000000 0.0000000 0.3698940
0.0863561 0.0000000 0.3686960
0.2317367 0.0000000 0.3674975
0.3771909 0.0000000 0.3662983
0.5227189 0.0000000 0.3650985
0.6683204 0.0000000 0.3638981
0.8092363 0.0000000 0.3626971
0.9345803 0.0000000 0.3614955
1.0000000 0.0000000 0.3602933
0.0000000 0.0821130 0.3659039
0.0823660 0.0809151 0.3647059
0.2277466 0.0797165 0.3635074
0.3732008 0.0785173 0.3623082
0.5187288 0.0773175 0.3611084
0.6643303 0.0761172 0.3599080
0.8058048 0.0749162 0.3587070
0.9311488 0.0737146 0.3575054
1.0000000 0.0725124 0.3563032
0.0000000 0.2232477 0.3619118
0.0783739 0.2220498 0.3607138
0.2237545 0.2208512 0.3595153
0.3692087 0.2196520 0.3583161
0.5147367 0.2184522 0.3571163
0.6603382 0.2172519 0.3559159
0.8023716 0.2160509 0.3547149
0.9277156 0.2148493 0.3535133
1.0000000 0.2136470 0.3523111
0.0000000 0.3644532 0.3579177
0.0743798 0.3632553 0.3567197
0.2197604 0.3620567 0.3555211
0.3652146 0.3608575 0.3543220
0.5107426 0.3596577 0.3531222
0.6563441 0.3584574 0.3519218
0.7989366 0.3572564 0.3507208
0.9242807 0.3560548 0.3495192
1.0000000 0.3548525 0.3483170
0.0000000 0.5057295 0.3539216
0.0703837 0.5045316 0.3527236
0.2157643 0.5033330 0.3515250
0.3612185 0.5021338 0.3503259
0.5067464 0.5009340 0.3491261
0.6523480 0.4997336 0.3479257
0.7955000 0.4985326 0.3467247
0.9208440 0.4973310 0.3455231
1.0000000 0.4961288 0.3443209
0.0000000 0.6470766 0.3499235
0.0663855 0.6458786 0.3487255
0.2117662 0.6446801 0.3475269
0.3572204 0.6434809 0.3463278
0.5027483 0.6422811 0.3451280
0.6483499 0.6410807 0.3439276
0.7920616 0.6398797 0.3427266
0.9174057 0.6386781 0.3415250
1.0000000 0.6374759 0.3403228
0.0000000 0.7873053 0.3459233
0.0623854 0.7862750 0.3447254
0.2077660 0.7852442 0.3435268
0.3532203 0.7842130 0.3423276
0.4987482 0.7831811 0.3411279
0.6443498 0.7821488 0.3399275
0.7886215 0.7811160 0.3387265
0.9139656 0.7800826 0.3375249
1.0000000 0.7788938 0.3363227
0.0000000 0.9089855 0.3419212
0.0583833 0.9079553 0.3407233
0.2037639 0.9069245 0.3395247
0.3492182 0.9058932 0.3383255
0.4947461 0.9048614 0.3371257
0.6403477 0.9038291 0.3359254
0.7851797 0.9027962 0.3347244
0.9105237 0.9017628 0.3335228
1.0000000 0.9007289 0.3323205
0.0000000 1.0000000 0.3379171
0.0543792 1.0000000 0.3367191
0.1997598 1.0000000 0.3355206
0.3452141 1.0000000 0.3343214
0.4907420 1.0000000 0.3331216
0.6363436 1.0000000 0.3319212
0.7817362 1.0000000 0.3307202
0.9070802 1.0000000 0.3295186
1.0000000 1.0000000 0.3283164
0.0000000 0.0000000 0.5125862
0.0859587 0.0000000 0.5113882
0.2313393 0.0000000 0.5101897
0.3767936 0.0000000 0.5089905
0.5223215 0.0000000 0.5077907
0.6679231 0.0000000 0.5065903
0.8088945 0.0000000 0.5053893
0.9342386 0.0000000 0.5041877
1.0000000 0.0000000 0.5029855
0.0000000 0.0817157 0.5085961
0.0819686 0.0805177 0.5073981
0.2273492 0.0793192 0.5061996
0.3728035 0.0781200 0.5050004
0.5183314 0.0769202 0.5038006
0.6639330 0.0757198 0.5026002
0.8054631 0.0745188 0.5013992
0.9308071 0.0733172 0.5001976
1.0000000 0.0721150 0.4989954
0.0000000 0.2228504 0.5046040
0.0779765 0.2216524 0.5034060
0.2233571 0.2204539 0.5022075
0.3688114 0.2192547 0.5010083
0.5143393 0.2180549 0.4998085
0.6599409 0.2168545 0.4986081
0.8020299 0.2156535 0.4974071
0.9273739 0.2144519 0.4962055
1.0000000 0.2132497 0.4950033
0.0000000 0.3640559 0.5006099
0.0739824 0.3628579 0.4994119
0.2193630 0.3616593 0.4982133
0.3648173 0.3604602 0.4970142
0.5103452 0.3592604 0.4958144
0.6559468 0.3580600 0.4946140
0.7985949 0.3568590 0.4934130
0.9239390 0.3556574 0.4922114
1.0000000 0.3544552 0.4910092
0.0000000 0.5053322 0.4966138
0.0699863 0.5041342 0.4954158
0.2153669 0.5029356 0.4942172
0.3608212 0.5017365 0.4930181
0.5063491 0.5005367 0.4918183
0.6519507 0.4993363 0.4906179
0.7951583 0.4981353 0.4894169
0.9205023 0.4969337 0.4882153
1.0000000 0.4957315 0.4870131
0.0000000 0.6466793 0.4926157
0.0659882 0.6454813 0.4914177
0.2113688 0.6442827 0.4902191
0.3568231 0.6430836 0.4890200
0.5023510 0.6418838 0.4878202
0.6479526 0.6406834 0.4866198
0.7917199 0.6394824 0.4854188
0.9170639 0.6382808 0.4842172
1.0000000 0.6370786 0.4830150
0.0000000 0.7869635 0.4886155
0.0619881 0.7859333 0.4874176
0.2073687 0.7849025 0.4862190
0.3528230 0.7838712 0.4850198
0.4983509 0.7828394 0.4838201
0.6439524 0.7818071 0.4826197
0.7882798 0.7807742 0.4814187
0.9136238 0.7796987 0.4802171
1.0000000 0.7784965 0.4790149
0.0000000 0.9086438 0.4846134
0.0579860 0.9076136 0.4834155
0.2033666 0.9065828 0.4822169
0.3488208 0.9055515 0.4810177
0.4943488 0.9045197 0.4798179
0.6399503 0.9034874 0.4786176
0.7848380 0.9024545 0.4774166
0.9101820 0.9014211 0.4762150
1.0000000 0.9003872 0.4750127
0.0000000 1.0000000 0.4806093
0.0539819 1.0000000 0.4794113
0.1993625 1.0000000 0.4782128
0.3448167 1.0000000 0.4770136
0.4903446 1.0000000 0.4758138
0.6359462 1.0000000 0.4746134
0.7813944 1.0000000 0.4734124
0.9067385 1.0000000 0.4722108
1.0000000 1.0000000 0.4710086
0.0000000 0.0000000 0.6553488
0.0855612 0.0000000 0.6541509
0.2309418 0.0000000 0.6529523
0.3763961 0.0000000 0.6517531
0.5219240 0.0000000 0.6505533
0.6675255 0.0000000 0.6493530
0.8085527 0.0000000 0.6481520
0.9338967 0.0000000 0.6469504
1.0000000 0.0000000 0.6457481
0.0000000 0.0813181 0.6513587
0.0815711 0.0801202 0.6501608
0.2269517 0.0789216 0.6489622
0.3724059 0.0777224 0.6477630
0.5179339 0.0765227 0.6465632
0.6635354 0.0753223 0.6453629
0.8051212 0.0741213 0.6441619
0.9304652 0.0729197 0.6429603
1.0000000 0.0717175 0.6417580
0.0000000 0.2224528 0.6473666
0.0775790 0.2212549 0.6461687
0.2229596 0.2200563 0.6449701
0.3684138 0.2188571 0.6437709
0.5139418 0.2176574 0.6425711
0.6595433 0.2164570 0.6413707
0.8016880 0.2152560 0.6401698
0.9270320 0.2140544 0.6389682
1.0000000 0.2128522 0.6377659
0.0000000 0.3636583 0.6433725
0.0735849 0.3624604 0.6421746
0.2189655 0.3612618 0.6409760
0.3644197 0.3600626 0.6397768
0.5099477 0.3588628 0.6385770
0.6555492 0.3576625 0.6373766
0.7982530 0.3564615 0.6361756
0.9235971 0.3552599 0.6349740
1.0000000 0.3540576 0.6337718
0.0000000 0.5049346 0.6393764
0.0695888 0.5037367 0.6381784
0.2149694 0.5025381 0.6369799
0.3604236 0.5013389 0.6357807
0.5059515 0.5001391 0.6345809
0.6515531 0.4989387 0.6333805
0.7948164 0.4977378 0.6321795
0.9201604 0.4965362 0.6309779
1.0000000 0.4953339 0.6297757
0.0000000 0.6462817 0.6353783
0.0655907 0.6450837 0.6341803
0.2109713 0.6438852 0.6329818
0.3564255 0.6426860 0.6317826
0.5019534 0.6414862 0.6305828
0.6475550 0.6402858 0.6293824
0.7913780 0.6390848 0.6281814
0.9167220 0.6378832 0.6269798
1.0000000 0.6366810 0.6257776
0.0000000 0.7866217 0.6313782
0.0615905 0.7855914 0.6301802
0.2069711 0.7845606 0.6289817
0.3524254 0.7835293 0.6277825
0.4979533 0.7824975 0.6265827
0.6435549 0.7814652 0.6253823
0.7879379 0.7804323 0.6241813
0.9132819 0.7793011 0.6229797
1.0000000 0.7780989 0.6217775
0.0000000 0.9083019 0.6273761
0.0575884 0.9072717 0.6261781
0.2029690 0.9062409 0.6249795
0.3484233 0.9052096 0.6237804
0.4939512 0.9041778 0.6225806
0.6395528 0.9031455 0.6213802
0.7844961 0.9021126 0.6201792
0.9098401 0.9010792 0.6189776
1.0000000 0.9000453 0.6177754
0.0000000 1.0000000 0.6233719
0.0535843 1.0000000 0.6221740
0.1989649 1.0000000 0.6209754
0.3444192 1.0000000 0.6197762
0.4899471 1.0000000 0.6185765
0.6355487 1.0000000 0.6173761
0.7810525 1.0000000 0.6161751
0.9063966 1.0000000 0.6149735
1.0000000 1.0000000 0.6137713
0.0000000 0.0000000 0.7956364
0.0851634 0.0000000 0.7946062
0.2305440 0.0000000 0.7935754
0.3759983 0.0000000 0.7925441
0.5215262 0.0000000 0.7915123
0.6671278 0.0000000 0.7904800
0.8082106 0.0000000 0.7894471
0.9335546 0.0000000 0.7884137
1.0000000 0.0000000 0.7873798
0.0000000 0.0809204 0.7922049
0.0811733 0.0797224 0.7911747
0.2265539 0.0785239 0.7901439
0.3720082 0.0773247 0.7891126
0.5175361 0.0761249 0.7880808
0.6631377 0.0749245 0.7870485
0.8047791 0.0737235 0.7860156
0.9301232 0.0725219 0.7849823
1.0000000 0.0713197 0.7839484
0.0000000 0.2220551 0.7887717
0.0771812 0.2208571 0.7877415
0.2225618 0.2196586 0.7867107
0.3680161 0.2184594 0.7856794
0.5135440 0.2172596 0.7846476
0.6591456 0.2160592 0.7836153
0.8013459 0.2148582 0.7825824
0.9266899 0.2136566 0.7815491
1.0000000 0.2124544 0.7805152
0.0000000 0.3632606 0.7853368
0.0731871 0.3620626 0.7843066
0.2185677 0.3608641 0.7832758
0.3640220 0.3596649 0.7822445
0.5095499 0.3584651 0.7812127
0.6551515 0.3572647 0.7801804
0.7979110 0.3560637 0.7790087
0.9232550 0.3548621 0.7778071
1.0000000 0.3536599 0.7766049
0.0000000 0.5045369 0.7819001
0.0691910 0.5033389 0.7808699
0.2145716 0.5021404 0.7798130
0.3600259 0.5009412 0.7786138
0.5055538 0.4997414 0.7774140
0.6511554 0.4985410 0.7762136
0.7944743 0.4973400 0.7750126
0.9198184 0.4961384 0.7738110
1.0000000 0.4949362 0.7726088
0.0000000 0.6458840 0.7782114
0.0651929 0.6446860 0.7770134
0.2105735 0.6434874 0.7758148
0.3560278 0.6422883 0.7746157
0.5015557 0.6410885 0.7734159
0.6471573 0.6398881 0.7722155
0.7910359 0.6386871 0.7710145
0.9163800 0.6374855 0.7698129
1.0000000 0.6362833 0.7686107
0.0000000 0.7862796 0.7742113
0.0611928 0.7852493 0.7730133
0.2065734 0.7842186 0.7718147
0.3520277 0.7831873 0.7706156
0.4975556 0.7821555 0.7694158
0.6431572 0.7811231 0.7682154
0.7875958 0.7800903 0.7670144
0.9129399 0.7789034 0.7658128
1.0000000 0.7777012 0.7646106
0.0000000 0.9079599 0.7702091
0.0571907 0.9069296 0.7690112
0.2025713 0.9058988 0.7678126
0.3480255 0.9048676 0.7666134
0.4935535 0.9038357 0.7654137
0.6391550 0.9028034 0.7642133
0.7841540 0.9017706 0.7630123
0.9094981 0.9007372 0.7618107
1.0000000 0.8997033 0.7606085
0.0000000 1.0000000 0.7662050
0.0531866 1.0000000 0.7650071
0.1985672 1.0000000 0.7638085
0.3440214 1.0000000 0.7626093
0.4895493 1.0000000 0.7614095
0.6351509 1.0000000 0.7602091
0.7807105 1.0000000 0.7590082
0.9060545 1.0000000 0.7578065
1.0000000 1.0000000 0.7566043
0.0000000 0.0000000 0.9185334
0.0847655 0.0000000 0.9175032
0.2301461 0.0000000 0.9164724
0.3756004 0.0000000 0.9154411
0.5211283 0.0000000 0.9144093
0.6667299 0.0000000 0.9133770
0.8078684 0.0000000 0.9123441
0.9332124 0.0000000 0.9113108
1.0000000 0.0000000 0.9102769
0.0000000 0.0805225 0.9151020
0.0807754 0.0793245 0.9140717
0.2261560 0.0781259 0.9130409
0.3716103 0.0769268 0.9120097
0.5171382 0.0757270 0.9109778
0.6627398 0.0745266 0.9099455
0.8044369 0.0733256 0.9089127
0.9297809 0.0721240 0.9078793
1.0000000 0.0709218 0.9068454
0.0000000 0.2216572 0.9116688
0.0767833 0.2204592 0.9106385
0.2221639 0.2192606 0.9096077
0.3676182 0.2180615 0.9085765
0.5131461 0.2168617 0.9075446
0.6587477 0.2156613 0.9065123
0.8010037 0.2144603 0.9054794
0.9263477 0.2132587 0.9044461
1.0000000 0.2120565 0.9034122
0.0000000 0.3628626 0.9082338
0.0727892 0.3616647 0.9072036
0.2181698 0.3604661 0.9061728
0.3636241 0.3592669 0.9051415
0.5091520 0.3580672 0.9041097
0.6547536 0.3568668 0.9030774
0.7975688 0.3556658 0.9020445
0.9229128 0.3544642 0.9010111
1.0000000 0.3532620 0.8999772
0.0000000 0.5041389 0.9047972
0.0687931 0.5029410 0.9037669
0.2141737 0.5017424 0.9027362
0.3596280 0.5005432 0.9017049
0.5051559 0.4993435 0.9006731
0.6507574 0.4981431 0.8996407
0.7941321 0.4969421 0.8986079
0.9194761 0.4957405 0.8975745
1.0000000 0.4945383 0.8965406
0.0000000 0.6454860 0.9013588
0.0647950 0.6442881 0.9003285
0.2101756 0.6430895 0.8992978
0.3556298 0.6418903 0.8982665
0.5011578 0.6406905 0.8972347
0.6467593 0.6394902 0.8962023
0.7906937 0.6382892 0.8951695
0.9160378 0.6370876 0.8941361
1.0000000 0.6358854 0.8931022
0.0000000 0.7859374 0.8979187
0.0607949 0.7849071 0.8968884
0.2061755 0.7838764 0.8958577
0.3516297 0.7828451 0.8948264
0.4971576 0.7818133 0.8937946
0.6427592 0.7807809 0.8927622
0.7872536 0.7797071 0.8917294
0.9125977 0.7785054 0.8906960
1.0000000 0.7773032 0.8896621
0.0000000 0.9076176 0.8944769
0.0567927 0.9065874 0.8934466
0.2021734 0.9055566 0.8924159
0.3476276 0.9045253 0.8913846
0.4931555 0.9034935 0.8903528
0.6387571 0.9024612 0.8893204
0.7838118 0.9014283 0.8882876
0.9091558 0.9003950 0.8872542
1.0000000 0.8993611 0.8862203
0.0000000 1.0000000 0.8910333
0.0527886 1.0000000 0.8900031
0.1981692 1.0000000 0.8889723
0.3436235 1.0000000 0.8879410
0.4891514 1.0000000 0.8869092
0.6347530 1.0000000 0.8858769
0.7803683 1.0000000 0.8848440
0.9057123 1.0000000 0.8838107
1.0000000 1.0000000 0.8827767
0.0000000 0.0000000 1.0000000
0.0843674 0.0000000 1.0000000
0.2297480 0.0000000 1.0000000
0.3752022 0.0000000 1.0000000
0.5207302 0.0000000 1.0000000
0.6663317 0.0000000 1.0000000
0.8075260 0.0000000 1.0000000
0.9328700 0.0000000 1.0000000
1.0000000 0.0000000 1.0000000
0.0000000 0.0801243 1.0000000
0.0803773 0.0789264 1.0000000
0.2257579 0.0777278 1.0000000
0.3712121 0.0765286 1.0000000
0.5167401 0.0753288 1.0000000
0.6623416 0.0741285 1.0000000
0.8040945 0.0729275 1.0000000
0.9294385 0.0717259 1.0000000
1.0000000 0.0705236 1.0000000
0.0000000 0.2212590 1.0000000
0.0763852 0.2200611 1.0000000
0.2217658 0.2188625 1.0000000
0.3672200 0.2176633 1.0000000
0.5127480 0.2164635 1.0000000
0.6583495 0.2152632 1.0000000
0.8006613 0.2140622 1.0000000
0.9260053 0.2128606 1.0000000
1.0000000 0.2116583 1.0000000
0.0000000 0.3624645 1.0000000
0.0723911 0.3612666 1.0000000
0.2177717 0.3600680 1.0000000
0.3632259 0.3588688 1.0000000
0.5087538 0.3576690 1.0000000
0.6543554 0.3564686 1.0000000
0.7972264 0.3552677 1.0000000
0.9225704 0.3540660 1.0000000
1.0000000 0.3528638 1.0000000
0.0000000 0.5037408 1.0000000
0.0683950 0.5025428 1.0000000
0.2137756 0.5013443 1.0000000
0.3592298 0.5001451 1.0000000
0.5047577 0.4989453 1.0000000
0.6503593 0.4977449 1.0000000
0.7937897 0.4965439 1.0000000
0.9191337 0.4953423 1.0000000
1.0000000 0.4941401 1.0000000
0.0000000 0.6450879 1.0000000
0.0643968 0.6438899 1.0000000
0.2097774 0.6426914 1.0000000
0.3552317 0.6414922 1.0000000
0.5007596 0.6402924 1.0000000
0.6463612 0.6390920 1.0000000
0.7903513 0.6378910 1.0000000
0.9156954 0.6366894 1.0000000
1.0000000 0.6354872 1.0000000
0.0000000 0.7855950 1.0000000
0.0603967 0.7845647 1.0000000
0.2057773 0.7835340 1.0000000
0.3512316 0.7825027 1.0000000
0.4967595 0.7814709 1.0000000
0.6423611 0.7804385 1.0000000
0.7869112 0.7793089 1.0000000
0.9122553 0.7781073 1.0000000
1.0000000 0.7769051 1.0000000
0.0000000 0.9072752 1.0000000
0.0563946 0.9062450 1.0000000
0.2017752 0.9052142 1.0000000
0.3472295 0.9041829 1.0000000
0.4927574 0.9031511 1.0000000
0.6383590 0.9021188 1.0000000
0.7834694 0.9010859 1.0000000
0.9088135 0.9000526 1.0000000
1.0000000 0.8990187 1.0000000
0.0000000 1.0000000 1.0000000
0.0523905 1.0000000 1.0000000
0.1977711 1.0000000 1.0000000
0.3432254 1.0000000 1.0000000
0.4887533 1.0000000 1.0000000
0.6343548 1.0000000 1.0000000
0.7800259 1.0000000 1.0000000
0.9053699 1.0000000 1.0000000
1.0000000 1.0000000 1.0000000
