creative/exports/jpo-capcut-kit/09-luts/flat-phone-punch.cube
TITLE "Let's Pepper · Flat Phone Punch"
# Apply at 20–40% after exposure and white-balance correction.
LUT_3D_SIZE 33
DOMAIN_MIN 0.0 0.0 0.0
DOMAIN_MAX 1.0 1.0 1.0
0.0000000 0.0000000 0.0000000
0.0000000 0.0000000 0.0000000
0.0148843 0.0000000 0.0000000
0.0512133 0.0000000 0.0000000
0.0875469 0.0000000 0.0000000
0.1238852 0.0000000 0.0000000
0.1602280 0.0000000 0.0000000
0.1965755 0.0000000 0.0000000
0.2329276 0.0000000 0.0000000
0.2692842 0.0000000 0.0000000
0.3056455 0.0000000 0.0000000
0.3420113 0.0000000 0.0000000
0.3783818 0.0000000 0.0000000
0.4147569 0.0000000 0.0000000
0.4511366 0.0000000 0.0000000
0.4875208 0.0000000 0.0000000
0.5239097 0.0000000 0.0000000
0.5603032 0.0000000 0.0000000
0.5967013 0.0000000 0.0000000
0.6331040 0.0000000 0.0000000
0.6695113 0.0000000 0.0000000
0.7059232 0.0000000 0.0000000
0.7423397 0.0000000 0.0000000
0.7787608 0.0000000 0.0000000
0.8102604 0.0000000 0.0000000
0.8415905 0.0000000 0.0000000
0.8729245 0.0000000 0.0000000
0.9042625 0.0000000 0.0000000
0.9356045 0.0000000 0.0000000
0.9669504 0.0000000 0.0000000
0.9983002 0.0000000 0.0000000
1.0000000 0.0000000 0.0000000
1.0000000 0.0000000 0.0000000
0.0000000 0.0000000 0.0000000
0.0000000 0.0000000 0.0000000
0.0138869 0.0000000 0.0000000
0.0502160 0.0000000 0.0000000
0.0865496 0.0000000 0.0000000
0.1228879 0.0000000 0.0000000
0.1592307 0.0000000 0.0000000
0.1955782 0.0000000 0.0000000
0.2319302 0.0000000 0.0000000
0.2682869 0.0000000 0.0000000
0.3046481 0.0000000 0.0000000
0.3410140 0.0000000 0.0000000
0.3773845 0.0000000 0.0000000
0.4137595 0.0000000 0.0000000
0.4501392 0.0000000 0.0000000
0.4865235 0.0000000 0.0000000
0.5229124 0.0000000 0.0000000
0.5593059 0.0000000 0.0000000
0.5957040 0.0000000 0.0000000
0.6321067 0.0000000 0.0000000
0.6685140 0.0000000 0.0000000
0.7049259 0.0000000 0.0000000
0.7413424 0.0000000 0.0000000
0.7777635 0.0000000 0.0000000
0.8094027 0.0000000 0.0000000
0.8407328 0.0000000 0.0000000
0.8720668 0.0000000 0.0000000
0.9034048 0.0000000 0.0000000
0.9347467 0.0000000 0.0000000
0.9660927 0.0000000 0.0000000
0.9974425 0.0000000 0.0000000
1.0000000 0.0000000 0.0000000
1.0000000 0.0000000 0.0000000
0.0000000 0.0127631 0.0000000
0.0000000 0.0124637 0.0000000
0.0128895 0.0121642 0.0000000
0.0492185 0.0118647 0.0000000
0.0855521 0.0115651 0.0000000
0.1218904 0.0112656 0.0000000
0.1582332 0.0109659 0.0000000
0.1945807 0.0106663 0.0000000
0.2309328 0.0103666 0.0000000
0.2672894 0.0100668 0.0000000
0.3036507 0.0097671 0.0000000
0.3400165 0.0094673 0.0000000
0.3763870 0.0091674 0.0000000
0.4127621 0.0088675 0.0000000
0.4491418 0.0085676 0.0000000
0.4855260 0.0082676 0.0000000
0.5219149 0.0079676 0.0000000
0.5583084 0.0076676 0.0000000
0.5947065 0.0073675 0.0000000
0.6311092 0.0070674 0.0000000
0.6675165 0.0067672 0.0000000
0.7039284 0.0064670 0.0000000
0.7403449 0.0061668 0.0000000
0.7767660 0.0058665 0.0000000
0.8085449 0.0055662 0.0000000
0.8398750 0.0052659 0.0000000
0.8712090 0.0049655 0.0000000
0.9025470 0.0046651 0.0000000
0.9338889 0.0043646 0.0000000
0.9652348 0.0040641 0.0000000
0.9965847 0.0037636 0.0000000
1.0000000 0.0034630 0.0000000
1.0000000 0.0031624 0.0000000
0.0000000 0.0480313 0.0000000
0.0000000 0.0477319 0.0000000
0.0118919 0.0474324 0.0000000
0.0482209 0.0471329 0.0000000
0.0845546 0.0468333 0.0000000
0.1208928 0.0465337 0.0000000
0.1572357 0.0462341 0.0000000
0.1935831 0.0459345 0.0000000
0.2299352 0.0456348 0.0000000
0.2662918 0.0453350 0.0000000
0.3026531 0.0450353 0.0000000
0.3390190 0.0447354 0.0000000
0.3753894 0.0444356 0.0000000
0.4117645 0.0441357 0.0000000
0.4481442 0.0438358 0.0000000
0.4845285 0.0435358 0.0000000
0.5209173 0.0432358 0.0000000
0.5573108 0.0429358 0.0000000
0.5937089 0.0426357 0.0000000
0.6301116 0.0423356 0.0000000
0.6665189 0.0420354 0.0000000
0.7029308 0.0417352 0.0000000
0.7393473 0.0414350 0.0000000
0.7757684 0.0411347 0.0000000
0.8076870 0.0408344 0.0000000
0.8390170 0.0405341 0.0000000
0.8703511 0.0402337 0.0000000
0.9016891 0.0399333 0.0000000
0.9330310 0.0396328 0.0000000
0.9643769 0.0393323 0.0000000
0.9957268 0.0390318 0.0000000
1.0000000 0.0387312 0.0000000
1.0000000 0.0384306 0.0000000
0.0000000 0.0833039 0.0000000
0.0000000 0.0830045 0.0000000
0.0108942 0.0827050 0.0000000
0.0472232 0.0824055 0.0000000
0.0835568 0.0821059 0.0000000
0.1198951 0.0818064 0.0000000
0.1562379 0.0815067 0.0000000
0.1925854 0.0812071 0.0000000
0.2289375 0.0809074 0.0000000
0.2652941 0.0806076 0.0000000
0.3016554 0.0803079 0.0000000
0.3380212 0.0800080 0.0000000
0.3743917 0.0797082 0.0000000
0.4107668 0.0794083 0.0000000
0.4471465 0.0791084 0.0000000
0.4835307 0.0788084 0.0000000
0.5199196 0.0785084 0.0000000
0.5563131 0.0782084 0.0000000
0.5927112 0.0779083 0.0000000
0.6291139 0.0776082 0.0000000
0.6655212 0.0773080 0.0000000
0.7019331 0.0770078 0.0000000
0.7383496 0.0767076 0.0000000
0.7747707 0.0764073 0.0000000
0.8068289 0.0761070 0.0000000
0.8381590 0.0758067 0.0000000
0.8694930 0.0755063 0.0000000
0.9008310 0.0752059 0.0000000
0.9321730 0.0749054 0.0000000
0.9635189 0.0746049 0.0000000
0.9948687 0.0743044 0.0000000
1.0000000 0.0740038 0.0000000
1.0000000 0.0737032 0.0000000
0.0000000 0.1185809 0.0000000
0.0000000 0.1182815 0.0000000
0.0098963 0.1179820 0.0000000
0.0462254 0.1176825 0.0000000
0.0825590 0.1173830 0.0000000
0.1188973 0.1170834 0.0000000
0.1552401 0.1167838 0.0000000
0.1915876 0.1164841 0.0000000
0.2279396 0.1161844 0.0000000
0.2642963 0.1158847 0.0000000
0.3006575 0.1155849 0.0000000
0.3370234 0.1152851 0.0000000
0.3733939 0.1149852 0.0000000
0.4097689 0.1146853 0.0000000
0.4461486 0.1143854 0.0000000
0.4825329 0.1140855 0.0000000
0.5189218 0.1137855 0.0000000
0.5553153 0.1134854 0.0000000
0.5917134 0.1131853 0.0000000
0.6281161 0.1128852 0.0000000
0.6645234 0.1125851 0.0000000
0.7009353 0.1122849 0.0000000
0.7373518 0.1119846 0.0000000
0.7737729 0.1116844 0.0000000
0.8059708 0.1113841 0.0000000
0.8373009 0.1110837 0.0000000
0.8686349 0.1107833 0.0000000
0.8999729 0.1104829 0.0000000
0.9313148 0.1101825 0.0000000
0.9626607 0.1098820 0.0000000
0.9940106 0.1095814 0.0000000
1.0000000 0.1092809 0.0000000
1.0000000 0.1089803 0.0000000
0.0000000 0.1538624 0.0000000
0.0000000 0.1535630 0.0000000
0.0088984 0.1532635 0.0000000
0.0452274 0.1529640 0.0000000
0.0815610 0.1526644 0.0000000
0.1178993 0.1523649 0.0000000
0.1542421 0.1520652 0.0000000
0.1905896 0.1517656 0.0000000
0.2269417 0.1514659 0.0000000
0.2632983 0.1511661 0.0000000
0.2996596 0.1508664 0.0000000
0.3360254 0.1505665 0.0000000
0.3723959 0.1502667 0.0000000
0.4087710 0.1499668 0.0000000
0.4451507 0.1496669 0.0000000
0.4815349 0.1493669 0.0000000
0.5179238 0.1490669 0.0000000
0.5543173 0.1487669 0.0000000
0.5907154 0.1484668 0.0000000
0.6271181 0.1481667 0.0000000
0.6635254 0.1478665 0.0000000
0.6999373 0.1475663 0.0000000
0.7363538 0.1472661 0.0000000
0.7727749 0.1469658 0.0000000
0.8051125 0.1466655 0.0000000
0.8364426 0.1463652 0.0000000
0.8677766 0.1460648 0.0000000
0.8991146 0.1457644 0.0000000
0.9304566 0.1454639 0.0000000
0.9618025 0.1451634 0.0000000
0.9931524 0.1448629 0.0000000
1.0000000 0.1445623 0.0000000
1.0000000 0.1442617 0.0000000
0.0000000 0.1891483 0.0000000
0.0000000 0.1888489 0.0000000
0.0079003 0.1885494 0.0000000
0.0442293 0.1882499 0.0000000
0.0805630 0.1879503 0.0000000
0.1169012 0.1876507 0.0000000
0.1532441 0.1873511 0.0000000
0.1895915 0.1870515 0.0000000
0.2259436 0.1867518 0.0000000
0.2623002 0.1864520 0.0000000
0.2986615 0.1861522 0.0000000
0.3350274 0.1858524 0.0000000
0.3713978 0.1855526 0.0000000
0.4077729 0.1852527 0.0000000
0.4441526 0.1849528 0.0000000
0.4805369 0.1846528 0.0000000
0.5169257 0.1843528 0.0000000
0.5533192 0.1840528 0.0000000
0.5897173 0.1837527 0.0000000
0.6261200 0.1834526 0.0000000
0.6625273 0.1831524 0.0000000
0.6989392 0.1828522 0.0000000
0.7353557 0.1825520 0.0000000
0.7717768 0.1822517 0.0000000
0.8042542 0.1819514 0.0000000
0.8355843 0.1816511 0.0000000
0.8669183 0.1813507 0.0000000
0.8982563 0.1810503 0.0000000
0.9295982 0.1807498 0.0000000
0.9609441 0.1804493 0.0000000
0.9922940 0.1801488 0.0000000
1.0000000 0.1798482 0.0000000
1.0000000 0.1795476 0.0000000
0.0000000 0.2244386 0.0000000
0.0000000 0.2241392 0.0000000
0.0069021 0.2238397 0.0000000
0.0432311 0.2235402 0.0000000
0.0795647 0.2232406 0.0000000
0.1159030 0.2229411 0.0000000
0.1522458 0.2226414 0.0000000
0.1885933 0.2223418 0.0000000
0.2249453 0.2220421 0.0000000
0.2613020 0.2217423 0.0000000
0.2976633 0.2214426 0.0000000
0.3340291 0.2211427 0.0000000
0.3703996 0.2208429 0.0000000
0.4067747 0.2205430 0.0000000
0.4431544 0.2202431 0.0000000
0.4795386 0.2199431 0.0000000
0.5159275 0.2196431 0.0000000
0.5523210 0.2193431 0.0000000
0.5887191 0.2190430 0.0000000
0.6251218 0.2187429 0.0000000
0.6615291 0.2184427 0.0000000
0.6979410 0.2181425 0.0000000
0.7343575 0.2178423 0.0000000
0.7707786 0.2175420 0.0000000
0.8033957 0.2172417 0.0000000
0.8347258 0.2169414 0.0000000
0.8660598 0.2166410 0.0000000
0.8973978 0.2163406 0.0000000
0.9287398 0.2160401 0.0000000
0.9600857 0.2157396 0.0000000
0.9914355 0.2154391 0.0000000
1.0000000 0.2151385 0.0000000
1.0000000 0.2148379 0.0000000
0.0000000 0.2597333 0.0000000
0.0000000 0.2594339 0.0000000
0.0059037 0.2591344 0.0000000
0.0422328 0.2588349 0.0000000
0.0785664 0.2585354 0.0000000
0.1149047 0.2582358 0.0000000
0.1512475 0.2579362 0.0000000
0.1875950 0.2576365 0.0000000
0.2239470 0.2573368 0.0000000
0.2603037 0.2570371 0.0000000
0.2966649 0.2567373 0.0000000
0.3330308 0.2564375 0.0000000
0.3694013 0.2561376 0.0000000
0.4057763 0.2558377 0.0000000
0.4421560 0.2555378 0.0000000
0.4785403 0.2552379 0.0000000
0.5149292 0.2549379 0.0000000
0.5513227 0.2546378 0.0000000
0.5877208 0.2543377 0.0000000
0.6241235 0.2540376 0.0000000
0.6605308 0.2537375 0.0000000
0.6969427 0.2534373 0.0000000
0.7333592 0.2531370 0.0000000
0.7697803 0.2528368 0.0000000
0.8025371 0.2525365 0.0000000
0.8338672 0.2522361 0.0000000
0.8652013 0.2519357 0.0000000
0.8965392 0.2516353 0.0000000
0.9278812 0.2513349 0.0000000
0.9592271 0.2510344 0.0000000
0.9905770 0.2507338 0.0000000
1.0000000 0.2504333 0.0000000
1.0000000 0.2501327 0.0000000
0.0000000 0.2950325 0.0000000
0.0000000 0.2947331 0.0000000
0.0049053 0.2944336 0.0000000
0.0412343 0.2941341 0.0000000
0.0775679 0.2938345 0.0000000
0.1139062 0.2935349 0.0000000
0.1502490 0.2932353 0.0000000
0.1865965 0.2929357 0.0000000
0.2229485 0.2926360 0.0000000
0.2593052 0.2923362 0.0000000
0.2956665 0.2920365 0.0000000
0.3320323 0.2917366 0.0000000
0.3684028 0.2914368 0.0000000
0.4047779 0.2911369 0.0000000
0.4411576 0.2908370 0.0000000
0.4775418 0.2905370 0.0000000
0.5139307 0.2902370 0.0000000
0.5503242 0.2899370 0.0000000
0.5867223 0.2896369 0.0000000
0.6231250 0.2893368 0.0000000
0.6595323 0.2890366 0.0000000
0.6959442 0.2887364 0.0000000
0.7323607 0.2884362 0.0000000
0.7687818 0.2881359 0.0000000
0.8016785 0.2878356 0.0000000
0.8330085 0.2875353 0.0000000
0.8643426 0.2872349 0.0000000
0.8956806 0.2869345 0.0000000
0.9270225 0.2866340 0.0000000
0.9583684 0.2863335 0.0000000
0.9897183 0.2860330 0.0000000
1.0000000 0.2857324 0.0000000
1.0000000 0.2854318 0.0000000
0.0000000 0.3303361 0.0000000
0.0000000 0.3300366 0.0000000
0.0039067 0.3297372 0.0000000
0.0402357 0.3294377 0.0000000
0.0765694 0.3291381 0.0000000
0.1129076 0.3288385 0.0000000
0.1492504 0.3285389 0.0000000
0.1855979 0.3282393 0.0000000
0.2219500 0.3279396 0.0000000
0.2583066 0.3276398 0.0000000
0.2946679 0.3273400 0.0000000
0.3310337 0.3270402 0.0000000
0.3674042 0.3267404 0.0000000
0.4037793 0.3264405 0.0000000
0.4401590 0.3261406 0.0000000
0.4765432 0.3258406 0.0000000
0.5129321 0.3255406 0.0000000
0.5493256 0.3252406 0.0000000
0.5857237 0.3249405 0.0000000
0.6221264 0.3246404 0.0000000
0.6585337 0.3243402 0.0000000
0.6949456 0.3240400 0.0000000
0.7313621 0.3237398 0.0000000
0.7677832 0.3234395 0.0000000
0.8008197 0.3231392 0.0000000
0.8321498 0.3228389 0.0000000
0.8634838 0.3225385 0.0000000
0.8948218 0.3222381 0.0000000
0.9261637 0.3219376 0.0000000
0.9575096 0.3216371 0.0000000
0.9888595 0.3213366 0.0000000
1.0000000 0.3210360 0.0000000
1.0000000 0.3207354 0.0000000
0.0000000 0.3656441 0.0000000
0.0000000 0.3653447 0.0000000
0.0029080 0.3650452 0.0000000
0.0392370 0.3647457 0.0000000
0.0755706 0.3644461 0.0000000
0.1119089 0.3641465 0.0000000
0.1482517 0.3638469 0.0000000
0.1845992 0.3635473 0.0000000
0.2209512 0.3632476 0.0000000
0.2573079 0.3629478 0.0000000
0.2936692 0.3626481 0.0000000
0.3300350 0.3623482 0.0000000
0.3664055 0.3620484 0.0000000
0.4027806 0.3617485 0.0000000
0.4391603 0.3614486 0.0000000
0.4755445 0.3611486 0.0000000
0.5119334 0.3608486 0.0000000
0.5483269 0.3605486 0.0000000
0.5847250 0.3602485 0.0000000
0.6211277 0.3599484 0.0000000
0.6575350 0.3596482 0.0000000
0.6939469 0.3593480 0.0000000
0.7303634 0.3590478 0.0000000
0.7667845 0.3587475 0.0000000
0.7999608 0.3584472 0.0000000
0.8312909 0.3581469 0.0000000
0.8626249 0.3578465 0.0000000
0.8939629 0.3575461 0.0000000
0.9253048 0.3572456 0.0000000
0.9566507 0.3569451 0.0000000
0.9880006 0.3566446 0.0000000
1.0000000 0.3563440 0.0000000
1.0000000 0.3560434 0.0000000
0.0000000 0.4009565 0.0000000
0.0000000 0.4006571 0.0000000
0.0019091 0.4003576 0.0000000
0.0382382 0.4000581 0.0000000
0.0745718 0.3997586 0.0000000
0.1109100 0.3994590 0.0000000
0.1472529 0.3991594 0.0000000
0.1836003 0.3988597 0.0000000
0.2199524 0.3985600 0.0000000
0.2563091 0.3982603 0.0000000
0.2926703 0.3979605 0.0000000
0.3290362 0.3976607 0.0000000
0.3654067 0.3973608 0.0000000
0.4017817 0.3970609 0.0000000
0.4381614 0.3967610 0.0000000
0.4745457 0.3964610 0.0000000
0.5109346 0.3961610 0.0000000
0.5473281 0.3958610 0.0000000
0.5837262 0.3955609 0.0000000
0.6201289 0.3952608 0.0000000
0.6565362 0.3949607 0.0000000
0.6929481 0.3946605 0.0000000
0.7293646 0.3943602 0.0000000
0.7657857 0.3940600 0.0000000
0.7991018 0.3937597 0.0000000
0.8304319 0.3934593 0.0000000
0.8617659 0.3931589 0.0000000
0.8931039 0.3928585 0.0000000
0.9244458 0.3925581 0.0000000
0.9557917 0.3922576 0.0000000
0.9871416 0.3919570 0.0000000
1.0000000 0.3916565 0.0000000
1.0000000 0.3913558 0.0000000
0.0000000 0.4362734 0.0000000
0.0000000 0.4359740 0.0000000
0.0009102 0.4356745 0.0000000
0.0372392 0.4353750 0.0000000
0.0735728 0.4350754 0.0000000
0.1099111 0.4347758 0.0000000
0.1462539 0.4344762 0.0000000
0.1826014 0.4341766 0.0000000
0.2189534 0.4338769 0.0000000
0.2553101 0.4335771 0.0000000
0.2916714 0.4332773 0.0000000
0.3280372 0.4329775 0.0000000
0.3644077 0.4326777 0.0000000
0.4007828 0.4323778 0.0000000
0.4371625 0.4320779 0.0000000
0.4735467 0.4317779 0.0000000
0.5099356 0.4314779 0.0000000
0.5463291 0.4311779 0.0000000
0.5827272 0.4308778 0.0000000
0.6191299 0.4305777 0.0000000
0.6555372 0.4302775 0.0000000
0.6919491 0.4299773 0.0000000
0.7283656 0.4296771 0.0000000
0.7647867 0.4293768 0.0000000
0.7982427 0.4290765 0.0000000
0.8295727 0.4287762 0.0000000
0.8609068 0.4284758 0.0000000
0.8922448 0.4281754 0.0000000
0.9235867 0.4278749 0.0000000
0.9549326 0.4275744 0.0000000
0.9862825 0.4272739 0.0000000
1.0000000 0.4269733 0.0000000
1.0000000 0.4266727 0.0000000
0.0000000 0.4715947 0.0000000
0.0000000 0.4712952 0.0000000
0.0000000 0.4709958 0.0000000
0.0362401 0.4706963 0.0000000
0.0725737 0.4703967 0.0000000
0.1089120 0.4700971 0.0000000
0.1452548 0.4697975 0.0000000
0.1816023 0.4694978 0.0000000
0.2179543 0.4691981 0.0000000
0.2543110 0.4688984 0.0000000
0.2906723 0.4685986 0.0000000
0.3270381 0.4682988 0.0000000
0.3634086 0.4679990 0.0000000
0.3997837 0.4676991 0.0000000
0.4361634 0.4673992 0.0000000
0.4725476 0.4670992 0.0000000
0.5089365 0.4667992 0.0000000
0.5453300 0.4664992 0.0000000
0.5817281 0.4661991 0.0000000
0.6181308 0.4658990 0.0000000
0.6545381 0.4655988 0.0000000
0.6909500 0.4652986 0.0000000
0.7273665 0.4649984 0.0000000
0.7637876 0.4646981 0.0000000
0.7973835 0.4643978 0.0000000
0.8287135 0.4640975 0.0000000
0.8600476 0.4637971 0.0000000
0.8913856 0.4634967 0.0000000
0.9227275 0.4631962 0.0000000
0.9540734 0.4628957 0.0000000
0.9854233 0.4625952 0.0000000
1.0000000 0.4622946 0.0000000
1.0000000 0.4619940 0.0000000
0.0000000 0.5069204 0.0000000
0.0000000 0.5066209 0.0000000
0.0000000 0.5063215 0.0000000
0.0352409 0.5060220 0.0000000
0.0715745 0.5057224 0.0000000
0.1079128 0.5054228 0.0000000
0.1442556 0.5051232 0.0000000
0.1806031 0.5048236 0.0000000
0.2169551 0.5045239 0.0000000
0.2533118 0.5042241 0.0000000
0.2896731 0.5039243 0.0000000
0.3260389 0.5036245 0.0000000
0.3624094 0.5033247 0.0000000
0.3987845 0.5030248 0.0000000
0.4351641 0.5027249 0.0000000
0.4715484 0.5024249 0.0000000
0.5079373 0.5021249 0.0000000
0.5443308 0.5018249 0.0000000
0.5807289 0.5015248 0.0000000
0.6171316 0.5012247 0.0000000
0.6535389 0.5009245 0.0000000
0.6899508 0.5006243 0.0000000
0.7263673 0.5003241 0.0000000
0.7627884 0.5000238 0.0000000
0.7965241 0.4997235 0.0000000
0.8278542 0.4994232 0.0000000
0.8591882 0.4991228 0.0000000
0.8905262 0.4988224 0.0000000
0.9218682 0.4985219 0.0000000
0.9532141 0.4982214 0.0000000
0.9845640 0.4979209 0.0000000
1.0000000 0.4976203 0.0000000
1.0000000 0.4973197 0.0000000
0.0000000 0.5422505 0.0000000
0.0000000 0.5419511 0.0000000
0.0000000 0.5416516 0.0000000
0.0342415 0.5413521 0.0000000
0.0705752 0.5410526 0.0000000
0.1069134 0.5407530 0.0000000
0.1432563 0.5404533 0.0000000
0.1796037 0.5401537 0.0000000
0.2159558 0.5398540 0.0000000
0.2523125 0.5395543 0.0000000
0.2886737 0.5392545 0.0000000
0.3250396 0.5389547 0.0000000
0.3614101 0.5386548 0.0000000
0.3977851 0.5383549 0.0000000
0.4341648 0.5380550 0.0000000
0.4705491 0.5377550 0.0000000
0.5069380 0.5374550 0.0000000
0.5433315 0.5371550 0.0000000
0.5797295 0.5368549 0.0000000
0.6161322 0.5365548 0.0000000
0.6525395 0.5362546 0.0000000
0.6889514 0.5359545 0.0000000
0.7253680 0.5356542 0.0000000
0.7617891 0.5353540 0.0000000
0.7956647 0.5350537 0.0000000
0.8269948 0.5347533 0.0000000
0.8583288 0.5344529 0.0000000
0.8896668 0.5341525 0.0000000
0.9210087 0.5338520 0.0000000
0.9523547 0.5335516 0.0000000
0.9837045 0.5332510 0.0000000
1.0000000 0.5329504 0.0000000
1.0000000 0.5326498 0.0000000
0.0000000 0.5775851 0.0000000
0.0000000 0.5772856 0.0000000
0.0000000 0.5769862 0.0000000
0.0332421 0.5766867 0.0000000
0.0695757 0.5763871 0.0000000
0.1059140 0.5760875 0.0000000
0.1422568 0.5757879 0.0000000
0.1786043 0.5754882 0.0000000
0.2149563 0.5751886 0.0000000
0.2513130 0.5748888 0.0000000
0.2876743 0.5745890 0.0000000
0.3240401 0.5742892 0.0000000
0.3604106 0.5739894 0.0000000
0.3967857 0.5736895 0.0000000
0.4331653 0.5733896 0.0000000
0.4695496 0.5730896 0.0000000
0.5059385 0.5727896 0.0000000
0.5423320 0.5724896 0.0000000
0.5787301 0.5721895 0.0000000
0.6151328 0.5718894 0.0000000
0.6515401 0.5715892 0.0000000
0.6879520 0.5712890 0.0000000
0.7243685 0.5709888 0.0000000
0.7607896 0.5706885 0.0000000
0.7948052 0.5703882 0.0000000
0.8261352 0.5700879 0.0000000
0.8574693 0.5697875 0.0000000
0.8888073 0.5694871 0.0000000
0.9201492 0.5691866 0.0000000
0.9514951 0.5688861 0.0000000
0.9828450 0.5685856 0.0000000
1.0000000 0.5682850 0.0000000
1.0000000 0.5679844 0.0000000
0.0000000 0.6129241 0.0000000
0.0000000 0.6126246 0.0000000
0.0000000 0.6123252 0.0000000
0.0322425 0.6120256 0.0000000
0.0685761 0.6117261 0.0000000
0.1049144 0.6114265 0.0000000
0.1412572 0.6111269 0.0000000
0.1776047 0.6108272 0.0000000
0.2139567 0.6105275 0.0000000
0.2503134 0.6102278 0.0000000
0.2866747 0.6099280 0.0000000
0.3230405 0.6096282 0.0000000
0.3594110 0.6093284 0.0000000
0.3957861 0.6090285 0.0000000
0.4321658 0.6087285 0.0000000
0.4685500 0.6084286 0.0000000
0.5049389 0.6081286 0.0000000
0.5413324 0.6078285 0.0000000
0.5777305 0.6075285 0.0000000
0.6141332 0.6072283 0.0000000
0.6505405 0.6069282 0.0000000
0.6869524 0.6066280 0.0000000
0.7233689 0.6063278 0.0000000
0.7597900 0.6060275 0.0000000
0.7939455 0.6057272 0.0000000
0.8252756 0.6054269 0.0000000
0.8566096 0.6051265 0.0000000
0.8879476 0.6048261 0.0000000
0.9192896 0.6045256 0.0000000
0.9506355 0.6042251 0.0000000
0.9819853 0.6039246 0.0000000
1.0000000 0.6036240 0.0000000
1.0000000 0.6033234 0.0000000
0.0000000 0.6482675 0.0000000
0.0000000 0.6479680 0.0000000
0.0000000 0.6476686 0.0000000
0.0312428 0.6473691 0.0000000
0.0675764 0.6470695 0.0000000
0.1039147 0.6467699 0.0000000
0.1402575 0.6464703 0.0000000
0.1766050 0.6461706 0.0000000
0.2129570 0.6458709 0.0000000
0.2493137 0.6455712 0.0000000
0.2856749 0.6452714 0.0000000
0.3220408 0.6449716 0.0000000
0.3584113 0.6446718 0.0000000
0.3947864 0.6443719 0.0000000
0.4311660 0.6440720 0.0000000
0.4675503 0.6437720 0.0000000
0.5039392 0.6434720 0.0000000
0.5403327 0.6431719 0.0000000
0.5767308 0.6428719 0.0000000
0.6131335 0.6425718 0.0000000
0.6495408 0.6422716 0.0000000
0.6859527 0.6419714 0.0000000
0.7223692 0.6416712 0.0000000
0.7587903 0.6413709 0.0000000
0.7930858 0.6410706 0.0000000
0.8244158 0.6407703 0.0000000
0.8557499 0.6404699 0.0000000
0.8870879 0.6401695 0.0000000
0.9184298 0.6398690 0.0000000
0.9497757 0.6395685 0.0000000
0.9811256 0.6392680 0.0000000
1.0000000 0.6389674 0.0000000
1.0000000 0.6386668 0.0000000
0.0000000 0.6836153 0.0000000
0.0000000 0.6833159 0.0000000
0.0000000 0.6830164 0.0000000
0.0302429 0.6827169 0.0000000
0.0665766 0.6824173 0.0000000
0.1029148 0.6821178 0.0000000
0.1392577 0.6818181 0.0000000
0.1756051 0.6815185 0.0000000
0.2119572 0.6812188 0.0000000
0.2483138 0.6809190 0.0000000
0.2846751 0.6806193 0.0000000
0.3210410 0.6803195 0.0000000
0.3574114 0.6800196 0.0000000
0.3937865 0.6797197 0.0000000
0.4301662 0.6794198 0.0000000
0.4665505 0.6791198 0.0000000
0.5029394 0.6788198 0.0000000
0.5393328 0.6785198 0.0000000
0.5757309 0.6782197 0.0000000
0.6121336 0.6779196 0.0000000
0.6485409 0.6776194 0.0000000
0.6849528 0.6773192 0.0000000
0.7213693 0.6770190 0.0000000
0.7577904 0.6767187 0.0000000
0.7922259 0.6764184 0.0000000
0.8235560 0.6761181 0.0000000
0.8548900 0.6758177 0.0000000
0.8862280 0.6755173 0.0000000
0.9175699 0.6752168 0.0000000
0.9489158 0.6749163 0.0000000
0.9802657 0.6746158 0.0000000
1.0000000 0.6743152 0.0000000
1.0000000 0.6740146 0.0000000
0.0000000 0.7189676 0.0000000
0.0000000 0.7186681 0.0000000
0.0000000 0.7183687 0.0000000
0.0292430 0.7180692 0.0000000
0.0655766 0.7177696 0.0000000
0.1019149 0.7174700 0.0000000
0.1382577 0.7171704 0.0000000
0.1746052 0.7168707 0.0000000
0.2109572 0.7165710 0.0000000
0.2473139 0.7162713 0.0000000
0.2836751 0.7159715 0.0000000
0.3200410 0.7156717 0.0000000
0.3564115 0.7153719 0.0000000
0.3927866 0.7150720 0.0000000
0.4291662 0.7147720 0.0000000
0.4655505 0.7144721 0.0000000
0.5019394 0.7141721 0.0000000
0.5383329 0.7138720 0.0000000
0.5747310 0.7135720 0.0000000
0.6111337 0.7132718 0.0000000
0.6475410 0.7129717 0.0000000
0.6839529 0.7126715 0.0000000
0.7203694 0.7123713 0.0000000
0.7567905 0.7120710 0.0000000
0.7913659 0.7117707 0.0000000
0.8226960 0.7114704 0.0000000
0.8540300 0.7111700 0.0000000
0.8853680 0.7108696 0.0000000
0.9167100 0.7105691 0.0000000
0.9480559 0.7102686 0.0000000
0.9794057 0.7099681 0.0000000
1.0000000 0.7096675 0.0000000
1.0000000 0.7093669 0.0000000
0.0000000 0.7543242 0.0000000
0.0000000 0.7540248 0.0000000
0.0000000 0.7537253 0.0000000
0.0282429 0.7534258 0.0000000
0.0645765 0.7531263 0.0000000
0.1009148 0.7528267 0.0000000
0.1372576 0.7525271 0.0000000
0.1736051 0.7522274 0.0000000
0.2099571 0.7519277 0.0000000
0.2463138 0.7516280 0.0000000
0.2826750 0.7513282 0.0000000
0.3190409 0.7510284 0.0000000
0.3554114 0.7507285 0.0000000
0.3917865 0.7504287 0.0000000
0.4281661 0.7501287 0.0000000
0.4645504 0.7498288 0.0000000
0.5009393 0.7495288 0.0000000
0.5373328 0.7492287 0.0000000
0.5737309 0.7489286 0.0000000
0.6101336 0.7486285 0.0000000
0.6465409 0.7483284 0.0000000
0.6829528 0.7480282 0.0000000
0.7193693 0.7477280 0.0000000
0.7557904 0.7474277 0.0000000
0.7905058 0.7471274 0.0000000
0.8218359 0.7468270 0.0000000
0.8531700 0.7465267 0.0000000
0.8845079 0.7462262 0.0000000
0.9158499 0.7459258 0.0000000
0.9471958 0.7456253 0.0000000
0.9785457 0.7453248 0.0000000
1.0000000 0.7450242 0.0000000
1.0000000 0.7447236 0.0000000
0.0000000 0.7883294 0.0000000
0.0000000 0.7880719 0.0000000
