creative/exports/jpo-capcut-kit/09-luts/flat-phone-punch.cube
TITLE "Let's Pepper · Flat Phone Punch"
# Apply at 20–40% after exposure and white-balance correction.
LUT_3D_SIZE 5
DOMAIN_MIN 0.0 0.0 0.0
DOMAIN_MAX 1.0 1.0 1.0
0.0000000 0.0000000 0.0000000
0.2329276 0.0000000 0.0000000
0.5239097 0.0000000 0.0000000
0.8102604 0.0000000 0.0000000
1.0000000 0.0000000 0.0000000
0.0000000 0.2244386 0.0000000
0.2249453 0.2220421 0.0000000
0.5159275 0.2196431 0.0000000
0.8033957 0.2172417 0.0000000
1.0000000 0.2148379 0.0000000
0.0000000 0.5069204 0.0000000
0.2169551 0.5045239 0.0000000
0.5079373 0.5021249 0.0000000
0.7965241 0.4997235 0.0000000
1.0000000 0.4973197 0.0000000
0.0000000 0.7883294 0.0000000
0.2089569 0.7862684 0.0000000
0.4999391 0.7842053 0.0000000
0.7896457 0.7821401 0.0000000
1.0000000 0.7800728 0.0000000
0.0000000 1.0000000 0.0000000
0.2009507 1.0000000 0.0000000
0.4919329 1.0000000 0.0000000
0.7827603 1.0000000 0.0000000
1.0000000 1.0000000 0.0000000
0.0000000 0.0000000 0.2272722
0.2321338 0.0000000 0.2248757
0.5231160 0.0000000 0.2224767
0.8095778 0.0000000 0.2200754
1.0000000 0.0000000 0.2176715
0.0000000 0.2236449 0.2192900
0.2241516 0.2212484 0.2168935
0.5151338 0.2188494 0.2144945
0.8027131 0.2164480 0.2120932
1.0000000 0.2140442 0.2096893
0.0000000 0.5061267 0.2112998
0.2161614 0.5037301 0.2089033
0.5071436 0.5013312 0.2065043
0.7958415 0.4989298 0.2041029
1.0000000 0.4965260 0.2016991
0.0000000 0.7876468 0.2033016
0.2081632 0.7855858 0.2009051
0.4991454 0.7835227 0.1985061
0.7889631 0.7814575 0.1961047
1.0000000 0.7792910 0.1937009
0.0000000 1.0000000 0.1952953
0.2001570 1.0000000 0.1928988
0.4911391 1.0000000 0.1904999
0.7820777 1.0000000 0.1880985
1.0000000 1.0000000 0.1856947
0.0000000 0.0000000 0.5125862
0.2313393 0.0000000 0.5101897
0.5223215 0.0000000 0.5077907
0.8088945 0.0000000 0.5053893
1.0000000 0.0000000 0.5029855
0.0000000 0.2228504 0.5046040
0.2233571 0.2204539 0.5022075
0.5143393 0.2180549 0.4998085
0.8020299 0.2156535 0.4974071
1.0000000 0.2132497 0.4950033
0.0000000 0.5053322 0.4966138
0.2153669 0.5029356 0.4942172
0.5063491 0.5005367 0.4918183
0.7951583 0.4981353 0.4894169
1.0000000 0.4957315 0.4870131
0.0000000 0.7869635 0.4886155
0.2073687 0.7849025 0.4862190
0.4983509 0.7828394 0.4838201
0.7882798 0.7807742 0.4814187
1.0000000 0.7784965 0.4790149
0.0000000 1.0000000 0.4806093
0.1993625 1.0000000 0.4782128
0.4903446 1.0000000 0.4758138
0.7813944 1.0000000 0.4734124
1.0000000 1.0000000 0.4710086
0.0000000 0.0000000 0.7956364
0.2305440 0.0000000 0.7935754
0.5215262 0.0000000 0.7915123
0.8082106 0.0000000 0.7894471
1.0000000 0.0000000 0.7873798
0.0000000 0.2220551 0.7887717
0.2225618 0.2196586 0.7867107
0.5135440 0.2172596 0.7846476
0.8013459 0.2148582 0.7825824
1.0000000 0.2124544 0.7805152
0.0000000 0.5045369 0.7819001
0.2145716 0.5021404 0.7798130
0.5055538 0.4997414 0.7774140
0.7944743 0.4973400 0.7750126
1.0000000 0.4949362 0.7726088
0.0000000 0.7862796 0.7742113
0.2065734 0.7842186 0.7718147
0.4975556 0.7821555 0.7694158
0.7875958 0.7800903 0.7670144
1.0000000 0.7777012 0.7646106
0.0000000 1.0000000 0.7662050
0.1985672 1.0000000 0.7638085
0.4895493 1.0000000 0.7614095
0.7807105 1.0000000 0.7590082
1.0000000 1.0000000 0.7566043
0.0000000 0.0000000 1.0000000
0.2297480 0.0000000 1.0000000
0.5207302 0.0000000 1.0000000
0.8075260 0.0000000 1.0000000
1.0000000 0.0000000 1.0000000
0.0000000 0.2212590 1.0000000
0.2217658 0.2188625 1.0000000
0.5127480 0.2164635 1.0000000
0.8006613 0.2140622 1.0000000
1.0000000 0.2116583 1.0000000
0.0000000 0.5037408 1.0000000
0.2137756 0.5013443 1.0000000
0.5047577 0.4989453 1.0000000
0.7937897 0.4965439 1.0000000
1.0000000 0.4941401 1.0000000
0.0000000 0.7855950 1.0000000
0.2057773 0.7835340 1.0000000
0.4967595 0.7814709 1.0000000
0.7869112 0.7793089 1.0000000
1.0000000 0.7769051 1.0000000
0.0000000 1.0000000 1.0000000
0.1977711 1.0000000 1.0000000
0.4887533 1.0000000 1.0000000
0.7800259 1.0000000 1.0000000
1.0000000 1.0000000 1.0000000
