creative/exports/jpo-capcut-kit/09-luts/harsh-noon.cube
TITLE "Let's Pepper · Harsh Noon"
# Apply at 20–40% after exposure and white-balance correction.
LUT_3D_SIZE 5
DOMAIN_MIN 0.0 0.0 0.0
DOMAIN_MAX 1.0 1.0 1.0
0.0630000 0.0630000 0.0630000
0.2835334 0.0616259 0.0616259
0.5068914 0.0602342 0.0602342
0.7330741 0.0588249 0.0588249
0.9365901 0.0573980 0.0573980
0.0584235 0.2781200 0.0584235
0.2789569 0.2767459 0.0570494
0.5023149 0.2753542 0.0556577
0.7284976 0.2739448 0.0542484
0.9326543 0.2725179 0.0528215
0.0537889 0.4959681 0.0537889
0.2743223 0.4945940 0.0524148
0.4976804 0.4932023 0.0510231
0.7238631 0.4917930 0.0496138
0.9286685 0.4903661 0.0481869
0.0490963 0.7165445 0.0490963
0.2696297 0.7151704 0.0477222
0.4929878 0.7137787 0.0463305
0.7191705 0.7123694 0.0449212
0.9246329 0.7109425 0.0434943
0.0443457 0.9174702 0.0443457
0.2648791 0.9162884 0.0429716
0.4882372 0.9150916 0.0415799
0.7144198 0.9138796 0.0401706
0.9205474 0.9126524 0.0387437
0.0625473 0.0625473 0.2778225
0.2830807 0.0611732 0.2764484
0.5064387 0.0597815 0.2750567
0.7326214 0.0583722 0.2736474
0.9362007 0.0569453 0.2722205
0.0579708 0.2776673 0.2732460
0.2785042 0.2762931 0.2718719
0.5018622 0.2749014 0.2704802
0.7280449 0.2734921 0.2690709
0.9322649 0.2720652 0.2676440
0.0533362 0.4955154 0.2686115
0.2738696 0.4941413 0.2672374
0.4972277 0.4927496 0.2658457
0.7234104 0.4913403 0.2644364
0.9282792 0.4899134 0.2630095
0.0486436 0.7160918 0.2639189
0.2691770 0.7147177 0.2625448
0.4925351 0.7133260 0.2611531
0.7187178 0.7119167 0.2597438
0.9242436 0.7104898 0.2583169
0.0438930 0.9170808 0.2591682
0.2644264 0.9158991 0.2577941
0.4877845 0.9147022 0.2564024
0.7139671 0.9134902 0.2549931
0.9201580 0.9122631 0.2535662
0.0620890 0.0620890 0.4953153
0.2826224 0.0607149 0.4939412
0.5059804 0.0593232 0.4925495
0.7321631 0.0579139 0.4911402
0.9358066 0.0564870 0.4897133
0.0575125 0.2772089 0.4907388
0.2780459 0.2758348 0.4893647
0.5014039 0.2744431 0.4879730
0.7275866 0.2730338 0.4865637
0.9318708 0.2716069 0.4851368
0.0528779 0.4950571 0.4861043
0.2734113 0.4936830 0.4847302
0.4967693 0.4922913 0.4833385
0.7229520 0.4908820 0.4819292
0.9278851 0.4894551 0.4805023
0.0481853 0.7156334 0.4814117
0.2687187 0.7142593 0.4800376
0.4920768 0.7128676 0.4786459
0.7182594 0.7114583 0.4772366
0.9238494 0.7100314 0.4758097
0.0434347 0.9166867 0.4766610
0.2639681 0.9155049 0.4752869
0.4873261 0.9143081 0.4738952
0.7135088 0.9130961 0.4724859
0.9197639 0.9118689 0.4710590
0.0616250 0.0616250 0.7154784
0.2821584 0.0602509 0.7141043
0.5055165 0.0588592 0.7127126
0.7316991 0.0574499 0.7113033
0.9354076 0.0560230 0.7098764
0.0570485 0.2767450 0.7109019
0.2775819 0.2753709 0.7095278
0.5009399 0.2739792 0.7081361
0.7271226 0.2725699 0.7067268
0.9314718 0.2711430 0.7052999
0.0524139 0.4945931 0.7062674
0.2729473 0.4932190 0.7048933
0.4963054 0.4918273 0.7035016
0.7224881 0.4904180 0.7020923
0.9274861 0.4889911 0.7006653
0.0477213 0.7151695 0.7015748
0.2682547 0.7137954 0.7002007
0.4916128 0.7124037 0.6988090
0.7177955 0.7109944 0.6973997
0.9234504 0.7095675 0.6959728
0.0429707 0.9162877 0.6968241
0.2635041 0.9151059 0.6954500
0.4868622 0.9139091 0.6940583
0.7130449 0.9126971 0.6926490
0.9193649 0.9114699 0.6912221
0.0611554 0.0611554 0.9161481
0.2816888 0.0597813 0.9149664
0.5050469 0.0583896 0.9137695
0.7312296 0.0569803 0.9125575
0.9350037 0.0555534 0.9113304
0.0565789 0.2762754 0.9122123
0.2771123 0.2749013 0.9110306
0.5004704 0.2735096 0.9098337
0.7266530 0.2721003 0.9086217
0.9310679 0.2706734 0.9073946
0.0519444 0.4941235 0.9082266
0.2724778 0.4927494 0.9070449
0.4958358 0.4913577 0.9058480
0.7220185 0.4899484 0.9046360
0.9270822 0.4885215 0.9034089
0.0472518 0.7146999 0.9041910
0.2677852 0.7133258 0.9030093
0.4911432 0.7119341 0.9018124
0.7173259 0.7105248 0.9006004
0.9230466 0.7090979 0.8993733
0.0425011 0.9158838 0.9001054
0.2630345 0.9147021 0.8989237
0.4863926 0.9135052 0.8977269
0.7125753 0.9122932 0.8965149
0.9189610 0.9110661 0.8952877
