creative/exports/jpo-capcut-kit/09-luts/harsh-noon.cube
TITLE "Let's Pepper · Harsh Noon"
# Apply at 20–40% after exposure and white-balance correction.
LUT_3D_SIZE 9
DOMAIN_MIN 0.0 0.0 0.0
DOMAIN_MAX 1.0 1.0 1.0
0.0630000 0.0630000 0.0630000
0.1729136 0.0623151 0.0623151
0.2835334 0.0616259 0.0616259
0.3948593 0.0609322 0.0609322
0.5068914 0.0602342 0.0602342
0.6196297 0.0595317 0.0595317
0.7330741 0.0588249 0.0588249
0.8378133 0.0581136 0.0581136
0.9365901 0.0573980 0.0573980
0.0607190 0.1702190 0.0607190
0.1706326 0.1695341 0.0600341
0.2812524 0.1688449 0.0593449
0.3925783 0.1681512 0.0586512
0.5046104 0.1674531 0.0579532
0.6173487 0.1667507 0.0572507
0.7307931 0.1660438 0.0565439
0.8358516 0.1653326 0.0558326
0.9346284 0.1646169 0.0551170
0.0584235 0.2781200 0.0584235
0.1683371 0.2774351 0.0577386
0.2789569 0.2767459 0.0570494
0.3902828 0.2760522 0.0563557
0.5023149 0.2753542 0.0556577
0.6150532 0.2746517 0.0549552
0.7284976 0.2739448 0.0542484
0.8338775 0.2732336 0.0535371
0.9326543 0.2725179 0.0528215
0.0561135 0.3867030 0.0561135
0.1660271 0.3860182 0.0554286
0.2766469 0.3853289 0.0547394
0.3879728 0.3846353 0.0540457
0.5000049 0.3839372 0.0533477
0.6127432 0.3832348 0.0526452
0.7261876 0.3825279 0.0519384
0.8318908 0.3818167 0.0512271
0.9306676 0.3811010 0.0505115
0.0537889 0.4959681 0.0537889
0.1637026 0.4952833 0.0531041
0.2743223 0.4945940 0.0524148
0.3856483 0.4939004 0.0517212
0.4976804 0.4932023 0.0510231
0.6104186 0.4924999 0.0503207
0.7238631 0.4917930 0.0496138
0.8298917 0.4910818 0.0489026
0.9286685 0.4903661 0.0481869
0.0514499 0.6059153 0.0514499
0.1613635 0.6052304 0.0507650
0.2719833 0.6045412 0.0500758
0.3833092 0.6038475 0.0493821
0.4953413 0.6031495 0.0486841
0.6080796 0.6024470 0.0479816
0.7215240 0.6017402 0.0472748
0.8278802 0.6010289 0.0465635
0.9266570 0.6003133 0.0458479
0.0490963 0.7165445 0.0490963
0.1590100 0.7158596 0.0484115
0.2696297 0.7151704 0.0477222
0.3809557 0.7144767 0.0470286
0.4929878 0.7137787 0.0463305
0.6057261 0.7130762 0.0456281
0.7191705 0.7123694 0.0449212
0.8258561 0.7116581 0.0442100
0.9246329 0.7109425 0.0434943
0.0467283 0.8211559 0.0467283
0.1566419 0.8205670 0.0460434
0.2672617 0.8199742 0.0453542
0.3785876 0.8193777 0.0446605
0.4906197 0.8187773 0.0439625
0.6033580 0.8181732 0.0432600
0.7168024 0.8175653 0.0425532
0.8238196 0.8169537 0.0418419
0.9225964 0.8163382 0.0411263
0.0443457 0.9174702 0.0443457
0.1542593 0.9168812 0.0436609
0.2648791 0.9162884 0.0429716
0.3762051 0.9156919 0.0422780
0.4882372 0.9150916 0.0415799
0.6009754 0.9144875 0.0408775
0.7144198 0.9138796 0.0401706
0.8217706 0.9132679 0.0394593
0.9205474 0.9126524 0.0387437
0.0627744 0.0627744 0.1700775
0.1726880 0.0620895 0.1693926
0.2833078 0.0614002 0.1687034
0.3946337 0.0607066 0.1680097
0.5066658 0.0600085 0.1673117
0.6194041 0.0593061 0.1666092
0.7328485 0.0585992 0.1659024
0.8376192 0.0578880 0.1651911
0.9363960 0.0571723 0.1644755
0.0604933 0.1699933 0.1677965
0.1704070 0.1693085 0.1671116
0.2810268 0.1686192 0.1664224
0.3923527 0.1679256 0.1657287
0.5043848 0.1672275 0.1650307
0.6171231 0.1665250 0.1643282
0.7305675 0.1658182 0.1636214
0.8356575 0.1651069 0.1629101
0.9344343 0.1643913 0.1621945
0.0581978 0.2778943 0.1655010
0.1681115 0.2772095 0.1648161
0.2787312 0.2765202 0.1641269
0.3900572 0.2758266 0.1634332
0.5020893 0.2751285 0.1627352
0.6148276 0.2744261 0.1620327
0.7282720 0.2737192 0.1613259
0.8336834 0.2730079 0.1606146
0.9324602 0.2722923 0.1598990
0.0558878 0.3864774 0.1631909
0.1658014 0.3857925 0.1625061
0.2764212 0.3851033 0.1618168
0.3877472 0.3844096 0.1611232
0.4997793 0.3837116 0.1604251
0.6125175 0.3830091 0.1597227
0.7259620 0.3823023 0.1590158
0.8316968 0.3815910 0.1583046
0.9304736 0.3808754 0.1575889
0.0535633 0.4957425 0.1608664
0.1634769 0.4950576 0.1601816
0.2740967 0.4943684 0.1594923
0.3854226 0.4936747 0.1587987
0.4974547 0.4929767 0.1581006
0.6101930 0.4922742 0.1573982
0.7236374 0.4915674 0.1566913
0.8296977 0.4908561 0.1559801
0.9284745 0.4901405 0.1552644
0.0512242 0.6056896 0.1585274
0.1611379 0.6050048 0.1578425
0.2717576 0.6043155 0.1571533
0.3830836 0.6036219 0.1564596
0.4951157 0.6029238 0.1557616
0.6078540 0.6022214 0.1550591
0.7212984 0.6015145 0.1543523
0.8276861 0.6008033 0.1536410
0.9264629 0.6000876 0.1529254
0.0488707 0.7163188 0.1561738
0.1587843 0.7156340 0.1554890
0.2694041 0.7149447 0.1547997
0.3807300 0.7142511 0.1541061
0.4927621 0.7135530 0.1534080
0.6055004 0.7128506 0.1527056
0.7189448 0.7121437 0.1519987
0.8256621 0.7114325 0.1512875
0.9244389 0.7107168 0.1505718
0.0465026 0.8209619 0.1538058
0.1564163 0.8203729 0.1531209
0.2670360 0.8197801 0.1524317
0.3783620 0.8191836 0.1517380
0.4903941 0.8185833 0.1510400
0.6031323 0.8179792 0.1503375
0.7165768 0.8173713 0.1496307
0.8236255 0.8167596 0.1489194
0.9224023 0.8161441 0.1482038
0.0441201 0.9172761 0.1514232
0.1540337 0.9166871 0.1507383
0.2646535 0.9160944 0.1500491
0.3759794 0.9154978 0.1493554
0.4880115 0.9148975 0.1486574
0.6007498 0.9142934 0.1479549
0.7141942 0.9136855 0.1472481
0.8215765 0.9130738 0.1465368
0.9203533 0.9124584 0.1458212
0.0625473 0.0625473 0.2778225
0.1724609 0.0618624 0.2771377
0.2830807 0.0611732 0.2764484
0.3944066 0.0604795 0.2757548
0.5064387 0.0597815 0.2750567
0.6191770 0.0590790 0.2743543
0.7326214 0.0583722 0.2736474
0.8374239 0.0576609 0.2729362
0.9362007 0.0569453 0.2722205
0.0602663 0.1697662 0.2755415
0.1701799 0.1690814 0.2748567
0.2807997 0.1683921 0.2741674
0.3921256 0.1676985 0.2734738
0.5041577 0.1670004 0.2727757
0.6168960 0.1662980 0.2720733
0.7303404 0.1655911 0.2713664
0.8354623 0.1648799 0.2706552
0.9342391 0.1641642 0.2699395
0.0579708 0.2776673 0.2732460
0.1678844 0.2769824 0.2725612
0.2785042 0.2762931 0.2718719
0.3898301 0.2755995 0.2711783
0.5018622 0.2749014 0.2704802
0.6146005 0.2741990 0.2697778
0.7280449 0.2734921 0.2690709
0.8334881 0.2727809 0.2683597
0.9322649 0.2720652 0.2676440
0.0556608 0.3862503 0.2709360
0.1655744 0.3855655 0.2702511
0.2761942 0.3848762 0.2695619
0.3875201 0.3841826 0.2688682
0.4995522 0.3834845 0.2681702
0.6122905 0.3827820 0.2674677
0.7257349 0.3820752 0.2667609
0.8315015 0.3813639 0.2660496
0.9302783 0.3806483 0.2653340
0.0533362 0.4955154 0.2686115
0.1632499 0.4948306 0.2679266
0.2738696 0.4941413 0.2672374
0.3851956 0.4934477 0.2665437
0.4972277 0.4927496 0.2658457
0.6099659 0.4920472 0.2651432
0.7234104 0.4913403 0.2644364
0.8295024 0.4906291 0.2637251
0.9282792 0.4899134 0.2630095
0.0509972 0.6054626 0.2662724
0.1609108 0.6047777 0.2655876
0.2715306 0.6040885 0.2648983
0.3828565 0.6033948 0.2642047
0.4948886 0.6026968 0.2635066
0.6076269 0.6019943 0.2628042
0.7210713 0.6012875 0.2620973
0.8274908 0.6005762 0.2613861
0.9262676 0.5998606 0.2606704
0.0486436 0.7160918 0.2639189
0.1585573 0.7154069 0.2632340
0.2691770 0.7147177 0.2625448
0.3805030 0.7140240 0.2618511
0.4925351 0.7133260 0.2611531
0.6052734 0.7126235 0.2604506
0.7187178 0.7119167 0.2597438
0.8254668 0.7112054 0.2590325
0.9242436 0.7104898 0.2583169
0.0462756 0.8207666 0.2615508
0.1561892 0.8201776 0.2608660
0.2668090 0.8195849 0.2601767
0.3781349 0.8189883 0.2594831
0.4901670 0.8183880 0.2587850
0.6029053 0.8177839 0.2580826
0.7163497 0.8171760 0.2573757
0.8234303 0.8165643 0.2566645
0.9222071 0.8159489 0.2559488
0.0438930 0.9170808 0.2591682
0.1538066 0.9164919 0.2584834
0.2644264 0.9158991 0.2577941
0.3757523 0.9153026 0.2571005
0.4877845 0.9147022 0.2564024
0.6005227 0.9140981 0.2557000
0.7139671 0.9134902 0.2549931
0.8213812 0.9128786 0.2542819
0.9201580 0.9122631 0.2535662
0.0623188 0.0623188 0.3862351
0.1722325 0.0616340 0.3855503
0.2828522 0.0609447 0.3848610
0.3941782 0.0602511 0.3841674
0.5062103 0.0595530 0.3834693
0.6189485 0.0588506 0.3827669
0.7323930 0.0581437 0.3820600
0.8372275 0.0574325 0.3813488
0.9360043 0.0567168 0.3806331
0.0600378 0.1695378 0.3839541
0.1699515 0.1688529 0.3832693
0.2805712 0.1681637 0.3825800
0.3918972 0.1674700 0.3818864
0.5039293 0.1667720 0.3811883
0.6166675 0.1660695 0.3804859
0.7301120 0.1653627 0.3797790
0.8352658 0.1646514 0.3790678
0.9340426 0.1639358 0.3783521
0.0577423 0.2774388 0.3816586
0.1676559 0.2767539 0.3809738
0.2782757 0.2760647 0.3802845
0.3896017 0.2753710 0.3795909
0.5016338 0.2746730 0.3788928
0.6143720 0.2739705 0.3781904
0.7278165 0.2732637 0.3774835
0.8332917 0.2725524 0.3767723
0.9320685 0.2718368 0.3760566
0.0554323 0.3860218 0.3793486
0.1653459 0.3853370 0.3786638
0.2759657 0.3846477 0.3779745
0.3872916 0.3839541 0.3772809
0.4993237 0.3832560 0.3765828
0.6120620 0.3825536 0.3758804
0.7255064 0.3818467 0.3751735
0.8313050 0.3811355 0.3744623
0.9300818 0.3804198 0.3737466
0.0531078 0.4952869 0.3770241
0.1630214 0.4946021 0.3763392
0.2736412 0.4939128 0.3756500
0.3849671 0.4932192 0.3749563
0.4969992 0.4925211 0.3742583
0.6097375 0.4918187 0.3735558
0.7231819 0.4911118 0.3728490
0.8293059 0.4904006 0.3721377
0.9280827 0.4896849 0.3714221
0.0507687 0.6052341 0.3746850
0.1606823 0.6045493 0.3740002
0.2713021 0.6038600 0.3733109
0.3826281 0.6031663 0.3726173
0.4946602 0.6024683 0.3719192
0.6073984 0.6017658 0.3712168
0.7208429 0.6010590 0.3705099
0.8272944 0.6003477 0.3697987
0.9260712 0.5996321 0.3690830
0.0484152 0.7158633 0.3723315
0.1583288 0.7151785 0.3716466
0.2689486 0.7144892 0.3709574
0.3802745 0.7137956 0.3702637
0.4923066 0.7130975 0.3695657
0.6050449 0.7123950 0.3688632
0.7184893 0.7116882 0.3681564
0.8252703 0.7109769 0.3674451
0.9240471 0.7102613 0.3667295
0.0460471 0.8205701 0.3699634
0.1559607 0.8199811 0.3692786
0.2665805 0.8193884 0.3685893
0.3779065 0.8187919 0.3678957
0.4899386 0.8181915 0.3671976
0.6026768 0.8175874 0.3664952
0.7161213 0.8169795 0.3657883
0.8232338 0.8163679 0.3650771
0.9220106 0.8157524 0.3643614
0.0436645 0.9168844 0.3675809
0.1535782 0.9162954 0.3668960
0.2641979 0.9157026 0.3662068
0.3755239 0.9151061 0.3655131
0.4875560 0.9145058 0.3648151
0.6002943 0.9139017 0.3641126
0.7137387 0.9132938 0.3634058
0.8211848 0.9126821 0.3626945
0.9199616 0.9120666 0.3619788
0.0620890 0.0620890 0.4953153
0.1720026 0.0614041 0.4946305
0.2826224 0.0607149 0.4939412
0.3939483 0.0600212 0.4932476
0.5059804 0.0593232 0.4925495
0.6187187 0.0586207 0.4918471
0.7321631 0.0579139 0.4911402
0.8370298 0.0572026 0.4904290
0.9358066 0.0564870 0.4897133
0.0598080 0.1693079 0.4930343
0.1697216 0.1686231 0.4923495
0.2803414 0.1679338 0.4916602
0.3916673 0.1672402 0.4909666
0.5036994 0.1665421 0.4902685
0.6164377 0.1658397 0.4895661
0.7298821 0.1651328 0.4888592
0.8350681 0.1644216 0.4881480
0.9338449 0.1637059 0.4874323
0.0575125 0.2772089 0.4907388
0.1674261 0.2765241 0.4900540
0.2780459 0.2758348 0.4893647
0.3893718 0.2751412 0.4886711
0.5014039 0.2744431 0.4879730
0.6141422 0.2737407 0.4872706
0.7275866 0.2730338 0.4865637
0.8330940 0.2723226 0.4858525
0.9318708 0.2716069 0.4851368
0.0552024 0.3857920 0.4884288
0.1651161 0.3851071 0.4877440
0.2757358 0.3844179 0.4870547
0.3870618 0.3837242 0.4863611
0.4990939 0.3830262 0.4856630
0.6118321 0.3823237 0.4849605
0.7252766 0.3816169 0.4842537
0.8311074 0.3809056 0.4835424
0.9298842 0.3801900 0.4828268
0.0528779 0.4950571 0.4861043
0.1627915 0.4943722 0.4854194
0.2734113 0.4936830 0.4847302
0.3847372 0.4929893 0.4840365
0.4967693 0.4922913 0.4833385
0.6095076 0.4915888 0.4826360
0.7229520 0.4908820 0.4819292
0.8291083 0.4901707 0.4812179
0.9278851 0.4894551 0.4805023
0.0505389 0.6050042 0.4837652
0.1604525 0.6043194 0.4830804
0.2710723 0.6036301 0.4823911
0.3823982 0.6029365 0.4816975
0.4944303 0.6022384 0.4809994
0.6071686 0.6015360 0.4802970
0.7206130 0.6008291 0.4795901
0.8270967 0.6001179 0.4788789
0.9258735 0.5994022 0.4781632
0.0481853 0.7156334 0.4814117
0.1580989 0.7149486 0.4807268
0.2687187 0.7142593 0.4800376
0.3800447 0.7135657 0.4793439
0.4920768 0.7128676 0.4786459
0.6048150 0.7121652 0.4779434
0.7182594 0.7114583 0.4772366
0.8250726 0.7107471 0.4765253
0.9238494 0.7100314 0.4758097
0.0458172 0.8203724 0.4790436
0.1557309 0.8197835 0.4783588
0.2663506 0.8191907 0.4776695
0.3776766 0.8185942 0.4769759
0.4897087 0.8179938 0.4762778
0.6024470 0.8173897 0.4755754
0.7158914 0.8167818 0.4748685
0.8230361 0.8161702 0.4741573
0.9218129 0.8155547 0.4734416
0.0434347 0.9166867 0.4766610
0.1533483 0.9160977 0.4759762
0.2639681 0.9155049 0.4752869
0.3752940 0.9149084 0.4745933
0.4873261 0.9143081 0.4738952
0.6000644 0.9137040 0.4731928
0.7135088 0.9130961 0.4724859
0.8209871 0.9124844 0.4717747
0.9197639 0.9118689 0.4710590
0.0618577 0.0618577 0.6050631
0.1717713 0.0611728 0.6043782
0.2823911 0.0604836 0.6036890
0.3937170 0.0597899 0.6029953
0.5057491 0.0590919 0.6022973
0.6184874 0.0583894 0.6015948
0.7319318 0.0576826 0.6008880
0.8368309 0.0569713 0.6001767
0.9356077 0.0562557 0.5994611
0.0595767 0.1690766 0.6027821
0.1694903 0.1683918 0.6020972
0.2801101 0.1677025 0.6014080
0.3914360 0.1670089 0.6007143
0.5034681 0.1663108 0.6000163
0.6162064 0.1656084 0.5993138
0.7296508 0.1649015 0.5986070
0.8348692 0.1641903 0.5978957
0.9336460 0.1634746 0.5971801
0.0572812 0.2769776 0.6004866
0.1671948 0.2762928 0.5998017
0.2778146 0.2756035 0.5991125
0.3891405 0.2749099 0.5984188
0.5011726 0.2742118 0.5977208
0.6139109 0.2735094 0.5970183
0.7273553 0.2728025 0.5963115
0.8328951 0.2720913 0.5956002
0.9316719 0.2713756 0.5948846
0.0549712 0.3855607 0.5981766
0.1648848 0.3848758 0.5974917
0.2755046 0.3841866 0.5968025
0.3868305 0.3834929 0.5961088
0.4988626 0.3827949 0.5954108
0.6116009 0.3820924 0.5947083
0.7250453 0.3813856 0.5940015
0.8309085 0.3806743 0.5932902
0.9296853 0.3799587 0.5925746
0.0526466 0.4948258 0.5958520
0.1625602 0.4941410 0.5951672
0.2731800 0.4934517 0.5944779
0.3845060 0.4927580 0.5937843
0.4965381 0.4920600 0.5930862
0.6092763 0.4913575 0.5923838
0.7227208 0.4906507 0.5916769
0.8289094 0.4899394 0.5909657
0.9276862 0.4892238 0.5902500
0.0503076 0.6047730 0.5935130
0.1602212 0.6040881 0.5928281
0.2708410 0.6033989 0.5921389
0.3821669 0.6027052 0.5914452
0.4941990 0.6020072 0.5907472
0.6069373 0.6013047 0.5900447
0.7203817 0.6005978 0.5893379
0.8268978 0.5998866 0.5886266
0.9256746 0.5991709 0.5879110
0.0479540 0.7154022 0.5911594
0.1578676 0.7147173 0.5904746
0.2684874 0.7140281 0.5897853
0.3798134 0.7133344 0.5890917
0.4918455 0.7126364 0.5883936
0.6045837 0.7119339 0.5876912
0.7180282 0.7112271 0.5869843
0.8248737 0.7105158 0.5862731
0.9236505 0.7098001 0.5855574
0.0455860 0.8201735 0.5887914
0.1554996 0.8195846 0.5881065
0.2661194 0.8189918 0.5874173
0.3774453 0.8183953 0.5867236
0.4894774 0.8177949 0.5860256
0.6022157 0.8171908 0.5853231
0.7156601 0.8165829 0.5846163
0.8228372 0.8159713 0.5839050
0.9216140 0.8153558 0.5831894
0.0432034 0.9164878 0.5864088
0.1531170 0.9158988 0.5857240
0.2637368 0.9153060 0.5850347
0.3750627 0.9147095 0.5843411
0.4870948 0.9141092 0.5836430
0.5998331 0.9135051 0.5829405
0.7132775 0.9128972 0.5822337
0.8207882 0.9122855 0.5815224
0.9195650 0.9116700 0.5808068
0.0616250 0.0616250 0.7154784
0.1715386 0.0609402 0.7147936
0.2821584 0.0602509 0.7141043
0.3934843 0.0595572 0.7134107
0.5055165 0.0588592 0.7127126
0.6182547 0.0581567 0.7120102
0.7316991 0.0574499 0.7113033
0.8366308 0.0567386 0.7105921
0.9354076 0.0560230 0.7098764
0.0593440 0.1688440 0.7131974
0.1692576 0.1681591 0.7125126
0.2798774 0.1674699 0.7118233
0.3912033 0.1667762 0.7111297
0.5032355 0.1660782 0.7104316
0.6159737 0.1653757 0.7097292
0.7294181 0.1646688 0.7090223
0.8346691 0.1639576 0.7083111
0.9334459 0.1632419 0.7075954
0.0570485 0.2767450 0.7109019
0.1669621 0.2760601 0.7102171
0.2775819 0.2753709 0.7095278
0.3889078 0.2746772 0.7088342
0.5009399 0.2739792 0.7081361
0.6136782 0.2732767 0.7074337
0.7271226 0.2725699 0.7067268
0.8326950 0.2718586 0.7060156
0.9314718 0.2711430 0.7052999
0.0547385 0.3853280 0.7085919
0.1646521 0.3846432 0.7079070
0.2752719 0.3839539 0.7072178
0.3865978 0.3832603 0.7065241
0.4986299 0.3825622 0.7058261
0.6113682 0.3818598 0.7051236
0.7248126 0.3811529 0.7044168
0.8307083 0.3804417 0.7037055
0.9294851 0.3797260 0.7029899
0.0524139 0.4945931 0.7062674
0.1623276 0.4939083 0.7055825
0.2729473 0.4932190 0.7048933
0.3842733 0.4925254 0.7041996
0.4963054 0.4918273 0.7035016
0.6090437 0.4911249 0.7027991
0.7224881 0.4904180 0.7020923
0.8287093 0.4897068 0.7013810
0.9274861 0.4889911 0.7006653
0.0500749 0.6045403 0.7039283
0.1599885 0.6038554 0.7032435
0.2706083 0.6031662 0.7025542
0.3819342 0.6024725 0.7018606
0.4939663 0.6017745 0.7011625
0.6067046 0.6010720 0.7004601
0.7201490 0.6003652 0.6997532
0.8266977 0.5996539 0.6990420
0.9254745 0.5989383 0.6983263
0.0477213 0.7151695 0.7015748
0.1576350 0.7144846 0.7008899
0.2682547 0.7137954 0.7002007
0.3795807 0.7131017 0.6995070
0.4916128 0.7124037 0.6988090
0.6043511 0.7117012 0.6981065
0.7177955 0.7109944 0.6973997
0.8246736 0.7102831 0.6966884
0.9234504 0.7095675 0.6959728
0.0453533 0.8199734 0.6992067
0.1552669 0.8193845 0.6985219
0.2658867 0.8187917 0.6978326
0.3772126 0.8181952 0.6971390
0.4892447 0.8175948 0.6964409
0.6019830 0.8169907 0.6957384
0.7154274 0.8163828 0.6950316
0.8226371 0.8157712 0.6943203
0.9214139 0.8151557 0.6936047
0.0429707 0.9162877 0.6968241
0.1528843 0.9156987 0.6961393
0.2635041 0.9151059 0.6954500
0.3748301 0.9145094 0.6947564
0.4868622 0.9139091 0.6940583
0.5996004 0.9133050 0.6933559
0.7130449 0.9126971 0.6926490
0.8205881 0.9120854 0.6919378
0.9193649 0.9114699 0.6912221
0.0613909 0.0613909 0.8200427
0.1713045 0.0607061 0.8194538
0.2819243 0.0600168 0.8188610
0.3932503 0.0593232 0.8182645
0.5052824 0.0586251 0.8176641
0.6180206 0.0579227 0.8170600
0.7314651 0.0572158 0.8164521
0.8364294 0.0565046 0.8158405
0.9352063 0.0557889 0.8152250
0.0591099 0.1686099 0.8180811
0.1690235 0.1679250 0.8174921
0.2796433 0.1672358 0.8168993
0.3909693 0.1665421 0.8163028
0.5030014 0.1658441 0.8157025
0.6157396 0.1651416 0.8150984
0.7291841 0.1644348 0.8144905
0.8344678 0.1637235 0.8138788
0.9332446 0.1630079 0.8132633
0.0568144 0.2765109 0.8161069
0.1667280 0.2758260 0.8155180
0.2773478 0.2751368 0.8149252
0.3886737 0.2744431 0.8143287
0.5007058 0.2737451 0.8137283
0.6134441 0.2730426 0.8131242
0.7268885 0.2723358 0.8125163
0.8324936 0.2716245 0.8119047
0.9312705 0.2709089 0.8112892
0.0545044 0.3850939 0.8141203
0.1644180 0.3844091 0.8135313
0.2750378 0.3837198 0.8129386
0.3863637 0.3830262 0.8123420
0.4983958 0.3823281 0.8117417
0.6111341 0.3816257 0.8111376
0.7245785 0.3809188 0.8105297
0.8305070 0.3802076 0.8099180
0.9292838 0.3794919 0.8093026
0.0521798 0.4943590 0.8121212
0.1620935 0.4936742 0.8115322
0.2727133 0.4929849 0.8109395
0.3840392 0.4922913 0.8103430
0.4960713 0.4915932 0.8097426
0.6088096 0.4908908 0.8091385
0.7222540 0.4901839 0.8085306
0.8285079 0.4894727 0.8079190
0.9272847 0.4887570 0.8073035
0.0498408 0.6043062 0.8101096
0.1597544 0.6036213 0.8095207
0.2703742 0.6029321 0.8089279
0.3817002 0.6022384 0.8083314
0.4937323 0.6015404 0.8077311
0.6064705 0.6008379 0.8071269
0.7199149 0.6001311 0.8065191
0.8264964 0.5994198 0.8059074
0.9252732 0.5987042 0.8052919
0.0474873 0.7149354 0.8080856
0.1574009 0.7142505 0.8074966
0.2680207 0.7135613 0.8069039
0.3793466 0.7128676 0.8063073
0.4913787 0.7121696 0.8057070
0.6041170 0.7114671 0.8051029
0.7175614 0.7107603 0.8044950
0.8244723 0.7100490 0.8038833
0.9232491 0.7093334 0.8032679
0.0451192 0.8197721 0.8060491
0.1550328 0.8191831 0.8054601
0.2656526 0.8185904 0.8048673
0.3769785 0.8179938 0.8042708
0.4890106 0.8173935 0.8036705
0.6017489 0.8167894 0.8030664
0.7151933 0.8161815 0.8024585
0.8224358 0.8155698 0.8018468
0.9212126 0.8149544 0.8012313
0.0427366 0.9160864 0.8040000
0.1526502 0.9154974 0.8034111
0.2632700 0.9149046 0.8028183
0.3745960 0.9143081 0.8022218
0.4866281 0.9137078 0.8016215
0.5993663 0.9131037 0.8010173
0.7128108 0.9124958 0.8004095
0.8203868 0.9118841 0.7997978
0.9191636 0.9112686 0.7991823
0.0611554 0.0611554 0.9161481
0.1710690 0.0604706 0.9155592
0.2816888 0.0597813 0.9149664
0.3930148 0.0590877 0.9143699
0.5050469 0.0583896 0.9137695
0.6177851 0.0576872 0.9131654
0.7312296 0.0569803 0.9125575
0.8362269 0.0562691 0.9119459
0.9350037 0.0555534 0.9113304
0.0588744 0.1683744 0.9141865
0.1687880 0.1676895 0.9135975
0.2794078 0.1670003 0.9130047
0.3907338 0.1663066 0.9124082
0.5027659 0.1656086 0.9118079
0.6155041 0.1649061 0.9112038
0.7289486 0.1641993 0.9105959
0.8342653 0.1634880 0.9099842
0.9330421 0.1627724 0.9093687
0.0565789 0.2762754 0.9122123
0.1664925 0.2755905 0.9116234
0.2771123 0.2749013 0.9110306
0.3884382 0.2742076 0.9104341
0.5004704 0.2735096 0.9098337
0.6132086 0.2728071 0.9092296
0.7266530 0.2721003 0.9086217
0.8322911 0.2713890 0.9080101
0.9310679 0.2706734 0.9073946
0.0542689 0.3848584 0.9102257
0.1641825 0.3841736 0.9096367
0.2748023 0.3834843 0.9090440
0.3861282 0.3827907 0.9084475
0.4981603 0.3820926 0.9078471
0.6108986 0.3813902 0.9072430
0.7243430 0.3806833 0.9066351
0.8303045 0.3799721 0.9060235
0.9290813 0.3792564 0.9054080
0.0519444 0.4941235 0.9082266
0.1618580 0.4934387 0.9076377
0.2724778 0.4927494 0.9070449
0.3838037 0.4920558 0.9064484
0.4958358 0.4913577 0.9058480
0.6085741 0.4906553 0.9052439
0.7220185 0.4899484 0.9046360
0.8283054 0.4892372 0.9040244
0.9270822 0.4885215 0.9034089
0.0496053 0.6040707 0.9062150
0.1595189 0.6033858 0.9056261
0.2701387 0.6026966 0.9050333
0.3814647 0.6020029 0.9044368
0.4934968 0.6013049 0.9038365
0.6062350 0.6006024 0.9032323
0.7196794 0.5998956 0.9026245
0.8262938 0.5991843 0.9020128
0.9250706 0.5984687 0.9013973
0.0472518 0.7146999 0.9041910
0.1571654 0.7140150 0.9036020
0.2677852 0.7133258 0.9030093
0.3791111 0.7126321 0.9024127
0.4911432 0.7119341 0.9018124
0.6038815 0.7112316 0.9012083
0.7173259 0.7105248 0.9006004
0.8242698 0.7098135 0.8999887
0.9230466 0.7090979 0.8993733
0.0448837 0.8195696 0.9021545
0.1547973 0.8189806 0.9015655
0.2654171 0.8183879 0.9009727
0.3767430 0.8177913 0.9003762
0.4887751 0.8171910 0.8997759
0.6015134 0.8165869 0.8991718
0.7149578 0.8159790 0.8985639
0.8222332 0.8153673 0.8979522
0.9210100 0.8147519 0.8973367
0.0425011 0.9158838 0.9001054
0.1524147 0.9152949 0.8995165
0.2630345 0.9147021 0.8989237
0.3743605 0.9141056 0.8983272
0.4863926 0.9135052 0.8977269
0.5991308 0.9129011 0.8971227
0.7125753 0.9122932 0.8965149
0.8201842 0.9116816 0.8959032
0.9189610 0.9110661 0.8952877
