creative/exports/jpo-capcut-kit/09-luts/harsh-noon.cube
TITLE "Let's Pepper · Harsh Noon"
# Apply at 20–40% after exposure and white-balance correction.
LUT_3D_SIZE 33
DOMAIN_MIN 0.0 0.0 0.0
DOMAIN_MAX 1.0 1.0 1.0
0.0630000 0.0630000 0.0630000
0.0904122 0.0628292 0.0628292
0.1178685 0.0626581 0.0626581
0.1453690 0.0624868 0.0624868
0.1729136 0.0623151 0.0623151
0.2005024 0.0621432 0.0621432
0.2281352 0.0619711 0.0619711
0.2558123 0.0617986 0.0617986
0.2835334 0.0616259 0.0616259
0.3112987 0.0614529 0.0614529
0.3391081 0.0612796 0.0612796
0.3669617 0.0611061 0.0611061
0.3948593 0.0609322 0.0609322
0.4228012 0.0607581 0.0607581
0.4507871 0.0605838 0.0605838
0.4788172 0.0604091 0.0604091
0.5068914 0.0602342 0.0602342
0.5350098 0.0600590 0.0600590
0.5631723 0.0598835 0.0598835
0.5913789 0.0597078 0.0597078
0.6196297 0.0595317 0.0595317
0.6479246 0.0593554 0.0593554
0.6762637 0.0591789 0.0591789
0.7046468 0.0590020 0.0590020
0.7330741 0.0588249 0.0588249
0.7615456 0.0586475 0.0586475
0.7886526 0.0584698 0.0584698
0.8132140 0.0582919 0.0582919
0.8378133 0.0581136 0.0581136
0.8624505 0.0579351 0.0579351
0.8871258 0.0577564 0.0577564
0.9118389 0.0575773 0.0575773
0.9365901 0.0573980 0.0573980
0.0624311 0.0897408 0.0624311
0.0898433 0.0895700 0.0622603
0.1172997 0.0893989 0.0620892
0.1448001 0.0892276 0.0619179
0.1723447 0.0890559 0.0617463
0.1999335 0.0888840 0.0615744
0.2275664 0.0887119 0.0614022
0.2552434 0.0885394 0.0612297
0.2829645 0.0883667 0.0610570
0.3107298 0.0881937 0.0608840
0.3385392 0.0880204 0.0607107
0.3663928 0.0878469 0.0605372
0.3942905 0.0876730 0.0603634
0.4222323 0.0874989 0.0601893
0.4502182 0.0873246 0.0600149
0.4782483 0.0871499 0.0598402
0.5063226 0.0869750 0.0596653
0.5344409 0.0867998 0.0594901
0.5626034 0.0866243 0.0593146
0.5908101 0.0864486 0.0591389
0.6190608 0.0862725 0.0589629
0.6473557 0.0860962 0.0587866
0.6756948 0.0859197 0.0586100
0.7040779 0.0857428 0.0584331
0.7325052 0.0855657 0.0582560
0.7609767 0.0853883 0.0580786
0.7881634 0.0852106 0.0579009
0.8127247 0.0850327 0.0577230
0.8373240 0.0848544 0.0575448
0.8619613 0.0846759 0.0573663
0.8866365 0.0844972 0.0571875
0.9113497 0.0843181 0.0570084
0.9361008 0.0841388 0.0568291
0.0618613 0.1165242 0.0618613
0.0892735 0.1163534 0.0616905
0.1167299 0.1161823 0.0615194
0.1442303 0.1160110 0.0613481
0.1717749 0.1158394 0.0611765
0.1993637 0.1156675 0.0610046
0.2269966 0.1154953 0.0608324
0.2546736 0.1153228 0.0606599
0.2823947 0.1151501 0.0604872
0.3101600 0.1149771 0.0603142
0.3379694 0.1148038 0.0601409
0.3658230 0.1146303 0.0599674
0.3937207 0.1144565 0.0597936
0.4216625 0.1142824 0.0596195
0.4496484 0.1141080 0.0594451
0.4776785 0.1139333 0.0592704
0.5057528 0.1137584 0.0590955
0.5338711 0.1135832 0.0589203
0.5620336 0.1134077 0.0587448
0.5902403 0.1132320 0.0585691
0.6184910 0.1130560 0.0583931
0.6467859 0.1128797 0.0582168
0.6751250 0.1127031 0.0580402
0.7035081 0.1125262 0.0578633
0.7319355 0.1123491 0.0576862
0.7604069 0.1121717 0.0575088
0.7876733 0.1119940 0.0573311
0.8122347 0.1118161 0.0571532
0.8368340 0.1116379 0.0569750
0.8614713 0.1114594 0.0567965
0.8861465 0.1112806 0.0566177
0.9108597 0.1111015 0.0564386
0.9356108 0.1109222 0.0562593
0.0612906 0.1433503 0.0612906
0.0887028 0.1431795 0.0611198
0.1161591 0.1430084 0.0609487
0.1436596 0.1428370 0.0607774
0.1712042 0.1426654 0.0606058
0.1987930 0.1424935 0.0604339
0.2264259 0.1423213 0.0602617
0.2541029 0.1421489 0.0600892
0.2818240 0.1419762 0.0599165
0.3095893 0.1418032 0.0597435
0.3373987 0.1416299 0.0595702
0.3652523 0.1414563 0.0593967
0.3931500 0.1412825 0.0592229
0.4210918 0.1411084 0.0590488
0.4490777 0.1409340 0.0588744
0.4771078 0.1407594 0.0586997
0.5051821 0.1405845 0.0585248
0.5333004 0.1404093 0.0583496
0.5614629 0.1402338 0.0581741
0.5896696 0.1400580 0.0579984
0.6179203 0.1398820 0.0578224
0.6462152 0.1397057 0.0576461
0.6745543 0.1395291 0.0574695
0.7029374 0.1393523 0.0572926
0.7313647 0.1391752 0.0571155
0.7598362 0.1389978 0.0569381
0.7871825 0.1388201 0.0567604
0.8117439 0.1386421 0.0565825
0.8363432 0.1384639 0.0564042
0.8609805 0.1382854 0.0562257
0.8856557 0.1381066 0.0560470
0.9103689 0.1379276 0.0558679
0.9351200 0.1377483 0.0556886
0.0607190 0.1702190 0.0607190
0.0881312 0.1700482 0.0605482
0.1155875 0.1698771 0.0603771
0.1430880 0.1697057 0.0602058
0.1706326 0.1695341 0.0600341
0.1982214 0.1693622 0.0598622
0.2258542 0.1691900 0.0596901
0.2535313 0.1690176 0.0595176
0.2812524 0.1688449 0.0593449
0.3090177 0.1686719 0.0591719
0.3368271 0.1684986 0.0589986
0.3646807 0.1683250 0.0588251
0.3925783 0.1681512 0.0586512
0.4205202 0.1679771 0.0584771
0.4485061 0.1678027 0.0583028
0.4765362 0.1676281 0.0581281
0.5046104 0.1674531 0.0579532
0.5327288 0.1672779 0.0577780
0.5608913 0.1671025 0.0576025
0.5890979 0.1669267 0.0574268
0.6173487 0.1667507 0.0572507
0.6456436 0.1665744 0.0570744
0.6739827 0.1663978 0.0568979
0.7023658 0.1662210 0.0567210
0.7307931 0.1660438 0.0565439
0.7592646 0.1658664 0.0563665
0.7866909 0.1656888 0.0561888
0.8112523 0.1655108 0.0560109
0.8358516 0.1653326 0.0558326
0.8604889 0.1651541 0.0556541
0.8851641 0.1649753 0.0554754
0.9098773 0.1647963 0.0552963
0.9346284 0.1646169 0.0551170
0.0601465 0.1971303 0.0601465
0.0875587 0.1969595 0.0599757
0.1150150 0.1967884 0.0598046
0.1425155 0.1966170 0.0596333
0.1700601 0.1964454 0.0594616
0.1976488 0.1962735 0.0592897
0.2252817 0.1961013 0.0591176
0.2529587 0.1959289 0.0589451
0.2806799 0.1957562 0.0587724
0.3084452 0.1955832 0.0585994
0.3362546 0.1954099 0.0584261
0.3641081 0.1952363 0.0582526
0.3920058 0.1950625 0.0580787
0.4199476 0.1948884 0.0579046
0.4479336 0.1947140 0.0577303
0.4759637 0.1945394 0.0575556
0.5040379 0.1943645 0.0573807
0.5321563 0.1941893 0.0572055
0.5603188 0.1940138 0.0570300
0.5885254 0.1938380 0.0568542
0.6167762 0.1936620 0.0566782
0.6450711 0.1934857 0.0565019
0.6734101 0.1933091 0.0563253
0.7017933 0.1931323 0.0561485
0.7302206 0.1929552 0.0559714
0.7586921 0.1927778 0.0557940
0.7861986 0.1926001 0.0556163
0.8107599 0.1924221 0.0554383
0.8353592 0.1922439 0.0552601
0.8599965 0.1920654 0.0550816
0.8846717 0.1918866 0.0549028
0.9093849 0.1917076 0.0547238
0.9341360 0.1915283 0.0545445
0.0595731 0.2240842 0.0595731
0.0869853 0.2239134 0.0594023
0.1144416 0.2237423 0.0592312
0.1419421 0.2235710 0.0590598
0.1694867 0.2233993 0.0588882
0.1970754 0.2232274 0.0587163
0.2247083 0.2230553 0.0585441
0.2523853 0.2228828 0.0583717
0.2801065 0.2227101 0.0581990
0.3078717 0.2225371 0.0580260
0.3356812 0.2223638 0.0578527
0.3635347 0.2221903 0.0576791
0.3914324 0.2220164 0.0575053
0.4193742 0.2218423 0.0573312
0.4473602 0.2216680 0.0571568
0.4753903 0.2214933 0.0569822
0.5034645 0.2213184 0.0568073
0.5315829 0.2211432 0.0566321
0.5597454 0.2209677 0.0564566
0.5879520 0.2207920 0.0562808
0.6162028 0.2206159 0.0561048
0.6444977 0.2204396 0.0559285
0.6728367 0.2202631 0.0557519
0.7012199 0.2200862 0.0555751
0.7296472 0.2199091 0.0553979
0.7581186 0.2197317 0.0552205
0.7857054 0.2195540 0.0550429
0.8102668 0.2193761 0.0548649
0.8348661 0.2191978 0.0546867
0.8595034 0.2190193 0.0545082
0.8841786 0.2188406 0.0543294
0.9088918 0.2186615 0.0541504
0.9336429 0.2184822 0.0539710
0.0589987 0.2510808 0.0589987
0.0864109 0.2509100 0.0588279
0.1138673 0.2507389 0.0586569
0.1413677 0.2505675 0.0584855
0.1689123 0.2503959 0.0583139
0.1965011 0.2502240 0.0581420
0.2241340 0.2500518 0.0579698
0.2518110 0.2498794 0.0577973
0.2795321 0.2497067 0.0576246
0.3072974 0.2495337 0.0574516
0.3351068 0.2493604 0.0572783
0.3629604 0.2491868 0.0571048
0.3908581 0.2490130 0.0569310
0.4187999 0.2488389 0.0567569
0.4467859 0.2486645 0.0565825
0.4748159 0.2484899 0.0564078
0.5028902 0.2483150 0.0562329
0.5310085 0.2481398 0.0560577
0.5591710 0.2479643 0.0558822
0.5873777 0.2477885 0.0557065
0.6156284 0.2476125 0.0555305
0.6439233 0.2474362 0.0553542
0.6722624 0.2472596 0.0551776
0.7006456 0.2470828 0.0550007
0.7290729 0.2469057 0.0548236
0.7575443 0.2467283 0.0546462
0.7852115 0.2465506 0.0544685
0.8097729 0.2463726 0.0542906
0.8343722 0.2461944 0.0541124
0.8590094 0.2460159 0.0539339
0.8836847 0.2458371 0.0537551
0.9083978 0.2456581 0.0535760
0.9331490 0.2454788 0.0533967
0.0584235 0.2781200 0.0584235
0.0858357 0.2779492 0.0582527
0.1132920 0.2777781 0.0580816
0.1407925 0.2776067 0.0579103
0.1683371 0.2774351 0.0577386
0.1959259 0.2772632 0.0575667
0.2235587 0.2770910 0.0573946
0.2512357 0.2769186 0.0572221
0.2789569 0.2767459 0.0570494
0.3067222 0.2765729 0.0568764
0.3345316 0.2763996 0.0567031
0.3623851 0.2762260 0.0565296
0.3902828 0.2760522 0.0563557
0.4182247 0.2758781 0.0561816
0.4462106 0.2757037 0.0560073
0.4742407 0.2755291 0.0558326
0.5023149 0.2753542 0.0556577
0.5304333 0.2751790 0.0554825
0.5585958 0.2750035 0.0553070
0.5868024 0.2748277 0.0551313
0.6150532 0.2746517 0.0549552
0.6433481 0.2744754 0.0547789
0.6716871 0.2742988 0.0546024
0.7000703 0.2741220 0.0544255
0.7284976 0.2739448 0.0542484
0.7569691 0.2737674 0.0540710
0.7847168 0.2735898 0.0538933
0.8092782 0.2734118 0.0537154
0.8338775 0.2732336 0.0535371
0.8585147 0.2730551 0.0533586
0.8831900 0.2728763 0.0531799
0.9079031 0.2726973 0.0530008
0.9326543 0.2725179 0.0528215
0.0578473 0.3052018 0.0578473
0.0852595 0.3050310 0.0576765
0.1127159 0.3048599 0.0575055
0.1402164 0.3046886 0.0573341
0.1677610 0.3045169 0.0571625
0.1953497 0.3043450 0.0569906
0.2229826 0.3041729 0.0568184
0.2506596 0.3040004 0.0566460
0.2783807 0.3038277 0.0564732
0.3061460 0.3036547 0.0563002
0.3339554 0.3034814 0.0561270
0.3618090 0.3033079 0.0559534
0.3897067 0.3031340 0.0557796
0.4176485 0.3029599 0.0556055
0.4456345 0.3027855 0.0554311
0.4736646 0.3026109 0.0552565
0.5017388 0.3024360 0.0550815
0.5298572 0.3022608 0.0549063
0.5580197 0.3020853 0.0547309
0.5862263 0.3019095 0.0545551
0.6144771 0.3017335 0.0543791
0.6427720 0.3015572 0.0542028
0.6711110 0.3013806 0.0540262
0.6994942 0.3012038 0.0538494
0.7279215 0.3010267 0.0536722
0.7563929 0.3008493 0.0534948
0.7842213 0.3006716 0.0533172
0.8087827 0.3004936 0.0531392
0.8333820 0.3003154 0.0529610
0.8580192 0.3001369 0.0527825
0.8826945 0.2999581 0.0526037
0.9074076 0.2997791 0.0524247
0.9321588 0.2995998 0.0522453
0.0572703 0.3323262 0.0572703
0.0846825 0.3321554 0.0570995
0.1121388 0.3319844 0.0569284
0.1396393 0.3318130 0.0567571
0.1671839 0.3316414 0.0565854
0.1947727 0.3314695 0.0564135
0.2224055 0.3312973 0.0562414
0.2500825 0.3311249 0.0560689
0.2778037 0.3309521 0.0558962
0.3055690 0.3307791 0.0557232
0.3333784 0.3306058 0.0555499
0.3612319 0.3304323 0.0553764
0.3891296 0.3302585 0.0552025
0.4170715 0.3300844 0.0550284
0.4450574 0.3299100 0.0548541
0.4730875 0.3297353 0.0546794
0.5011617 0.3295604 0.0545045
0.5292801 0.3293852 0.0543293
0.5574426 0.3292097 0.0541538
0.5856492 0.3290340 0.0539781
0.6139000 0.3288580 0.0538020
0.6421949 0.3286817 0.0536257
0.6705339 0.3285051 0.0534492
0.6989171 0.3283282 0.0532723
0.7273444 0.3281511 0.0530952
0.7558159 0.3279737 0.0529178
0.7837250 0.3277960 0.0527401
0.8082864 0.3276181 0.0525622
0.8328857 0.3274399 0.0523839
0.8575230 0.3272614 0.0522054
0.8821982 0.3270826 0.0520267
0.9069114 0.3269035 0.0518476
0.9316625 0.3267242 0.0516683
0.0566923 0.3594933 0.0566923
0.0841045 0.3593225 0.0565215
0.1115609 0.3591514 0.0563505
0.1390613 0.3589801 0.0561791
0.1666060 0.3588085 0.0560075
0.1941947 0.3586366 0.0558356
0.2218276 0.3584644 0.0556634
0.2495046 0.3582919 0.0554910
0.2772257 0.3581192 0.0553182
0.3049910 0.3579462 0.0551452
0.3328004 0.3577729 0.0549720
0.3606540 0.3575994 0.0547984
0.3885517 0.3574256 0.0546246
0.4164935 0.3572515 0.0544505
0.4444795 0.3570771 0.0542761
0.4725096 0.3569024 0.0541015
0.5005838 0.3567275 0.0539265
0.5287021 0.3565523 0.0537513
0.5568646 0.3563768 0.0535759
0.5850713 0.3562011 0.0534001
0.6133220 0.3560250 0.0532241
0.6416169 0.3558487 0.0530478
0.6699560 0.3556722 0.0528712
0.6983392 0.3554953 0.0526943
0.7267665 0.3553182 0.0525172
0.7552379 0.3551408 0.0523398
0.7832280 0.3549631 0.0521621
0.8077894 0.3547852 0.0519842
0.8323887 0.3546069 0.0518060
0.8570259 0.3544284 0.0516275
0.8817012 0.3542497 0.0514487
0.9064143 0.3540706 0.0512696
0.9311655 0.3538913 0.0510903
0.0561135 0.3867030 0.0561135
0.0835257 0.3865322 0.0559427
0.1109820 0.3863611 0.0557716
0.1384825 0.3861898 0.0556002
0.1660271 0.3860182 0.0554286
0.1936158 0.3858463 0.0552567
0.2212487 0.3856741 0.0550845
0.2489257 0.3855016 0.0549121
0.2766469 0.3853289 0.0547394
0.3044122 0.3851559 0.0545664
0.3322216 0.3849826 0.0543931
0.3600751 0.3848091 0.0542195
0.3879728 0.3846353 0.0540457
0.4159146 0.3844612 0.0538716
0.4439006 0.3842868 0.0536972
0.4719307 0.3841121 0.0535226
0.5000049 0.3839372 0.0533477
0.5281233 0.3837620 0.0531725
0.5562858 0.3835865 0.0529970
0.5844924 0.3834108 0.0528212
0.6127432 0.3832348 0.0526452
0.6410381 0.3830585 0.0524689
0.6693771 0.3828819 0.0522923
0.6977603 0.3827050 0.0521155
0.7261876 0.3825279 0.0519384
0.7546590 0.3823505 0.0517610
0.7827302 0.3821728 0.0515833
0.8072915 0.3819949 0.0514053
0.8318908 0.3818167 0.0512271
0.8565281 0.3816382 0.0510486
0.8812033 0.3814594 0.0508698
0.9059165 0.3812803 0.0506908
0.9306676 0.3811010 0.0505115
0.0555337 0.4139553 0.0555337
0.0829459 0.4137845 0.0553629
0.1104022 0.4136135 0.0551918
0.1379027 0.4134421 0.0550205
0.1654473 0.4132705 0.0548488
0.1930361 0.4130986 0.0546769
0.2206689 0.4129264 0.0545048
0.2483459 0.4127540 0.0543323
0.2760671 0.4125812 0.0541596
0.3038324 0.4124082 0.0539866
0.3316418 0.4122350 0.0538133
0.3594954 0.4120614 0.0536398
0.3873930 0.4118876 0.0534659
0.4153349 0.4117135 0.0532918
0.4433208 0.4115391 0.0531175
0.4713509 0.4113645 0.0529428
0.4994251 0.4111895 0.0527679
0.5275435 0.4110143 0.0525927
0.5557060 0.4108389 0.0524172
0.5839126 0.4106631 0.0522415
0.6121634 0.4104871 0.0520654
0.6404583 0.4103108 0.0518891
0.6687973 0.4101342 0.0517126
0.6971805 0.4099574 0.0515357
0.7256078 0.4097802 0.0513586
0.7540793 0.4096028 0.0511812
0.7822316 0.4094252 0.0510035
0.8067929 0.4092472 0.0508256
0.8313922 0.4090690 0.0506473
0.8560295 0.4088905 0.0504688
0.8807047 0.4087117 0.0502901
0.9054179 0.4085327 0.0501110
0.9301690 0.4083533 0.0499317
0.0549530 0.4412503 0.0549530
0.0823652 0.4410795 0.0547822
0.1098216 0.4409084 0.0546111
0.1373220 0.4407371 0.0544398
0.1648666 0.4405655 0.0542682
0.1924554 0.4403936 0.0540963
0.2200883 0.4402214 0.0539241
0.2477653 0.4400489 0.0537516
0.2754864 0.4398762 0.0535789
0.3032517 0.4397032 0.0534059
0.3310611 0.4395299 0.0532326
0.3589147 0.4393564 0.0530591
0.3868124 0.4391826 0.0528853
0.4147542 0.4390085 0.0527112
0.4427401 0.4388341 0.0525368
0.4707702 0.4386594 0.0523621
0.4988445 0.4384845 0.0521872
0.5269628 0.4383093 0.0520120
0.5551253 0.4381338 0.0518365
0.5833320 0.4379581 0.0516608
0.6115827 0.4377821 0.0514848
0.6398776 0.4376058 0.0513085
0.6682167 0.4374292 0.0511319
0.6965998 0.4372523 0.0509550
0.7250272 0.4370752 0.0507779
0.7534986 0.4368978 0.0506005
0.7817322 0.4367201 0.0504228
0.8062935 0.4365422 0.0502449
0.8308929 0.4363639 0.0500667
0.8555301 0.4361854 0.0498882
0.8802053 0.4360067 0.0497094
0.9049185 0.4358276 0.0495303
0.9296697 0.4356483 0.0493510
0.0543714 0.4685879 0.0543714
0.0817836 0.4684171 0.0542006
0.1092400 0.4682460 0.0540296
0.1367404 0.4680747 0.0538582
0.1642850 0.4679030 0.0536866
0.1918738 0.4677311 0.0535147
0.2195067 0.4675590 0.0533425
0.2471837 0.4673865 0.0531701
0.2749048 0.4672138 0.0529973
0.3026701 0.4670408 0.0528243
0.3304795 0.4668675 0.0526510
0.3583331 0.4666940 0.0524775
0.3862308 0.4665201 0.0523037
0.4141726 0.4663460 0.0521296
0.4421586 0.4661717 0.0519552
0.4701886 0.4659970 0.0517805
0.4982629 0.4658221 0.0516056
0.5263812 0.4656469 0.0514304
0.5545437 0.4654714 0.0512549
0.5827504 0.4652957 0.0510792
0.6110011 0.4651196 0.0509032
0.6392960 0.4649433 0.0507269
0.6676351 0.4647668 0.0505503
0.6960183 0.4645899 0.0503734
0.7244456 0.4644128 0.0501963
0.7529170 0.4642354 0.0500189
0.7812320 0.4640577 0.0498412
0.8057934 0.4638798 0.0496633
0.8303927 0.4637015 0.0494851
0.8550300 0.4635230 0.0493066
0.8797052 0.4633443 0.0491278
0.9044184 0.4631652 0.0489487
0.9291695 0.4629859 0.0487694
0.0537889 0.4959681 0.0537889
0.0812011 0.4957973 0.0536181
0.1086575 0.4956262 0.0534471
0.1361579 0.4954549 0.0532757
0.1637026 0.4952833 0.0531041
0.1912913 0.4951114 0.0529322
0.2189242 0.4949392 0.0527600
0.2466012 0.4947667 0.0525876
0.2743223 0.4945940 0.0524148
0.3020876 0.4944210 0.0522418
0.3298970 0.4942477 0.0520686
0.3577506 0.4940742 0.0518950
0.3856483 0.4939004 0.0517212
0.4135901 0.4937263 0.0515471
0.4415761 0.4935519 0.0513727
0.4696062 0.4933772 0.0511981
0.4976804 0.4932023 0.0510231
0.5257987 0.4930271 0.0508479
0.5539612 0.4928516 0.0506725
0.5821679 0.4926759 0.0504967
0.6104186 0.4924999 0.0503207
0.6387136 0.4923236 0.0501444
0.6670526 0.4921470 0.0499678
0.6954358 0.4919701 0.0497910
0.7238631 0.4917930 0.0496138
0.7523345 0.4916156 0.0494364
0.7807311 0.4914379 0.0492588
0.8052924 0.4912600 0.0490808
0.8298917 0.4910818 0.0489026
0.8545290 0.4909033 0.0487241
0.8792042 0.4907245 0.0485453
0.9039174 0.4905454 0.0483662
0.9286685 0.4903661 0.0481869
0.0532055 0.5233910 0.0532055
0.0806177 0.5232202 0.0530347
0.1080741 0.5230491 0.0528637
0.1355745 0.5228777 0.0526923
0.1631192 0.5227061 0.0525207
0.1907079 0.5225342 0.0523488
0.2183408 0.5223620 0.0521766
0.2460178 0.5221896 0.0520042
0.2737389 0.5220169 0.0518314
0.3015042 0.5218439 0.0516584
0.3293136 0.5216706 0.0514852
0.3571672 0.5214970 0.0513116
0.3850649 0.5213232 0.0511378
0.4130067 0.5211491 0.0509637
0.4409927 0.5209747 0.0507893
0.4690228 0.5208001 0.0506147
0.4970970 0.5206252 0.0504397
0.5252153 0.5204500 0.0502645
0.5533778 0.5202745 0.0500891
0.5815845 0.5200987 0.0499133
0.6098352 0.5199227 0.0497373
0.6381302 0.5197464 0.0495610
0.6664692 0.5195698 0.0493844
0.6948524 0.5193930 0.0492076
0.7232797 0.5192159 0.0490304
0.7517511 0.5190385 0.0488530
0.7802294 0.5188608 0.0486754
0.8047907 0.5186828 0.0484974
0.8293900 0.5185046 0.0483192
0.8540273 0.5183261 0.0481407
0.8787025 0.5181473 0.0479619
0.9034157 0.5179683 0.0477828
0.9281668 0.5177890 0.0476035
0.0526212 0.5508564 0.0526212
0.0800334 0.5506856 0.0524504
0.1074898 0.5505146 0.0522794
0.1349902 0.5503432 0.0521080
0.1625348 0.5501716 0.0519364
0.1901236 0.5499997 0.0517645
0.2177565 0.5498275 0.0515923
0.2454335 0.5496551 0.0514199
0.2731546 0.5494823 0.0512471
0.3009199 0.5493093 0.0510741
0.3287293 0.5491361 0.0509008
0.3565829 0.5489625 0.0507273
0.3844806 0.5487887 0.0505535
0.4124224 0.5486146 0.0503794
0.4404084 0.5484402 0.0502050
0.4684384 0.5482656 0.0500303
0.4965127 0.5480906 0.0498554
0.5246310 0.5479154 0.0496802
0.5527935 0.5477400 0.0495047
0.5810002 0.5475642 0.0493290
0.6092509 0.5473882 0.0491530
0.6375458 0.5472119 0.0489767
0.6658849 0.5470353 0.0488001
0.6942681 0.5468585 0.0486232
0.7226954 0.5466813 0.0484461
0.7511668 0.5465039 0.0482687
0.7796824 0.5463263 0.0480910
0.8042882 0.5461483 0.0479131
0.8288875 0.5459701 0.0477349
0.8535248 0.5457916 0.0475564
0.8782000 0.5456128 0.0473776
0.9029132 0.5454338 0.0471985
0.9276643 0.5452544 0.0470192
0.0520360 0.5783645 0.0520360
0.0794482 0.5781937 0.0518652
0.1069046 0.5780227 0.0516941
0.1344050 0.5778513 0.0515228
0.1619496 0.5776797 0.0513512
0.1895384 0.5775078 0.0511793
0.2171713 0.5773356 0.0510071
0.2448483 0.5771632 0.0508346
0.2725694 0.5769904 0.0506619
0.3003347 0.5768174 0.0504889
0.3281441 0.5766442 0.0503156
0.3559977 0.5764706 0.0501421
0.3838954 0.5762968 0.0499683
0.4118372 0.5761227 0.0497942
0.4398231 0.5759483 0.0496198
0.4678532 0.5757737 0.0494451
0.4959275 0.5755987 0.0492702
0.5240458 0.5754235 0.0490950
0.5522083 0.5752481 0.0489195
0.5804150 0.5750723 0.0487438
0.6086657 0.5748963 0.0485678
0.6369606 0.5747200 0.0483915
0.6652997 0.5745434 0.0482149
0.6936828 0.5743666 0.0480380
0.7221102 0.5741894 0.0478609
0.7505816 0.5740120 0.0476835
0.7790972 0.5738344 0.0475058
0.8037849 0.5736564 0.0473279
0.8283842 0.5734782 0.0471497
0.8530215 0.5732997 0.0469712
0.8776967 0.5731209 0.0467924
0.9024099 0.5729419 0.0466133
0.9271610 0.5727625 0.0464340
0.0514499 0.6059153 0.0514499
0.0788621 0.6057445 0.0512791
0.1063184 0.6055734 0.0511080
0.1338189 0.6054020 0.0509367
0.1613635 0.6052304 0.0507650
0.1889523 0.6050585 0.0505931
0.2165851 0.6048863 0.0504210
0.2442621 0.6047139 0.0502485
0.2719833 0.6045412 0.0500758
0.2997486 0.6043682 0.0499028
0.3275580 0.6041949 0.0497295
0.3554116 0.6040213 0.0495560
0.3833092 0.6038475 0.0493821
0.4112511 0.6036734 0.0492080
0.4392370 0.6034990 0.0490337
0.4672671 0.6033244 0.0488590
0.4953413 0.6031495 0.0486841
0.5234597 0.6029743 0.0485089
0.5516222 0.6027988 0.0483334
0.5798288 0.6026230 0.0481577
0.6080796 0.6024470 0.0479816
0.6363745 0.6022707 0.0478053
0.6647135 0.6020941 0.0476288
0.6930967 0.6019173 0.0474519
0.7215240 0.6017402 0.0472748
0.7499955 0.6015628 0.0470974
0.7785111 0.6013851 0.0469197
0.8032809 0.6012071 0.0467418
0.8278802 0.6010289 0.0465635
0.8525174 0.6008504 0.0463850
0.8771927 0.6006716 0.0462063
0.9019058 0.6004926 0.0460272
0.9266570 0.6003133 0.0458479
0.0508629 0.6335086 0.0508629
0.0782751 0.6333378 0.0506921
0.1057314 0.6331668 0.0505210
0.1332319 0.6329954 0.0503496
0.1607765 0.6328238 0.0501780
0.1883652 0.6326519 0.0500061
0.2159981 0.6324797 0.0498339
0.2436751 0.6323073 0.0496615
0.2713963 0.6321345 0.0494888
0.2991616 0.6319615 0.0493158
0.3269710 0.6317882 0.0491425
0.3548245 0.6316147 0.0489689
0.3827222 0.6314409 0.0487951
0.4106640 0.6312668 0.0486210
0.4386500 0.6310924 0.0484466
0.4666801 0.6309177 0.0482720
0.4947543 0.6307428 0.0480971
0.5228727 0.6305676 0.0479219
0.5510352 0.6303921 0.0477464
0.5792418 0.6302164 0.0475706
0.6074926 0.6300404 0.0473946
0.6357875 0.6298641 0.0472183
0.6641265 0.6296875 0.0470417
0.6925097 0.6295106 0.0468649
0.7209370 0.6293335 0.0466878
0.7494084 0.6291561 0.0465104
0.7779240 0.6289784 0.0463327
0.8027760 0.6288005 0.0461547
0.8273753 0.6286223 0.0459765
0.8520126 0.6284438 0.0457980
0.8766878 0.6282650 0.0456192
0.9014010 0.6280859 0.0454402
0.9261521 0.6279066 0.0452609
0.0502749 0.6611446 0.0502749
0.0776871 0.6609738 0.0501041
0.1051435 0.6608027 0.0499331
0.1326439 0.6606314 0.0497617
0.1601886 0.6604598 0.0495901
0.1877773 0.6602879 0.0494182
0.2154102 0.6601157 0.0492460
0.2430872 0.6599432 0.0490736
0.2708083 0.6597705 0.0489008
0.2985736 0.6595975 0.0487278
0.3263830 0.6594242 0.0485546
0.3542366 0.6592507 0.0483810
0.3821343 0.6590769 0.0482072
0.4100761 0.6589028 0.0480331
0.4380621 0.6587284 0.0478587
0.4660922 0.6585537 0.0476841
0.4941664 0.6583788 0.0475091
0.5222847 0.6582036 0.0473339
0.5504472 0.6580281 0.0471585
0.5786539 0.6578524 0.0469827
0.6069046 0.6576764 0.0468067
0.6351995 0.6575001 0.0466304
0.6635386 0.6573235 0.0464538
0.6919218 0.6571466 0.0462769
0.7203491 0.6569695 0.0460998
0.7488205 0.6567921 0.0459224
0.7773361 0.6566144 0.0457447
0.8022704 0.6564365 0.0455668
0.8268697 0.6562583 0.0453886
0.8515070 0.6560798 0.0452101
0.8761822 0.6559010 0.0450313
0.9008954 0.6557219 0.0448522
0.9256465 0.6555426 0.0446729
0.0496861 0.6888232 0.0496861
0.0770983 0.6886524 0.0495153
0.1045546 0.6884814 0.0493442
0.1320551 0.6883100 0.0491729
0.1595997 0.6881384 0.0490012
0.1871885 0.6879665 0.0488293
0.2148213 0.6877943 0.0486572
0.2424983 0.6876219 0.0484847
0.2702195 0.6874491 0.0483120
0.2979848 0.6872761 0.0481390
0.3257942 0.6871029 0.0479657
0.3536477 0.6869293 0.0477922
0.3815454 0.6867555 0.0476183
0.4094873 0.6865814 0.0474442
0.4374732 0.6864070 0.0472699
0.4655033 0.6862323 0.0470952
0.4935775 0.6860574 0.0469203
0.5216959 0.6858822 0.0467451
0.5498584 0.6857067 0.0465696
0.5780650 0.6855310 0.0463939
0.6063158 0.6853550 0.0462178
0.6346107 0.6851787 0.0460415
0.6629497 0.6850021 0.0458650
0.6913329 0.6848252 0.0456881
0.7197602 0.6846481 0.0455110
0.7482317 0.6844707 0.0453336
0.7767473 0.6842930 0.0451559
0.8017640 0.6841151 0.0449780
0.8263633 0.6839369 0.0447997
0.8510006 0.6837584 0.0446212
0.8756758 0.6835796 0.0444425
0.9003890 0.6834005 0.0442634
0.9251401 0.6832212 0.0440841
0.0490963 0.7165445 0.0490963
0.0765085 0.7163737 0.0489255
