creative/exports/jpo-capcut-kit/09-luts/overcast-grass.cube
TITLE "Let's Pepper · Overcast Grass"
# Apply at 20–40% after exposure and white-balance correction.
LUT_3D_SIZE 33
DOMAIN_MIN 0.0 0.0 0.0
DOMAIN_MAX 1.0 1.0 1.0
0.0000000 0.0000000 0.0000000
0.0050181 0.0000000 0.0000000
0.0435716 0.0000000 0.0000000
0.0821405 0.0000000 0.0000000
0.1207249 0.0000000 0.0000000
0.1593247 0.0000000 0.0000000
0.1979399 0.0000000 0.0000000
0.2365706 0.0000000 0.0000000
0.2752168 0.0000000 0.0000000
0.3138783 0.0000000 0.0000000
0.3525554 0.0000000 0.0000000
0.3912478 0.0000000 0.0000000
0.4299557 0.0000000 0.0000000
0.4686790 0.0000000 0.0000000
0.5074178 0.0000000 0.0000000
0.5461720 0.0000000 0.0000000
0.5849417 0.0000000 0.0000000
0.6237268 0.0000000 0.0000000
0.6625273 0.0000000 0.0000000
0.7013433 0.0000000 0.0000000
0.7401747 0.0000000 0.0000000
0.7790215 0.0000000 0.0000000
0.8125801 0.0000000 0.0000000
0.8460149 0.0000000 0.0000000
0.8794631 0.0000000 0.0000000
0.9129245 0.0000000 0.0000000
0.9463992 0.0000000 0.0000000
0.9798871 0.0000000 0.0000000
1.0000000 0.0000000 0.0000000
1.0000000 0.0000000 0.0000000
1.0000000 0.0000000 0.0000000
1.0000000 0.0000000 0.0000000
1.0000000 0.0000000 0.0000000
0.0000000 0.0021872 0.0000000
0.0020548 0.0012889 0.0000000
0.0406083 0.0003902 0.0000000
0.0791772 0.0000000 0.0000000
0.1177616 0.0000000 0.0000000
0.1563614 0.0000000 0.0000000
0.1949767 0.0000000 0.0000000
0.2336074 0.0000000 0.0000000
0.2722535 0.0000000 0.0000000
0.3109151 0.0000000 0.0000000
0.3495921 0.0000000 0.0000000
0.3882846 0.0000000 0.0000000
0.4269924 0.0000000 0.0000000
0.4657158 0.0000000 0.0000000
0.5044546 0.0000000 0.0000000
0.5432088 0.0000000 0.0000000
0.5819784 0.0000000 0.0000000
0.6207635 0.0000000 0.0000000
0.6595640 0.0000000 0.0000000
0.6983800 0.0000000 0.0000000
0.7372114 0.0000000 0.0000000
0.7760583 0.0000000 0.0000000
0.8100317 0.0000000 0.0000000
0.8434665 0.0000000 0.0000000
0.8769147 0.0000000 0.0000000
0.9103761 0.0000000 0.0000000
0.9438508 0.0000000 0.0000000
0.9773387 0.0000000 0.0000000
1.0000000 0.0000000 0.0000000
1.0000000 0.0000000 0.0000000
1.0000000 0.0000000 0.0000000
1.0000000 0.0000000 0.0000000
1.0000000 0.0000000 0.0000000
0.0000000 0.0379084 0.0000000
0.0000000 0.0370101 0.0000000
0.0376439 0.0361114 0.0000000
0.0762128 0.0352124 0.0000000
0.1147972 0.0343130 0.0000000
0.1533970 0.0334133 0.0000000
0.1920123 0.0325132 0.0000000
0.2306429 0.0316127 0.0000000
0.2692891 0.0307119 0.0000000
0.3079507 0.0298107 0.0000000
0.3466277 0.0289092 0.0000000
0.3853201 0.0280073 0.0000000
0.4240280 0.0271050 0.0000000
0.4627514 0.0262024 0.0000000
0.5014901 0.0252994 0.0000000
0.5402443 0.0243961 0.0000000
0.5790140 0.0234924 0.0000000
0.6177991 0.0225883 0.0000000
0.6565996 0.0216839 0.0000000
0.6954156 0.0207791 0.0000000
0.7342470 0.0198740 0.0000000
0.7730939 0.0189685 0.0000000
0.8074823 0.0180626 0.0000000
0.8409171 0.0171564 0.0000000
0.8743653 0.0162498 0.0000000
0.9078267 0.0153429 0.0000000
0.9413013 0.0144355 0.0000000
0.9747893 0.0135279 0.0000000
1.0000000 0.0126199 0.0000000
1.0000000 0.0117115 0.0000000
1.0000000 0.0108027 0.0000000
1.0000000 0.0098936 0.0000000
1.0000000 0.0089842 0.0000000
0.0000000 0.0736437 0.0000000
0.0000000 0.0727454 0.0000000
0.0346783 0.0718467 0.0000000
0.0732472 0.0709477 0.0000000
0.1118316 0.0700483 0.0000000
0.1504314 0.0691485 0.0000000
0.1890467 0.0682484 0.0000000
0.2276774 0.0673480 0.0000000
0.2663235 0.0664472 0.0000000
0.3049851 0.0655460 0.0000000
0.3436621 0.0646444 0.0000000
0.3823545 0.0637425 0.0000000
0.4210624 0.0628403 0.0000000
0.4597858 0.0619376 0.0000000
0.4985245 0.0610347 0.0000000
0.5372788 0.0601313 0.0000000
0.5760484 0.0592276 0.0000000
0.6148335 0.0583236 0.0000000
0.6536340 0.0574191 0.0000000
0.6924500 0.0565144 0.0000000
0.7312814 0.0556092 0.0000000
0.7701283 0.0547037 0.0000000
0.8049319 0.0537978 0.0000000
0.8383667 0.0528916 0.0000000
0.8718149 0.0519850 0.0000000
0.9052763 0.0510781 0.0000000
0.9387509 0.0501708 0.0000000
0.9722389 0.0492631 0.0000000
1.0000000 0.0483551 0.0000000
1.0000000 0.0474467 0.0000000
1.0000000 0.0465380 0.0000000
1.0000000 0.0456289 0.0000000
1.0000000 0.0447194 0.0000000
0.0000000 0.1093929 0.0000000
0.0000000 0.1084946 0.0000000
0.0317115 0.1075960 0.0000000
0.0702805 0.1066970 0.0000000
0.1088648 0.1057976 0.0000000
0.1474647 0.1048978 0.0000000
0.1860799 0.1039977 0.0000000
0.2247106 0.1030973 0.0000000
0.2633567 0.1021964 0.0000000
0.3020183 0.1012953 0.0000000
0.3406953 0.1003937 0.0000000
0.3793878 0.0994918 0.0000000
0.4180957 0.0985895 0.0000000
0.4568190 0.0976869 0.0000000
0.4955578 0.0967839 0.0000000
0.5343120 0.0958806 0.0000000
0.5730817 0.0949769 0.0000000
0.6118667 0.0940728 0.0000000
0.6506673 0.0931684 0.0000000
0.6894832 0.0922636 0.0000000
0.7283147 0.0913585 0.0000000
0.7671615 0.0904530 0.0000000
0.8023805 0.0895471 0.0000000
0.8358153 0.0886409 0.0000000
0.8692634 0.0877343 0.0000000
0.9027248 0.0868274 0.0000000
0.9361995 0.0859201 0.0000000
0.9696875 0.0850124 0.0000000
1.0000000 0.0841044 0.0000000
1.0000000 0.0831960 0.0000000
1.0000000 0.0822873 0.0000000
1.0000000 0.0813782 0.0000000
1.0000000 0.0804687 0.0000000
0.0000000 0.1451563 0.0000000
0.0000000 0.1442579 0.0000000
0.0287436 0.1433593 0.0000000
0.0673125 0.1424603 0.0000000
0.1058969 0.1415609 0.0000000
0.1444967 0.1406611 0.0000000
0.1831120 0.1397610 0.0000000
0.2217427 0.1388606 0.0000000
0.2603888 0.1379597 0.0000000
0.2990504 0.1370586 0.0000000
0.3377274 0.1361570 0.0000000
0.3764199 0.1352551 0.0000000
0.4151278 0.1343529 0.0000000
0.4538511 0.1334502 0.0000000
0.4925899 0.1325472 0.0000000
0.5313441 0.1316439 0.0000000
0.5701137 0.1307402 0.0000000
0.6088988 0.1298361 0.0000000
0.6476994 0.1289317 0.0000000
0.6865153 0.1280269 0.0000000
0.7253467 0.1271218 0.0000000
0.7641936 0.1262163 0.0000000
0.7998281 0.1253104 0.0000000
0.8332629 0.1244042 0.0000000
0.8667110 0.1234976 0.0000000
0.9001724 0.1225907 0.0000000
0.9336471 0.1216834 0.0000000
0.9671351 0.1207757 0.0000000
1.0000000 0.1198677 0.0000000
1.0000000 0.1189593 0.0000000
1.0000000 0.1180506 0.0000000
1.0000000 0.1171415 0.0000000
1.0000000 0.1162320 0.0000000
0.0000000 0.1809336 0.0000000
0.0000000 0.1800353 0.0000000
0.0257745 0.1791366 0.0000000
0.0643435 0.1782376 0.0000000
0.1029278 0.1773382 0.0000000
0.1415277 0.1764385 0.0000000
0.1801429 0.1755384 0.0000000
0.2187736 0.1746379 0.0000000
0.2574197 0.1737371 0.0000000
0.2960813 0.1728359 0.0000000
0.3347583 0.1719344 0.0000000
0.3734508 0.1710324 0.0000000
0.4121587 0.1701302 0.0000000
0.4508820 0.1692276 0.0000000
0.4896208 0.1683246 0.0000000
0.5283750 0.1674212 0.0000000
0.5671446 0.1665175 0.0000000
0.6059297 0.1656135 0.0000000
0.6447303 0.1647091 0.0000000
0.6835462 0.1638043 0.0000000
0.7223777 0.1628991 0.0000000
0.7612245 0.1619936 0.0000000
0.7972746 0.1610878 0.0000000
0.8307095 0.1601815 0.0000000
0.8641576 0.1592750 0.0000000
0.8976190 0.1583680 0.0000000
0.9310937 0.1574607 0.0000000
0.9645817 0.1565531 0.0000000
0.9980829 0.1556450 0.0000000
1.0000000 0.1547367 0.0000000
1.0000000 0.1538279 0.0000000
1.0000000 0.1529188 0.0000000
1.0000000 0.1520094 0.0000000
0.0000000 0.2167249 0.0000000
0.0000000 0.2158266 0.0000000
0.0228043 0.2149280 0.0000000
0.0613732 0.2140290 0.0000000
0.0999576 0.2131296 0.0000000
0.1385574 0.2122298 0.0000000
0.1771727 0.2113297 0.0000000
0.2158034 0.2104293 0.0000000
0.2544495 0.2095284 0.0000000
0.2931111 0.2086273 0.0000000
0.3317881 0.2077257 0.0000000
0.3704805 0.2068238 0.0000000
0.4091884 0.2059215 0.0000000
0.4479118 0.2050189 0.0000000
0.4866505 0.2041159 0.0000000
0.5254048 0.2032126 0.0000000
0.5641744 0.2023089 0.0000000
0.6029595 0.2014048 0.0000000
0.6417600 0.2005004 0.0000000
0.6805760 0.1995956 0.0000000
0.7194074 0.1986905 0.0000000
0.7582543 0.1977850 0.0000000
0.7947202 0.1968791 0.0000000
0.8281551 0.1959729 0.0000000
0.8616032 0.1950663 0.0000000
0.8950646 0.1941594 0.0000000
0.9285393 0.1932521 0.0000000
0.9620273 0.1923444 0.0000000
0.9955285 0.1914364 0.0000000
1.0000000 0.1905280 0.0000000
1.0000000 0.1896193 0.0000000
1.0000000 0.1887102 0.0000000
1.0000000 0.1878007 0.0000000
0.0000000 0.2525303 0.0000000
0.0000000 0.2516320 0.0000000
0.0198329 0.2507334 0.0000000
0.0584018 0.2498343 0.0000000
0.0969862 0.2489350 0.0000000
0.1355860 0.2480352 0.0000000
0.1742013 0.2471351 0.0000000
0.2128319 0.2462347 0.0000000
0.2514781 0.2453338 0.0000000
0.2901397 0.2444326 0.0000000
0.3288167 0.2435311 0.0000000
0.3675091 0.2426292 0.0000000
0.4062170 0.2417269 0.0000000
0.4449404 0.2408243 0.0000000
0.4836791 0.2399213 0.0000000
0.5224333 0.2390180 0.0000000
0.5612030 0.2381143 0.0000000
0.5999881 0.2372102 0.0000000
0.6387886 0.2363058 0.0000000
0.6776046 0.2354010 0.0000000
0.7164360 0.2344959 0.0000000
0.7552829 0.2335904 0.0000000
0.7921648 0.2326845 0.0000000
0.8255997 0.2317783 0.0000000
0.8590478 0.2308717 0.0000000
0.8925092 0.2299648 0.0000000
0.9259839 0.2290575 0.0000000
0.9594718 0.2281498 0.0000000
0.9929731 0.2272418 0.0000000
1.0000000 0.2263334 0.0000000
1.0000000 0.2254247 0.0000000
1.0000000 0.2245156 0.0000000
1.0000000 0.2236061 0.0000000
0.0000000 0.2883498 0.0000000
0.0000000 0.2874514 0.0000000
0.0168603 0.2865528 0.0000000
0.0554292 0.2856538 0.0000000
0.0940136 0.2847544 0.0000000
0.1326134 0.2838546 0.0000000
0.1712287 0.2829545 0.0000000
0.2098594 0.2820541 0.0000000
0.2485055 0.2811532 0.0000000
0.2871671 0.2802521 0.0000000
0.3258441 0.2793505 0.0000000
0.3645366 0.2784486 0.0000000
0.4032444 0.2775464 0.0000000
0.4419678 0.2766437 0.0000000
0.4807066 0.2757407 0.0000000
0.5194608 0.2748374 0.0000000
0.5582304 0.2739337 0.0000000
0.5970155 0.2730296 0.0000000
0.6358160 0.2721252 0.0000000
0.6746320 0.2712204 0.0000000
0.7134634 0.2703153 0.0000000
0.7523103 0.2694098 0.0000000
0.7896084 0.2685039 0.0000000
0.8230433 0.2675977 0.0000000
0.8564914 0.2666911 0.0000000
0.8899528 0.2657842 0.0000000
0.9234275 0.2648769 0.0000000
0.9569154 0.2639692 0.0000000
0.9904167 0.2630612 0.0000000
1.0000000 0.2621528 0.0000000
1.0000000 0.2612441 0.0000000
1.0000000 0.2603350 0.0000000
1.0000000 0.2594255 0.0000000
0.0000000 0.3241832 0.0000000
0.0000000 0.3232849 0.0000000
0.0138866 0.3223862 0.0000000
0.0524555 0.3214872 0.0000000
0.0910399 0.3205878 0.0000000
0.1296397 0.3196881 0.0000000
0.1682549 0.3187880 0.0000000
0.2068856 0.3178875 0.0000000
0.2455318 0.3169867 0.0000000
0.2841933 0.3160855 0.0000000
0.3228704 0.3151840 0.0000000
0.3615628 0.3142821 0.0000000
0.4002707 0.3133798 0.0000000
0.4389940 0.3124772 0.0000000
0.4777328 0.3115742 0.0000000
0.5164870 0.3106709 0.0000000
0.5552567 0.3097671 0.0000000
0.5940418 0.3088631 0.0000000
0.6328423 0.3079587 0.0000000
0.6716583 0.3070539 0.0000000
0.7104897 0.3061487 0.0000000
0.7493365 0.3052432 0.0000000
0.7870510 0.3043374 0.0000000
0.8204858 0.3034312 0.0000000
0.8539340 0.3025246 0.0000000
0.8873954 0.3016176 0.0000000
0.9208701 0.3007103 0.0000000
0.9543580 0.2998027 0.0000000
0.9878593 0.2988946 0.0000000
1.0000000 0.2979863 0.0000000
1.0000000 0.2970775 0.0000000
1.0000000 0.2961684 0.0000000
1.0000000 0.2952590 0.0000000
0.0000000 0.3600307 0.0000000
0.0000000 0.3591324 0.0000000
0.0109116 0.3582337 0.0000000
0.0494806 0.3573347 0.0000000
0.0880650 0.3564353 0.0000000
0.1266648 0.3555356 0.0000000
0.1652800 0.3546354 0.0000000
0.2039107 0.3537350 0.0000000
0.2425569 0.3528342 0.0000000
0.2812184 0.3519330 0.0000000
0.3198955 0.3510314 0.0000000
0.3585879 0.3501295 0.0000000
0.3972958 0.3492273 0.0000000
0.4360191 0.3483246 0.0000000
0.4747579 0.3474217 0.0000000
0.5135121 0.3465183 0.0000000
0.5522818 0.3456146 0.0000000
0.5910669 0.3447106 0.0000000
0.6298674 0.3438061 0.0000000
0.6686834 0.3429014 0.0000000
0.7075148 0.3419962 0.0000000
0.7463616 0.3410907 0.0000000
0.7844926 0.3401848 0.0000000
0.8179274 0.3392786 0.0000000
0.8513756 0.3383720 0.0000000
0.8848370 0.3374651 0.0000000
0.9183116 0.3365578 0.0000000
0.9517996 0.3356501 0.0000000
0.9853008 0.3347421 0.0000000
1.0000000 0.3338337 0.0000000
1.0000000 0.3329250 0.0000000
1.0000000 0.3320159 0.0000000
1.0000000 0.3311064 0.0000000
0.0000000 0.3958922 0.0000000
0.0000000 0.3949939 0.0000000
0.0079356 0.3940952 0.0000000
0.0465045 0.3931962 0.0000000
0.0850889 0.3922968 0.0000000
0.1236887 0.3913971 0.0000000
0.1623040 0.3904970 0.0000000
0.2009347 0.3895965 0.0000000
0.2395808 0.3886957 0.0000000
0.2782424 0.3877945 0.0000000
0.3169194 0.3868929 0.0000000
0.3556118 0.3859910 0.0000000
0.3943197 0.3850888 0.0000000
0.4330431 0.3841861 0.0000000
0.4717818 0.3832832 0.0000000
0.5105361 0.3823798 0.0000000
0.5493057 0.3814761 0.0000000
0.5880908 0.3805721 0.0000000
0.6268913 0.3796676 0.0000000
0.6657073 0.3787629 0.0000000
0.7045387 0.3778577 0.0000000
0.7433856 0.3769522 0.0000000
0.7819332 0.3760463 0.0000000
0.8153680 0.3751401 0.0000000
0.8488161 0.3742335 0.0000000
0.8822775 0.3733266 0.0000000
0.9157522 0.3724193 0.0000000
0.9492402 0.3715116 0.0000000
0.9827414 0.3706036 0.0000000
1.0000000 0.3696952 0.0000000
1.0000000 0.3687865 0.0000000
1.0000000 0.3678774 0.0000000
1.0000000 0.3669679 0.0000000
0.0000000 0.4317677 0.0000000
0.0000000 0.4308694 0.0000000
0.0049583 0.4299707 0.0000000
0.0435273 0.4290717 0.0000000
0.0821117 0.4281723 0.0000000
0.1207115 0.4272726 0.0000000
0.1593267 0.4263725 0.0000000
0.1979574 0.4254720 0.0000000
0.2366036 0.4245712 0.0000000
0.2752651 0.4236700 0.0000000
0.3139422 0.4227685 0.0000000
0.3526346 0.4218666 0.0000000
0.3913425 0.4209643 0.0000000
0.4300658 0.4200617 0.0000000
0.4688046 0.4191587 0.0000000
0.5075588 0.4182554 0.0000000
0.5463285 0.4173517 0.0000000
0.5851136 0.4164476 0.0000000
0.6239141 0.4155432 0.0000000
0.6627301 0.4146384 0.0000000
0.7015615 0.4137332 0.0000000
0.7404083 0.4128277 0.0000000
0.7792706 0.4119219 0.0000000
0.8128076 0.4110157 0.0000000
0.8462557 0.4101091 0.0000000
0.8797171 0.4092021 0.0000000
0.9131918 0.4082948 0.0000000
0.9466798 0.4073872 0.0000000
0.9801810 0.4064792 0.0000000
1.0000000 0.4055708 0.0000000
1.0000000 0.4046620 0.0000000
1.0000000 0.4037529 0.0000000
1.0000000 0.4028435 0.0000000
0.0000000 0.4676573 0.0000000
0.0000000 0.4667590 0.0000000
0.0019800 0.4658603 0.0000000
0.0405489 0.4649613 0.0000000
0.0791333 0.4640619 0.0000000
0.1177331 0.4631621 0.0000000
0.1563483 0.4622620 0.0000000
0.1949790 0.4613616 0.0000000
0.2336252 0.4604607 0.0000000
0.2722867 0.4595596 0.0000000
0.3109638 0.4586580 0.0000000
0.3496562 0.4577561 0.0000000
0.3883641 0.4568539 0.0000000
0.4270874 0.4559512 0.0000000
0.4658262 0.4550483 0.0000000
0.5045804 0.4541449 0.0000000
0.5433501 0.4532412 0.0000000
0.5821352 0.4523371 0.0000000
0.6209357 0.4514327 0.0000000
0.6597517 0.4505279 0.0000000
0.6985831 0.4496228 0.0000000
0.7374299 0.4487173 0.0000000
0.7762922 0.4478114 0.0000000
0.8102462 0.4469052 0.0000000
0.8436943 0.4459986 0.0000000
0.8771557 0.4450917 0.0000000
0.9106304 0.4441844 0.0000000
0.9441183 0.4432767 0.0000000
0.9776196 0.4423687 0.0000000
1.0000000 0.4414603 0.0000000
1.0000000 0.4405516 0.0000000
1.0000000 0.4396425 0.0000000
1.0000000 0.4387330 0.0000000
0.0000000 0.5035608 0.0000000
0.0000000 0.5026625 0.0000000
0.0000000 0.5017639 0.0000000
0.0375693 0.5008648 0.0000000
0.0761537 0.4999655 0.0000000
0.1147535 0.4990657 0.0000000
0.1533688 0.4981656 0.0000000
0.1919995 0.4972652 0.0000000
0.2306456 0.4963643 0.0000000
0.2693072 0.4954631 0.0000000
0.3079842 0.4945616 0.0000000
0.3466767 0.4936597 0.0000000
0.3853845 0.4927574 0.0000000
0.4241079 0.4918548 0.0000000
0.4628467 0.4909518 0.0000000
0.5016009 0.4900485 0.0000000
0.5403705 0.4891448 0.0000000
0.5791556 0.4882407 0.0000000
0.6179561 0.4873363 0.0000000
0.6567721 0.4864315 0.0000000
0.6956035 0.4855264 0.0000000
0.7344504 0.4846209 0.0000000
0.7733127 0.4837150 0.0000000
0.8076837 0.4828088 0.0000000
0.8411319 0.4819022 0.0000000
0.8745933 0.4809953 0.0000000
0.9080680 0.4800880 0.0000000
0.9415559 0.4791803 0.0000000
0.9750572 0.4782723 0.0000000
1.0000000 0.4773639 0.0000000
1.0000000 0.4764552 0.0000000
1.0000000 0.4755461 0.0000000
1.0000000 0.4746366 0.0000000
0.0000000 0.5394785 0.0000000
0.0000000 0.5385801 0.0000000
0.0000000 0.5376815 0.0000000
0.0345886 0.5367825 0.0000000
0.0731730 0.5358831 0.0000000
0.1117728 0.5349833 0.0000000
0.1503881 0.5340832 0.0000000
0.1890188 0.5331828 0.0000000
0.2276649 0.5322819 0.0000000
0.2663265 0.5313808 0.0000000
0.3050035 0.5304792 0.0000000
0.3436959 0.5295773 0.0000000
0.3824038 0.5286751 0.0000000
0.4211272 0.5277724 0.0000000
0.4598659 0.5268694 0.0000000
0.4986201 0.5259661 0.0000000
0.5373898 0.5250624 0.0000000
0.5761749 0.5241583 0.0000000
0.6149754 0.5232539 0.0000000
0.6537914 0.5223491 0.0000000
0.6926228 0.5214440 0.0000000
0.7314697 0.5205385 0.0000000
0.7703319 0.5196326 0.0000000
0.8051203 0.5187264 0.0000000
0.8385684 0.5178198 0.0000000
0.8720299 0.5169129 0.0000000
0.9055045 0.5160056 0.0000000
0.9389925 0.5150979 0.0000000
0.9724937 0.5141899 0.0000000
1.0000000 0.5132815 0.0000000
1.0000000 0.5123728 0.0000000
1.0000000 0.5114637 0.0000000
1.0000000 0.5105542 0.0000000
0.0000000 0.5754101 0.0000000
0.0000000 0.5745118 0.0000000
0.0000000 0.5736131 0.0000000
0.0316067 0.5727141 0.0000000
0.0701911 0.5718147 0.0000000
0.1087909 0.5709150 0.0000000
0.1474062 0.5700149 0.0000000
0.1860369 0.5691144 0.0000000
0.2246830 0.5682136 0.0000000
0.2633446 0.5673124 0.0000000
0.3020216 0.5664109 0.0000000
0.3407140 0.5655090 0.0000000
0.3794219 0.5646067 0.0000000
0.4181453 0.5637041 0.0000000
0.4568840 0.5628011 0.0000000
0.4956383 0.5618977 0.0000000
0.5344079 0.5609940 0.0000000
0.5731930 0.5600900 0.0000000
0.6119935 0.5591856 0.0000000
0.6508095 0.5582808 0.0000000
0.6896409 0.5573756 0.0000000
0.7284878 0.5564701 0.0000000
0.7673501 0.5555643 0.0000000
0.8025559 0.5546580 0.0000000
0.8360040 0.5537515 0.0000000
0.8694654 0.5528445 0.0000000
0.9029401 0.5519372 0.0000000
0.9364281 0.5510296 0.0000000
0.9699293 0.5501215 0.0000000
1.0000000 0.5492132 0.0000000
1.0000000 0.5483044 0.0000000
1.0000000 0.5473953 0.0000000
1.0000000 0.5464859 0.0000000
0.0000000 0.6113558 0.0000000
0.0000000 0.6104575 0.0000000
0.0000000 0.6095588 0.0000000
0.0286237 0.6086598 0.0000000
0.0672080 0.6077604 0.0000000
0.1058079 0.6068606 0.0000000
0.1444231 0.6059605 0.0000000
0.1830538 0.6050601 0.0000000
0.2216999 0.6041593 0.0000000
0.2603615 0.6032581 0.0000000
0.2990385 0.6023565 0.0000000
0.3377310 0.6014546 0.0000000
0.3764389 0.6005524 0.0000000
0.4151622 0.5996497 0.0000000
0.4539010 0.5987468 0.0000000
0.4926552 0.5978434 0.0000000
0.5314249 0.5969397 0.0000000
0.5702099 0.5960356 0.0000000
0.6090105 0.5951312 0.0000000
0.6478265 0.5942264 0.0000000
0.6866579 0.5933213 0.0000000
0.7255047 0.5924158 0.0000000
0.7643670 0.5915099 0.0000000
0.7999905 0.5906037 0.0000000
0.8334386 0.5896971 0.0000000
0.8669000 0.5887902 0.0000000
0.9003747 0.5878829 0.0000000
0.9338626 0.5869752 0.0000000
0.9673639 0.5860672 0.0000000
1.0000000 0.5851588 0.0000000
1.0000000 0.5842501 0.0000000
1.0000000 0.5833410 0.0000000
1.0000000 0.5824315 0.0000000
0.0000000 0.6473155 0.0000000
0.0000000 0.6464172 0.0000000
0.0000000 0.6455185 0.0000000
0.0256394 0.6446195 0.0000000
0.0642238 0.6437201 0.0000000
0.1028236 0.6428203 0.0000000
0.1414389 0.6419202 0.0000000
0.1800696 0.6410198 0.0000000
0.2187157 0.6401189 0.0000000
0.2573773 0.6392178 0.0000000
0.2960543 0.6383162 0.0000000
0.3347468 0.6374143 0.0000000
0.3734547 0.6365121 0.0000000
0.4121780 0.6356094 0.0000000
0.4509168 0.6347065 0.0000000
0.4896710 0.6338031 0.0000000
0.5284406 0.6328994 0.0000000
0.5672257 0.6319953 0.0000000
0.6060263 0.6310909 0.0000000
0.6448422 0.6301861 0.0000000
0.6836736 0.6292810 0.0000000
0.7225205 0.6283755 0.0000000
0.7613828 0.6274696 0.0000000
0.7974240 0.6265634 0.0000000
0.8308722 0.6256568 0.0000000
0.8643336 0.6247499 0.0000000
0.8978083 0.6238426 0.0000000
0.9312962 0.6229349 0.0000000
0.9647975 0.6220269 0.0000000
0.9983120 0.6211185 0.0000000
1.0000000 0.6202098 0.0000000
1.0000000 0.6193007 0.0000000
1.0000000 0.6183912 0.0000000
0.0000000 0.6832892 0.0000000
0.0000000 0.6823909 0.0000000
0.0000000 0.6814922 0.0000000
0.0226541 0.6805932 0.0000000
0.0612384 0.6796938 0.0000000
0.0998383 0.6787941 0.0000000
0.1384535 0.6778940 0.0000000
0.1770842 0.6769935 0.0000000
0.2157303 0.6760927 0.0000000
0.2543919 0.6751915 0.0000000
0.2930689 0.6742899 0.0000000
0.3317614 0.6733880 0.0000000
0.3704693 0.6724858 0.0000000
0.4091926 0.6715832 0.0000000
0.4479314 0.6706802 0.0000000
0.4866856 0.6697768 0.0000000
0.5254553 0.6688731 0.0000000
0.5642404 0.6679691 0.0000000
0.6030409 0.6670646 0.0000000
0.6418569 0.6661599 0.0000000
0.6806883 0.6652547 0.0000000
0.7195351 0.6643492 0.0000000
0.7583974 0.6634434 0.0000000
0.7948566 0.6625371 0.0000000
0.8283047 0.6616306 0.0000000
0.8617662 0.6607236 0.0000000
0.8952408 0.6598163 0.0000000
0.9287288 0.6589086 0.0000000
0.9622300 0.6580006 0.0000000
0.9957446 0.6570922 0.0000000
1.0000000 0.6561835 0.0000000
1.0000000 0.6552744 0.0000000
1.0000000 0.6543649 0.0000000
0.0000000 0.7192769 0.0000000
0.0000000 0.7183786 0.0000000
0.0000000 0.7174800 0.0000000
0.0196675 0.7165809 0.0000000
0.0582519 0.7156816 0.0000000
0.0968517 0.7147818 0.0000000
0.1354670 0.7138817 0.0000000
0.1740977 0.7129812 0.0000000
0.2127438 0.7120804 0.0000000
0.2514054 0.7111792 0.0000000
0.2900824 0.7102777 0.0000000
0.3287748 0.7093758 0.0000000
0.3674827 0.7084735 0.0000000
0.4062061 0.7075709 0.0000000
0.4449448 0.7066679 0.0000000
0.4836991 0.7057646 0.0000000
0.5224687 0.7048609 0.0000000
0.5612538 0.7039568 0.0000000
0.6000543 0.7030524 0.0000000
0.6388703 0.7021476 0.0000000
0.6777017 0.7012425 0.0000000
0.7165486 0.7003370 0.0000000
0.7554109 0.6994311 0.0000000
0.7922882 0.6985249 0.0000000
0.8257363 0.6976183 0.0000000
0.8591977 0.6967114 0.0000000
0.8926724 0.6958041 0.0000000
0.9261604 0.6948964 0.0000000
0.9596616 0.6939884 0.0000000
0.9931761 0.6930800 0.0000000
1.0000000 0.6921713 0.0000000
1.0000000 0.6912622 0.0000000
1.0000000 0.6903527 0.0000000
0.0000000 0.7552787 0.0000000
0.0000000 0.7543804 0.0000000
0.0000000 0.7534817 0.0000000
0.0166798 0.7525827 0.0000000
0.0552642 0.7516833 0.0000000
0.0938640 0.7507836 0.0000000
0.1324793 0.7498835 0.0000000
0.1711100 0.7489830 0.0000000
0.2097561 0.7480822 0.0000000
0.2484177 0.7471810 0.0000000
0.2870947 0.7462795 0.0000000
0.3257871 0.7453776 0.0000000
0.3644950 0.7444753 0.0000000
0.4032184 0.7435727 0.0000000
0.4419571 0.7426697 0.0000000
0.4807114 0.7417664 0.0000000
0.5194810 0.7408627 0.0000000
0.5582661 0.7399586 0.0000000
0.5970666 0.7390542 0.0000000
0.6358826 0.7381494 0.0000000
0.6747140 0.7372442 0.0000000
0.7135609 0.7363387 0.0000000
0.7524232 0.7354329 0.0000000
0.7897188 0.7345267 0.0000000
0.8231669 0.7336201 0.0000000
0.8566283 0.7327131 0.0000000
0.8901030 0.7318058 0.0000000
0.9235909 0.7308982 0.0000000
0.9570922 0.7299902 0.0000000
0.9906067 0.7290818 0.0000000
1.0000000 0.7281730 0.0000000
1.0000000 0.7272639 0.0000000
1.0000000 0.7263545 0.0000000
0.0000000 0.7897133 0.0000000
0.0000000 0.7889407 0.0000000
0.0000000 0.7881679 0.0000000
0.0136909 0.7873947 0.0000000
0.0522753 0.7866213 0.0000000
0.0908751 0.7858475 0.0000000
0.1294904 0.7850734 0.0000000
0.1681211 0.7842990 0.0000000
0.2067672 0.7835243 0.0000000
0.2454288 0.7827493 0.0000000
0.2841058 0.7819739 0.0000000
0.3227983 0.7811983 0.0000000
0.3615062 0.7804224 0.0000000
0.4002295 0.7795885 0.0000000
0.4389683 0.7786855 0.0000000
0.4777225 0.7777822 0.0000000
0.5164921 0.7768785 0.0000000
0.5552772 0.7759744 0.0000000
0.5940778 0.7750700 0.0000000
0.6328937 0.7741652 0.0000000
0.6717251 0.7732601 0.0000000
0.7105720 0.7723546 0.0000000
0.7494343 0.7714487 0.0000000
0.7871483 0.7705425 0.0000000
0.8205965 0.7696359 0.0000000
0.8540579 0.7687289 0.0000000
0.8875325 0.7678216 0.0000000
0.9210205 0.7669140 0.0000000
0.9545217 0.7660060 0.0000000
0.9880363 0.7650976 0.0000000
1.0000000 0.7641888 0.0000000
1.0000000 0.7632797 0.0000000
1.0000000 0.7623703 0.0000000
0.0000000 0.8206989 0.0000000
0.0000000 0.8199264 0.0000000
