creative/exports/jpo-capcut-kit/09-luts/overcast-grass.cube
TITLE "Let's Pepper · Overcast Grass"
# Apply at 20–40% after exposure and white-balance correction.
LUT_3D_SIZE 9
DOMAIN_MIN 0.0 0.0 0.0
DOMAIN_MAX 1.0 1.0 1.0
0.0000000 0.0000000 0.0000000
0.1207249 0.0000000 0.0000000
0.2752168 0.0000000 0.0000000
0.4299557 0.0000000 0.0000000
0.5849417 0.0000000 0.0000000
0.7401747 0.0000000 0.0000000
0.8794631 0.0000000 0.0000000
1.0000000 0.0000000 0.0000000
1.0000000 0.0000000 0.0000000
0.0000000 0.1093929 0.0000000
0.1088648 0.1057976 0.0000000
0.2633567 0.1021964 0.0000000
0.4180957 0.0985895 0.0000000
0.5730817 0.0949769 0.0000000
0.7283147 0.0913585 0.0000000
0.8692634 0.0877343 0.0000000
1.0000000 0.0841044 0.0000000
1.0000000 0.0804687 0.0000000
0.0000000 0.2525303 0.0000000
0.0969862 0.2489350 0.0000000
0.2514781 0.2453338 0.0000000
0.4062170 0.2417269 0.0000000
0.5612030 0.2381143 0.0000000
0.7164360 0.2344959 0.0000000
0.8590478 0.2308717 0.0000000
0.9929731 0.2272418 0.0000000
1.0000000 0.2236061 0.0000000
0.0000000 0.3958922 0.0000000
0.0850889 0.3922968 0.0000000
0.2395808 0.3886957 0.0000000
0.3943197 0.3850888 0.0000000
0.5493057 0.3814761 0.0000000
0.7045387 0.3778577 0.0000000
0.8488161 0.3742335 0.0000000
0.9827414 0.3706036 0.0000000
1.0000000 0.3669679 0.0000000
0.0000000 0.5394785 0.0000000
0.0731730 0.5358831 0.0000000
0.2276649 0.5322819 0.0000000
0.3824038 0.5286751 0.0000000
0.5373898 0.5250624 0.0000000
0.6926228 0.5214440 0.0000000
0.8385684 0.5178198 0.0000000
0.9724937 0.5141899 0.0000000
1.0000000 0.5105542 0.0000000
0.0000000 0.6832892 0.0000000
0.0612384 0.6796938 0.0000000
0.2157303 0.6760927 0.0000000
0.3704693 0.6724858 0.0000000
0.5254553 0.6688731 0.0000000
0.6806883 0.6652547 0.0000000
0.8283047 0.6616306 0.0000000
0.9622300 0.6580006 0.0000000
1.0000000 0.6543649 0.0000000
0.0000000 0.8206989 0.0000000
0.0492853 0.8176069 0.0000000
0.2037772 0.8145099 0.0000000
0.3585161 0.8114080 0.0000000
0.5135021 0.8083011 0.0000000
0.6687351 0.8051893 0.0000000
0.8180250 0.8020725 0.0000000
0.9519503 0.7989508 0.0000000
1.0000000 0.7958241 0.0000000
0.0000000 0.9447622 0.0000000
0.0373135 0.9416702 0.0000000
0.1918054 0.9385732 0.0000000
0.3465443 0.9354713 0.0000000
0.5015303 0.9323644 0.0000000
0.6567633 0.9292526 0.0000000
0.8077293 0.9261358 0.0000000
0.9416546 0.9230141 0.0000000
1.0000000 0.9198874 0.0000000
0.0000000 1.0000000 0.0000000
0.0253231 1.0000000 0.0000000
0.1798150 1.0000000 0.0000000
0.3345539 1.0000000 0.0000000
0.4895399 1.0000000 0.0000000
0.6447729 1.0000000 0.0000000
0.7974175 1.0000000 0.0000000
0.9313428 1.0000000 0.0000000
1.0000000 1.0000000 0.0000000
0.0000000 0.0000000 0.1124473
0.1195869 0.0000000 0.1088519
0.2740788 0.0000000 0.1052508
0.4288177 0.0000000 0.1016439
0.5838037 0.0000000 0.0980312
0.7390367 0.0000000 0.0944128
0.8784844 0.0000000 0.0907886
1.0000000 0.0000000 0.0871587
1.0000000 0.0000000 0.0835230
0.0000000 0.1082550 0.1005872
0.1077269 0.1046596 0.0969919
0.2622188 0.1010585 0.0933907
0.4169577 0.0974516 0.0897838
0.5719437 0.0938389 0.0861712
0.7271767 0.0902205 0.0825528
0.8682848 0.0865964 0.0789286
1.0000000 0.0829664 0.0752987
1.0000000 0.0793307 0.0716630
0.0000000 0.2513924 0.0887086
0.0958482 0.2477970 0.0851132
0.2503401 0.2441959 0.0815121
0.4050791 0.2405890 0.0779052
0.5600650 0.2369763 0.0742925
0.7152980 0.2333579 0.0706741
0.8580691 0.2297337 0.0670500
0.9919944 0.2261038 0.0634200
1.0000000 0.2224681 0.0597843
0.0000000 0.3947542 0.0768113
0.0839509 0.3911588 0.0732159
0.2384428 0.3875577 0.0696148
0.3931818 0.3839508 0.0660079
0.5481677 0.3803382 0.0623952
0.7034008 0.3767197 0.0587768
0.8478375 0.3730956 0.0551527
0.9817628 0.3694657 0.0515227
1.0000000 0.3658300 0.0478871
0.0000000 0.5383405 0.0648954
0.0720350 0.5347451 0.0613000
0.2265269 0.5311440 0.0576989
0.3812659 0.5275371 0.0540920
0.5362518 0.5239244 0.0504793
0.6914848 0.5203060 0.0468609
0.8375898 0.5166819 0.0432368
0.9715151 0.5130519 0.0396068
1.0000000 0.5094163 0.0359711
0.0000000 0.6821512 0.0529608
0.0601005 0.6785558 0.0493655
0.2145924 0.6749547 0.0457643
0.3693313 0.6713478 0.0421574
0.5243173 0.6677352 0.0385448
0.6795503 0.6641168 0.0349264
0.8273261 0.6604926 0.0313022
0.9612514 0.6568627 0.0276723
1.0000000 0.6532270 0.0240366
0.0000000 0.8197203 0.0410077
0.0481473 0.8166283 0.0374123
0.2026392 0.8135313 0.0338112
0.3573782 0.8104294 0.0302043
0.5123641 0.8073225 0.0265916
0.6675971 0.8042107 0.0229732
0.8170464 0.8010939 0.0193491
0.9509717 0.7979721 0.0157191
1.0000000 0.7948455 0.0120834
0.0000000 0.9437836 0.0290359
0.0361755 0.9406915 0.0254405
0.1906674 0.9375946 0.0218394
0.3454064 0.9344926 0.0182325
0.5003923 0.9313858 0.0146198
0.6556254 0.9282739 0.0110014
0.8067506 0.9251571 0.0073773
0.9406759 0.9220354 0.0037473
1.0000000 0.9189087 0.0001117
0.0000000 1.0000000 0.0170455
0.0241851 1.0000000 0.0134501
0.1786770 1.0000000 0.0098490
0.3334160 1.0000000 0.0062421
0.4884019 1.0000000 0.0026294
0.6436349 1.0000000 0.0000000
0.7964389 1.0000000 0.0000000
0.9303642 1.0000000 0.0000000
1.0000000 1.0000000 0.0000000
0.0000000 0.0000000 0.2586324
0.1184472 0.0000000 0.2550371
0.2729391 0.0000000 0.2514359
0.4276781 0.0000000 0.2478290
0.5826641 0.0000000 0.2442164
0.7378971 0.0000000 0.2405980
0.8775043 0.0000000 0.2369738
1.0000000 0.0000000 0.2333439
1.0000000 0.0000000 0.2297082
0.0000000 0.1071153 0.2467724
0.1065872 0.1035199 0.2431770
0.2610791 0.0999188 0.2395759
0.4158181 0.0963119 0.2359690
0.5708040 0.0926993 0.2323564
0.7260370 0.0890809 0.2287379
0.8673047 0.0854567 0.2251138
1.0000000 0.0818268 0.2214839
1.0000000 0.0781911 0.2178482
0.0000000 0.2502527 0.2348937
0.0947086 0.2466573 0.2312984
0.2492005 0.2430562 0.2276972
0.4039394 0.2394493 0.2240903
0.5589254 0.2358367 0.2204777
0.7141584 0.2322183 0.2168593
0.8570890 0.2285941 0.2132351
0.9910143 0.2249642 0.2096052
1.0000000 0.2213285 0.2059695
0.0000000 0.3936145 0.2229965
0.0828113 0.3900192 0.2194011
0.2373032 0.3864180 0.2158000
0.3920421 0.3828111 0.2121931
0.5470281 0.3791985 0.2085804
0.7022611 0.3755801 0.2049620
0.8468574 0.3719559 0.2013378
0.9807827 0.3683260 0.1977079
1.0000000 0.3646903 0.1940722
0.0000000 0.5372008 0.2110805
0.0708954 0.5336055 0.2074852
0.2253873 0.5300043 0.2038840
0.3801262 0.5263974 0.2002771
0.5351122 0.5227848 0.1966645
0.6903452 0.5191664 0.1930461
0.8366097 0.5155422 0.1894219
0.9705350 0.5119123 0.1857920
1.0000000 0.5082766 0.1821563
0.0000000 0.6810116 0.1991460
0.0589608 0.6774162 0.1955506
0.2134527 0.6738150 0.1919495
0.3681917 0.6702082 0.1883426
0.5231776 0.6665955 0.1847300
0.6784106 0.6629771 0.1811116
0.8263460 0.6593529 0.1774874
0.9602713 0.6557230 0.1738575
1.0000000 0.6520873 0.1702218
0.0000000 0.8187402 0.1871928
0.0470077 0.8156482 0.1835975
0.2014996 0.8125512 0.1799963
0.3562385 0.8094493 0.1763894
0.5112245 0.8063424 0.1727768
0.6664575 0.8032305 0.1691584
0.8160663 0.8001138 0.1655342
0.9499916 0.7969920 0.1619043
1.0000000 0.7938653 0.1582686
0.0000000 0.9428035 0.1752211
0.0350359 0.9397114 0.1716257
0.1895278 0.9366145 0.1680246
0.3442667 0.9335125 0.1644177
0.4992527 0.9304056 0.1608050
0.6544857 0.9272938 0.1571866
0.8057705 0.9241770 0.1535624
0.9396958 0.9210553 0.1499325
1.0000000 0.9179286 0.1462968
0.0000000 1.0000000 0.1632306
0.0230455 1.0000000 0.1596353
0.1775374 1.0000000 0.1560341
0.3322763 1.0000000 0.1524272
0.4872623 1.0000000 0.1488146
0.6424953 1.0000000 0.1451962
0.7954588 1.0000000 0.1415720
0.9293841 1.0000000 0.1379421
1.0000000 1.0000000 0.1343064
0.0000000 0.0000000 0.4050355
0.1173059 0.0000000 0.4014401
0.2717978 0.0000000 0.3978390
0.4265367 0.0000000 0.3942321
0.5815227 0.0000000 0.3906195
0.7367557 0.0000000 0.3870010
0.8765227 0.0000000 0.3833769
1.0000000 0.0000000 0.3797470
1.0000000 0.0000000 0.3761113
0.0000000 0.1059740 0.3931755
0.1054458 0.1023786 0.3895801
0.2599378 0.0987774 0.3859790
0.4146767 0.0951706 0.3823721
0.5696627 0.0915579 0.3787594
0.7248957 0.0879395 0.3751410
0.8663231 0.0843153 0.3715168
1.0000000 0.0806854 0.3678869
1.0000000 0.0770497 0.3642512
0.0000000 0.2491113 0.3812968
0.0935672 0.2455160 0.3777014
0.2480591 0.2419148 0.3741003
0.4027980 0.2383079 0.3704934
0.5577840 0.2346953 0.3668808
0.7130170 0.2310769 0.3632624
0.8561075 0.2274527 0.3596382
0.9900328 0.2238228 0.3560083
1.0000000 0.2201871 0.3523726
0.0000000 0.3924732 0.3693995
0.0816699 0.3888778 0.3658042
0.2361618 0.3852767 0.3622030
0.3909007 0.3816698 0.3585961
0.5458867 0.3780571 0.3549835
0.7011197 0.3744387 0.3513651
0.8458758 0.3708146 0.3477409
0.9798011 0.3671846 0.3441110
1.0000000 0.3635490 0.3404753
0.0000000 0.5360595 0.3574836
0.0697540 0.5324641 0.3538882
0.2242459 0.5288630 0.3502871
0.3789848 0.5252561 0.3466802
0.5339708 0.5216434 0.3430676
0.6892038 0.5180250 0.3394492
0.8356281 0.5144008 0.3358250
0.9695534 0.5107709 0.3321951
1.0000000 0.5071352 0.3285594
0.0000000 0.6798702 0.3455491
0.0578195 0.6762748 0.3419537
0.2123114 0.6726737 0.3383526
0.3670503 0.6690668 0.3347457
0.5220363 0.6654541 0.3311330
0.6772693 0.6618357 0.3275146
0.8253644 0.6582116 0.3238905
0.9592897 0.6545816 0.3202605
1.0000000 0.6509460 0.3166248
0.0000000 0.8177586 0.3335959
0.0458663 0.8146666 0.3300005
0.2003582 0.8115696 0.3263994
0.3550971 0.8084677 0.3227925
0.5100831 0.8053608 0.3191799
0.6653161 0.8022490 0.3155615
0.8150847 0.7991322 0.3119373
0.9490100 0.7960105 0.3083074
1.0000000 0.7928838 0.3046717
0.0000000 0.9418219 0.3216241
0.0338945 0.9387299 0.3180288
0.1883864 0.9356329 0.3144276
0.3431253 0.9325310 0.3108207
0.4981113 0.9294241 0.3072081
0.6533443 0.9263122 0.3035897
0.8047890 0.9231955 0.2999655
0.9387142 0.9200737 0.2963356
1.0000000 0.9169470 0.2926999
0.0000000 1.0000000 0.3096337
0.0219041 1.0000000 0.3060383
0.1763960 1.0000000 0.3024372
0.3311349 1.0000000 0.2988303
0.4861209 1.0000000 0.2952177
0.6413539 1.0000000 0.2915993
0.7944772 1.0000000 0.2879751
0.9284025 1.0000000 0.2843452
1.0000000 1.0000000 0.2807095
0.0000000 0.0000000 0.5516565
0.1161628 0.0000000 0.5480611
0.2706547 0.0000000 0.5444600
0.4253937 0.0000000 0.5408531
0.5803796 0.0000000 0.5372404
0.7356126 0.0000000 0.5336220
0.8755397 0.0000000 0.5299979
1.0000000 0.0000000 0.5263679
1.0000000 0.0000000 0.5227322
0.0000000 0.1048309 0.5397964
0.1043028 0.1012355 0.5362011
0.2587947 0.0976344 0.5325999
0.4135336 0.0940275 0.5289930
0.5685196 0.0904148 0.5253804
0.7237526 0.0867964 0.5217620
0.8653401 0.0831723 0.5181378
0.9992654 0.0795423 0.5145079
1.0000000 0.0759067 0.5108722
0.0000000 0.2479683 0.5279178
0.0924241 0.2443729 0.5243224
0.2469160 0.2407718 0.5207213
0.4016550 0.2371649 0.5171144
0.5566409 0.2335522 0.5135017
0.7118740 0.2299338 0.5098833
0.8551244 0.2263097 0.5062592
0.9890497 0.2226797 0.5026292
1.0000000 0.2190441 0.4989936
0.0000000 0.3913301 0.5160205
0.0805268 0.3877347 0.5124251
0.2350187 0.3841336 0.5088240
0.3897577 0.3805267 0.5052171
0.5447437 0.3769141 0.5016045
0.6999767 0.3732957 0.4979860
0.8448928 0.3696715 0.4943619
0.9788181 0.3660416 0.4907320
1.0000000 0.3624059 0.4870963
0.0000000 0.5349164 0.5041046
0.0686109 0.5313210 0.5005092
0.2231028 0.5277199 0.4969081
0.3778418 0.5241130 0.4933012
0.5328277 0.5205004 0.4896885
0.6880608 0.5168819 0.4860701
0.8346451 0.5132578 0.4824460
0.9685704 0.5096279 0.4788160
1.0000000 0.5059922 0.4751804
0.0000000 0.6787271 0.4921701
0.0566764 0.6751318 0.4885747
0.2111683 0.6715306 0.4849735
0.3659072 0.6679237 0.4813667
0.5208932 0.6643111 0.4777540
0.6761262 0.6606927 0.4741356
0.8243814 0.6570685 0.4705114
0.9583067 0.6534386 0.4668815
1.0000000 0.6498029 0.4632458
0.0000000 0.8167756 0.4802169
0.0447232 0.8136836 0.4766215
0.1992151 0.8105866 0.4730204
0.3539541 0.8074847 0.4694135
0.5089400 0.8043778 0.4658008
0.6641731 0.8012659 0.4621824
0.8141017 0.7981492 0.4585583
0.9480270 0.7950274 0.4549283
1.0000000 0.7919007 0.4512927
0.0000000 0.9408388 0.4682451
0.0327514 0.9377468 0.4646497
0.1872433 0.9346499 0.4610486
0.3419823 0.9315479 0.4574417
0.4969683 0.9284410 0.4538291
0.6522013 0.9253292 0.4502106
0.8038059 0.9222124 0.4465865
0.9377312 0.9190907 0.4429566
1.0000000 0.9159640 0.4393209
0.0000000 1.0000000 0.4562547
0.0207610 1.0000000 0.4526593
0.1752529 1.0000000 0.4490582
0.3299919 1.0000000 0.4454513
0.4849778 1.0000000 0.4418386
0.6402109 1.0000000 0.4382202
0.7934942 1.0000000 0.4345961
0.9274195 1.0000000 0.4309661
1.0000000 1.0000000 0.4273305
0.0000000 0.0000000 0.6984953
0.1150181 0.0000000 0.6949000
0.2695100 0.0000000 0.6912988
0.4242489 0.0000000 0.6876919
0.5792349 0.0000000 0.6840793
0.7344679 0.0000000 0.6804609
0.8745552 0.0000000 0.6768367
1.0000000 0.0000000 0.6732068
1.0000000 0.0000000 0.6695711
0.0000000 0.1036861 0.6866353
0.1031580 0.1000908 0.6830399
0.2576499 0.0964896 0.6794388
0.4123889 0.0928827 0.6758319
0.5673748 0.0892701 0.6722193
0.7226079 0.0856517 0.6686009
0.8643556 0.0820275 0.6649767
0.9982809 0.0783976 0.6613468
1.0000000 0.0747619 0.6577111
0.0000000 0.2468235 0.6747567
0.0912794 0.2432282 0.6711613
0.2457713 0.2396270 0.6675602
0.4005102 0.2360201 0.6639533
0.5554962 0.2324075 0.6603406
0.7107292 0.2287891 0.6567222
0.8541399 0.2251649 0.6530980
0.9880652 0.2215350 0.6494681
1.0000000 0.2178993 0.6458324
0.0000000 0.3901854 0.6628594
0.0793821 0.3865900 0.6592640
0.2338740 0.3829889 0.6556629
0.3886129 0.3793820 0.6520560
0.5435989 0.3757693 0.6484433
0.6988319 0.3721509 0.6448249
0.8439083 0.3685267 0.6412007
0.9778336 0.3648968 0.6375708
1.0000000 0.3612611 0.6339351
0.0000000 0.5337716 0.6509435
0.0674662 0.5301763 0.6473481
0.2219581 0.5265751 0.6437470
0.3766970 0.5229682 0.6401401
0.5316830 0.5193556 0.6365274
0.6869160 0.5157372 0.6329090
0.8336606 0.5121130 0.6292848
0.9675859 0.5084831 0.6256549
1.0000000 0.5048474 0.6220192
0.0000000 0.6775824 0.6390089
0.0555316 0.6739870 0.6354136
0.2100235 0.6703859 0.6318124
0.3647625 0.6667790 0.6282055
0.5197485 0.6631663 0.6245929
0.6749815 0.6595479 0.6209745
0.8233969 0.6559237 0.6173503
0.9573222 0.6522938 0.6137204
1.0000000 0.6486581 0.6100847
0.0000000 0.8157911 0.6270558
0.0435785 0.8126991 0.6234604
0.1980704 0.8096021 0.6198593
0.3528093 0.8065002 0.6162524
0.5077953 0.8033933 0.6126397
0.6630283 0.8002815 0.6090213
0.8131172 0.7971647 0.6053971
0.9470425 0.7940429 0.6017672
1.0000000 0.7909162 0.5981315
0.0000000 0.9398544 0.6150840
0.0316067 0.9367623 0.6114886
0.1860986 0.9336654 0.6078875
0.3408375 0.9305634 0.6042806
0.4958235 0.9274566 0.6006679
0.6510565 0.9243447 0.5970495
0.8028214 0.9212279 0.5934253
0.9367467 0.9181062 0.5897954
1.0000000 0.9149795 0.5861597
0.0000000 1.0000000 0.6030936
0.0196163 1.0000000 0.5994982
0.1741082 1.0000000 0.5958970
0.3288471 1.0000000 0.5922902
0.4838331 1.0000000 0.5886775
0.6390661 1.0000000 0.5850591
0.7925097 1.0000000 0.5814349
0.9264350 1.0000000 0.5778050
1.0000000 1.0000000 0.5741693
0.0000000 0.0000000 0.8363748
0.1138716 0.0000000 0.8332828
0.2683635 0.0000000 0.8301858
0.4231024 0.0000000 0.8270839
0.5780884 0.0000000 0.8239770
0.7333214 0.0000000 0.8208652
0.8735693 0.0000000 0.8177484
1.0000000 0.0000000 0.8146267
1.0000000 0.0000000 0.8115000
0.0000000 0.1025397 0.8261752
0.1020116 0.0989443 0.8230832
0.2565035 0.0953432 0.8199862
0.4112424 0.0917363 0.8168843
0.5662284 0.0881236 0.8137774
0.7214614 0.0845052 0.8106656
0.8633696 0.0808811 0.8075488
0.9972949 0.0772511 0.8044270
1.0000000 0.0736154 0.8013004
0.0000000 0.2456771 0.8159596
0.0901329 0.2420817 0.8128675
0.2446248 0.2384806 0.8097706
0.3993638 0.2348737 0.8066686
0.5543497 0.2312610 0.8035618
0.7095827 0.2276426 0.8004499
0.8531540 0.2240184 0.7973331
0.9870793 0.2203885 0.7942114
1.0000000 0.2167528 0.7910847
0.0000000 0.3890389 0.8057279
0.0782356 0.3854435 0.8026359
0.2327275 0.3818424 0.7995389
0.3874665 0.3782355 0.7964370
0.5424524 0.3746229 0.7933301
0.6976854 0.3710044 0.7902183
0.8429223 0.3673803 0.7871015
0.9768476 0.3637504 0.7839797
1.0000000 0.3601147 0.7808530
0.0000000 0.5326252 0.7954802
0.0663197 0.5290298 0.7923882
0.2208116 0.5254287 0.7892912
0.3755506 0.5218218 0.7861893
0.5305365 0.5182091 0.7830824
0.6857695 0.5145907 0.7799658
0.8326746 0.5109666 0.7763416
0.9665999 0.5073366 0.7727117
1.0000000 0.5037010 0.7690760
0.0000000 0.6764359 0.7852165
0.0543852 0.6728405 0.7821245
0.2088771 0.6692394 0.7788692
0.3636160 0.6656325 0.7752623
0.5186020 0.6620199 0.7716497
0.6738350 0.6584015 0.7680312
0.8224109 0.6547773 0.7644071
0.9563362 0.6511474 0.7607772
1.0000000 0.6475117 0.7571415
0.0000000 0.8148051 0.7741125
0.0424320 0.8117131 0.7705172
0.1969239 0.8086161 0.7669160
0.3516629 0.8055142 0.7633091
0.5066488 0.8024073 0.7596965
0.6618818 0.7992955 0.7560781
0.8121312 0.7961787 0.7524539
0.9460565 0.7930570 0.7488240
1.0000000 0.7899303 0.7451883
0.0000000 0.9388684 0.7621407
0.0304602 0.9357764 0.7585454
0.1849521 0.9326794 0.7549442
0.3396911 0.9295775 0.7513373
0.4946770 0.9264706 0.7477247
0.6499100 0.9233588 0.7441063
0.8018355 0.9202420 0.7404821
0.9357608 0.9171202 0.7368522
1.0000000 0.9139936 0.7332165
0.0000000 1.0000000 0.7501503
0.0184698 1.0000000 0.7465550
0.1729617 1.0000000 0.7429538
0.3277007 1.0000000 0.7393469
0.4826866 1.0000000 0.7357343
0.6379196 1.0000000 0.7321159
0.7915237 1.0000000 0.7284917
0.9254490 1.0000000 0.7248618
1.0000000 1.0000000 0.7212261
0.0000000 0.0000000 0.9630310
0.1127234 0.0000000 0.9599390
0.2672153 0.0000000 0.9568421
0.4219543 0.0000000 0.9537401
0.5769403 0.0000000 0.9506332
0.7321733 0.0000000 0.9475214
0.8725818 0.0000000 0.9444046
1.0000000 0.0000000 0.9412829
1.0000000 0.0000000 0.9381562
0.0000000 0.1013915 0.9528314
0.1008634 0.0977961 0.9497394
0.2553553 0.0941950 0.9466424
0.4100943 0.0905881 0.9435405
0.5650802 0.0869755 0.9404336
0.7203132 0.0833571 0.9373218
0.8623822 0.0797329 0.9342050
0.9963075 0.0761030 0.9310833
1.0000000 0.0724673 0.9279566
0.0000000 0.2445289 0.9426158
0.0889848 0.2409335 0.9395238
0.2434767 0.2373324 0.9364268
0.3982156 0.2337255 0.9333249
0.5532016 0.2301129 0.9302180
0.7084346 0.2264945 0.9271061
0.8521666 0.2228703 0.9239894
0.9860919 0.2192404 0.9208676
1.0000000 0.2156047 0.9177409
0.0000000 0.3878908 0.9323841
0.0770875 0.3842954 0.9292921
0.2315794 0.3806942 0.9261951
0.3863183 0.3770873 0.9230932
0.5413043 0.3734747 0.9199863
0.6965373 0.3698563 0.9168745
0.8419349 0.3662321 0.9137577
0.9758602 0.3626022 0.9106360
1.0000000 0.3589665 0.9075093
0.0000000 0.5314770 0.9221364
0.0651716 0.5278817 0.9190444
0.2196635 0.5242805 0.9159474
0.3744024 0.5206736 0.9128455
0.5293884 0.5170610 0.9097386
0.6846214 0.5134426 0.9066268
0.8316872 0.5098184 0.9035100
0.9656125 0.5061885 0.9003883
1.0000000 0.5025528 0.8972616
0.0000000 0.6752878 0.9118727
0.0532370 0.6716924 0.9087807
0.2077289 0.6680912 0.9056837
0.3624679 0.6644844 0.9025818
0.5174538 0.6608717 0.8994749
0.6726868 0.6572533 0.8963631
0.8214235 0.6536291 0.8932463
0.9553488 0.6499992 0.8901246
1.0000000 0.6463635 0.8869979
0.0000000 0.8138177 0.9015930
0.0412839 0.8107257 0.8985010
0.1957758 0.8076287 0.8954040
0.3505147 0.8045268 0.8923021
0.5055007 0.8014199 0.8891952
0.6607337 0.7983081 0.8860834
0.8111438 0.7951913 0.8829666
0.9450691 0.7920696 0.8798449
1.0000000 0.7889429 0.8767182
0.0000000 0.9378810 0.8912973
0.0293121 0.9347890 0.8882052
0.1838040 0.9316920 0.8851083
0.3385429 0.9285901 0.8820063
0.4935289 0.9254832 0.8788995
0.6487619 0.9223714 0.8757876
0.8008481 0.9192546 0.8726708
0.9347734 0.9161328 0.8695491
1.0000000 0.9130061 0.8664224
0.0000000 1.0000000 0.8809855
0.0173217 1.0000000 0.8778935
0.1718136 1.0000000 0.8747965
0.3265525 1.0000000 0.8716946
0.4815385 1.0000000 0.8685877
0.6367715 1.0000000 0.8654759
0.7905363 1.0000000 0.8623591
0.9244616 1.0000000 0.8592374
1.0000000 1.0000000 0.8561107
0.0000000 0.0000000 1.0000000
0.1115736 0.0000000 1.0000000
0.2660655 0.0000000 1.0000000
0.4208044 0.0000000 1.0000000
0.5757904 0.0000000 1.0000000
0.7310234 0.0000000 1.0000000
0.8715930 0.0000000 1.0000000
1.0000000 0.0000000 1.0000000
1.0000000 0.0000000 1.0000000
0.0000000 0.1002417 1.0000000
0.0997136 0.0966463 1.0000000
0.2542055 0.0930452 1.0000000
0.4089444 0.0894383 1.0000000
0.5639304 0.0858256 1.0000000
0.7191634 0.0822072 1.0000000
0.8613933 0.0785830 1.0000000
0.9953186 0.0749531 1.0000000
1.0000000 0.0713174 1.0000000
0.0000000 0.2433791 1.0000000
0.0878349 0.2397837 1.0000000
0.2423268 0.2361826 1.0000000
0.3970657 0.2325757 1.0000000
0.5520517 0.2289630 1.0000000
0.7072847 0.2253446 1.0000000
0.8511777 0.2217204 1.0000000
0.9851030 0.2180905 1.0000000
1.0000000 0.2144548 1.0000000
0.0000000 0.3867409 1.0000000
0.0759376 0.3831455 1.0000000
0.2304295 0.3795444 1.0000000
0.3851685 0.3759375 1.0000000
0.5401544 0.3723248 1.0000000
0.6953874 0.3687064 1.0000000
0.8409460 0.3650823 1.0000000
0.9748713 0.3614523 1.0000000
1.0000000 0.3578167 1.0000000
0.0000000 0.5303272 1.0000000
0.0640217 0.5267318 1.0000000
0.2185136 0.5231307 1.0000000
0.3732525 0.5195238 1.0000000
0.5282385 0.5159111 1.0000000
0.6834715 0.5122927 1.0000000
0.8306984 0.5086685 1.0000000
0.9646236 0.5050386 1.0000000
1.0000000 0.5014029 1.0000000
0.0000000 0.6741379 1.0000000
0.0520872 0.6705425 1.0000000
0.2065791 0.6669414 1.0000000
0.3613180 0.6633345 1.0000000
0.5163040 0.6597219 1.0000000
0.6715370 0.6561034 1.0000000
0.8204346 0.6524793 1.0000000
0.9543599 0.6488494 1.0000000
1.0000000 0.6452137 1.0000000
0.0000000 0.8128288 1.0000000
0.0401340 0.8097368 1.0000000
0.1946259 0.8066398 1.0000000
0.3493648 0.8035379 1.0000000
0.5043508 0.8004310 1.0000000
0.6595838 0.7973192 1.0000000
0.8101549 0.7942024 1.0000000
0.9440802 0.7910807 1.0000000
1.0000000 0.7879540 1.0000000
0.0000000 0.9368921 1.0000000
0.0281622 0.9338001 1.0000000
0.1826541 0.9307031 1.0000000
0.3373931 0.9276012 1.0000000
0.4923790 0.9244943 1.0000000
0.6476120 0.9213825 1.0000000
0.7998592 0.9182657 0.9995145
0.9337845 0.9151440 0.9963927
1.0000000 0.9120173 0.9932660
0.0000000 1.0000000 1.0000000
0.0161718 1.0000000 1.0000000
0.1706637 1.0000000 1.0000000
0.3254026 1.0000000 0.9985382
0.4803886 1.0000000 0.9954313
0.6356216 1.0000000 0.9923195
0.7895474 1.0000000 0.9892027
0.9234727 1.0000000 0.9860810
1.0000000 1.0000000 0.9829543
