creative/exports/jpo-capcut-kit/09-luts/overcast-grass.cube
TITLE "Let's Pepper · Overcast Grass"
# Apply at 20–40% after exposure and white-balance correction.
LUT_3D_SIZE 5
DOMAIN_MIN 0.0 0.0 0.0
DOMAIN_MAX 1.0 1.0 1.0
0.0000000 0.0000000 0.0000000
0.2752168 0.0000000 0.0000000
0.5849417 0.0000000 0.0000000
0.8794631 0.0000000 0.0000000
1.0000000 0.0000000 0.0000000
0.0000000 0.2525303 0.0000000
0.2514781 0.2453338 0.0000000
0.5612030 0.2381143 0.0000000
0.8590478 0.2308717 0.0000000
1.0000000 0.2236061 0.0000000
0.0000000 0.5394785 0.0000000
0.2276649 0.5322819 0.0000000
0.5373898 0.5250624 0.0000000
0.8385684 0.5178198 0.0000000
1.0000000 0.5105542 0.0000000
0.0000000 0.8206989 0.0000000
0.2037772 0.8145099 0.0000000
0.5135021 0.8083011 0.0000000
0.8180250 0.8020725 0.0000000
1.0000000 0.7958241 0.0000000
0.0000000 1.0000000 0.0000000
0.1798150 1.0000000 0.0000000
0.4895399 1.0000000 0.0000000
0.7974175 1.0000000 0.0000000
1.0000000 1.0000000 0.0000000
0.0000000 0.0000000 0.2586324
0.2729391 0.0000000 0.2514359
0.5826641 0.0000000 0.2442164
0.8775043 0.0000000 0.2369738
1.0000000 0.0000000 0.2297082
0.0000000 0.2502527 0.2348937
0.2492005 0.2430562 0.2276972
0.5589254 0.2358367 0.2204777
0.8570890 0.2285941 0.2132351
1.0000000 0.2213285 0.2059695
0.0000000 0.5372008 0.2110805
0.2253873 0.5300043 0.2038840
0.5351122 0.5227848 0.1966645
0.8366097 0.5155422 0.1894219
1.0000000 0.5082766 0.1821563
0.0000000 0.8187402 0.1871928
0.2014996 0.8125512 0.1799963
0.5112245 0.8063424 0.1727768
0.8160663 0.8001138 0.1655342
1.0000000 0.7938653 0.1582686
0.0000000 1.0000000 0.1632306
0.1775374 1.0000000 0.1560341
0.4872623 1.0000000 0.1488146
0.7954588 1.0000000 0.1415720
1.0000000 1.0000000 0.1343064
0.0000000 0.0000000 0.5516565
0.2706547 0.0000000 0.5444600
0.5803796 0.0000000 0.5372404
0.8755397 0.0000000 0.5299979
1.0000000 0.0000000 0.5227322
0.0000000 0.2479683 0.5279178
0.2469160 0.2407718 0.5207213
0.5566409 0.2335522 0.5135017
0.8551244 0.2263097 0.5062592
1.0000000 0.2190441 0.4989936
0.0000000 0.5349164 0.5041046
0.2231028 0.5277199 0.4969081
0.5328277 0.5205004 0.4896885
0.8346451 0.5132578 0.4824460
1.0000000 0.5059922 0.4751804
0.0000000 0.8167756 0.4802169
0.1992151 0.8105866 0.4730204
0.5089400 0.8043778 0.4658008
0.8141017 0.7981492 0.4585583
1.0000000 0.7919007 0.4512927
0.0000000 1.0000000 0.4562547
0.1752529 1.0000000 0.4490582
0.4849778 1.0000000 0.4418386
0.7934942 1.0000000 0.4345961
1.0000000 1.0000000 0.4273305
0.0000000 0.0000000 0.8363748
0.2683635 0.0000000 0.8301858
0.5780884 0.0000000 0.8239770
0.8735693 0.0000000 0.8177484
1.0000000 0.0000000 0.8115000
0.0000000 0.2456771 0.8159596
0.2446248 0.2384806 0.8097706
0.5543497 0.2312610 0.8035618
0.8531540 0.2240184 0.7973331
1.0000000 0.2167528 0.7910847
0.0000000 0.5326252 0.7954802
0.2208116 0.5254287 0.7892912
0.5305365 0.5182091 0.7830824
0.8326746 0.5109666 0.7763416
1.0000000 0.5037010 0.7690760
0.0000000 0.8148051 0.7741125
0.1969239 0.8086161 0.7669160
0.5066488 0.8024073 0.7596965
0.8121312 0.7961787 0.7524539
1.0000000 0.7899303 0.7451883
0.0000000 1.0000000 0.7501503
0.1729617 1.0000000 0.7429538
0.4826866 1.0000000 0.7357343
0.7915237 1.0000000 0.7284917
1.0000000 1.0000000 0.7212261
0.0000000 0.0000000 1.0000000
0.2660655 0.0000000 1.0000000
0.5757904 0.0000000 1.0000000
0.8715930 0.0000000 1.0000000
1.0000000 0.0000000 1.0000000
0.0000000 0.2433791 1.0000000
0.2423268 0.2361826 1.0000000
0.5520517 0.2289630 1.0000000
0.8511777 0.2217204 1.0000000
1.0000000 0.2144548 1.0000000
0.0000000 0.5303272 1.0000000
0.2185136 0.5231307 1.0000000
0.5282385 0.5159111 1.0000000
0.8306984 0.5086685 1.0000000
1.0000000 0.5014029 1.0000000
0.0000000 0.8128288 1.0000000
0.1946259 0.8066398 1.0000000
0.5043508 0.8004310 1.0000000
0.8101549 0.7942024 1.0000000
1.0000000 0.7879540 1.0000000
0.0000000 1.0000000 1.0000000
0.1706637 1.0000000 1.0000000
0.4803886 1.0000000 0.9954313
0.7895474 1.0000000 0.9892027
1.0000000 1.0000000 0.9829543
