creative/exports/media-kit-v1/capcut/luts/golden-hour-control.cube
TITLE "Let's Pepper · Golden Hour Control"
# Apply at 20–40% after exposure and white-balance correction.
LUT_3D_SIZE 5
DOMAIN_MIN 0.0 0.0 0.0
DOMAIN_MAX 1.0 1.0 1.0
0.0000000 0.0000000 0.0000000
0.2316550 0.0000000 0.0000000
0.4759575 0.0000000 0.0000000
0.7212276 0.0000000 0.0000000
0.9412201 0.0000000 0.0000000
0.0000000 0.2392201 0.0000000
0.2389154 0.2413567 0.0000000
0.4832180 0.2435018 0.0000000
0.7284881 0.2456554 0.0020158
0.9474641 0.2478175 0.0041779
0.0028701 0.4911278 0.0028701
0.2462051 0.4932644 0.0050067
0.4905076 0.4954095 0.0071518
0.7357777 0.4975631 0.0093054
0.9537332 0.4997253 0.0114675
0.0101889 0.7440433 0.0101889
0.2535238 0.7461799 0.0123255
0.4978264 0.7483250 0.0144706
0.7430965 0.7504786 0.0166242
0.9600273 0.7526407 0.0187863
0.0175368 0.9674511 0.0175368
0.2608718 0.9692886 0.0196734
0.5051743 0.9711334 0.0218185
0.7504444 0.9729855 0.0239721
0.9663466 0.9748449 0.0261342
0.0000000 0.0000000 0.2412634
0.2324136 0.0000000 0.2434000
0.4767162 0.0000000 0.2455451
0.7219863 0.0000000 0.2476987
0.9418725 0.0000000 0.2498608
0.0000000 0.2399787 0.2485238
0.2396741 0.2421153 0.2506604
0.4839766 0.2442604 0.2528056
0.7292467 0.2464141 0.2549592
0.9481165 0.2485762 0.2571213
0.0036287 0.4918865 0.2558134
0.2469637 0.4940231 0.2579501
0.4912662 0.4961682 0.2600952
0.7365363 0.4983218 0.2622488
0.9543856 0.5004839 0.2644109
0.0109475 0.7448019 0.2631322
0.2542825 0.7469385 0.2652688
0.4985850 0.7490836 0.2674140
0.7438551 0.7512373 0.2695676
0.9606798 0.7533994 0.2717297
0.0182955 0.9681035 0.2704802
0.2616304 0.9699410 0.2726168
0.5059330 0.9717858 0.2747619
0.7512031 0.9736379 0.2769155
0.9669990 0.9754973 0.2790776
0.0000000 0.0000000 0.4952581
0.2331754 0.0000000 0.4973947
0.4774780 0.0000000 0.4995398
0.7227481 0.0000000 0.5016934
0.9425277 0.0000000 0.5038556
0.0000000 0.2407405 0.5025186
0.2404359 0.2428771 0.5046552
0.4847384 0.2450223 0.5068003
0.7300085 0.2471759 0.5089539
0.9487717 0.2493380 0.5111160
0.0043905 0.4926483 0.5098082
0.2477255 0.4947849 0.5119448
0.4920281 0.4969300 0.5140899
0.7372981 0.4990836 0.5162435
0.9550408 0.5012457 0.5184056
0.0117093 0.7455637 0.5171270
0.2550443 0.7477003 0.5192636
0.4993468 0.7498455 0.5214087
0.7446169 0.7519991 0.5235623
0.9613349 0.7541612 0.5257244
0.0190573 0.9687587 0.5244749
0.2623922 0.9705962 0.5266115
0.5066948 0.9724410 0.5287566
0.7519649 0.9742931 0.5309103
0.9676542 0.9761525 0.5330724
0.0000000 0.0000000 0.7503042
0.2339404 0.0000000 0.7524409
0.4782429 0.0000000 0.7545860
0.7235130 0.0000000 0.7567396
0.9431856 0.0000000 0.7589017
0.0000000 0.2415055 0.7575647
0.2412009 0.2436421 0.7597013
0.4855034 0.2457872 0.7618464
0.7307735 0.2479408 0.7640000
0.9494296 0.2501029 0.7661621
0.0051555 0.4934132 0.7648543
0.2484905 0.4955499 0.7669909
0.4927930 0.4976950 0.7691361
0.7380631 0.4998486 0.7712897
0.9556986 0.5020107 0.7734518
0.0124743 0.7463287 0.7721731
0.2558093 0.7484653 0.7743097
0.5001118 0.7506104 0.7764548
0.7453819 0.7527640 0.7786084
0.9619928 0.7549261 0.7806627
0.0198222 0.9694166 0.7795210
0.2631572 0.9712541 0.7814256
0.5074597 0.9730989 0.7832704
0.7527298 0.9749510 0.7851225
0.9683120 0.9768104 0.7869819
0.0000000 0.0000000 0.9747055
0.2347085 0.0000000 0.9765430
0.4790111 0.0000000 0.9783878
0.7242811 0.0000000 0.9802399
0.9438462 0.0000000 0.9820993
0.0000000 0.2422736 0.9809495
0.2419690 0.2444102 0.9827870
0.4862715 0.2465553 0.9846318
0.7315416 0.2487089 0.9864839
0.9500901 0.2508710 0.9883433
0.0059236 0.4941814 0.9872186
0.2492586 0.4963180 0.9890561
0.4935611 0.4984631 0.9909009
0.7388312 0.5006167 0.9927530
0.9563592 0.5027788 0.9946124
0.0132424 0.7470968 0.9935127
0.2565774 0.7492334 0.9953502
0.5008799 0.7513785 0.9971950
0.7461500 0.7535321 0.9990471
0.9626534 0.7556942 1.0000000
0.0205903 0.9700772 0.9998320
0.2639253 0.9719146 1.0000000
0.5082279 0.9737594 1.0000000
0.7534979 0.9756115 1.0000000
0.9689726 0.9774709 1.0000000
