creative/exports/media-kit-v1/capcut/luts/golden-hour-control.cube
TITLE "Let's Pepper · Golden Hour Control"
# Apply at 20–40% after exposure and white-balance correction.
LUT_3D_SIZE 33
DOMAIN_MIN 0.0 0.0 0.0
DOMAIN_MAX 1.0 1.0 1.0
0.0000000 0.0000000 0.0000000
0.0186840 0.0000000 0.0000000
0.0490630 0.0000000 0.0000000
0.0794572 0.0000000 0.0000000
0.1098665 0.0000000 0.0000000
0.1402910 0.0000000 0.0000000
0.1707305 0.0000000 0.0000000
0.2011852 0.0000000 0.0000000
0.2316550 0.0000000 0.0000000
0.2621399 0.0000000 0.0000000
0.2926399 0.0000000 0.0000000
0.3231550 0.0000000 0.0000000
0.3536853 0.0000000 0.0000000
0.3842307 0.0000000 0.0000000
0.4147912 0.0000000 0.0000000
0.4453668 0.0000000 0.0000000
0.4759575 0.0000000 0.0000000
0.5065634 0.0000000 0.0000000
0.5371843 0.0000000 0.0000000
0.5678204 0.0000000 0.0000000
0.5984716 0.0000000 0.0000000
0.6291379 0.0000000 0.0000000
0.6598194 0.0000000 0.0000000
0.6905159 0.0000000 0.0000000
0.7212276 0.0000000 0.0000000
0.7519544 0.0000000 0.0000000
0.7823188 0.0000000 0.0000000
0.8087699 0.0000000 0.0000000
0.8352339 0.0000000 0.0000000
0.8617110 0.0000000 0.0000000
0.8882010 0.0000000 0.0000000
0.9147041 0.0000000 0.0000000
0.9412201 0.0000000 0.0000000
0.0000000 0.0196274 0.0000000
0.0195899 0.0198940 0.0000000
0.0499690 0.0201608 0.0000000
0.0803632 0.0204276 0.0000000
0.1107725 0.0206946 0.0000000
0.1411969 0.0209618 0.0000000
0.1716365 0.0212291 0.0000000
0.2020912 0.0214965 0.0000000
0.2325609 0.0217640 0.0000000
0.2630458 0.0220317 0.0000000
0.2935459 0.0222995 0.0000000
0.3240610 0.0225674 0.0000000
0.3545913 0.0228355 0.0000000
0.3851366 0.0231037 0.0000000
0.4156971 0.0233721 0.0000000
0.4462727 0.0236405 0.0000000
0.4768635 0.0239091 0.0000000
0.5074693 0.0241779 0.0000000
0.5380903 0.0244467 0.0000000
0.5687264 0.0247157 0.0000000
0.5993776 0.0249849 0.0000000
0.6300439 0.0252541 0.0000000
0.6607253 0.0255235 0.0000000
0.6914219 0.0257931 0.0000000
0.7221336 0.0260627 0.0000000
0.7528604 0.0263325 0.0000000
0.7830979 0.0266025 0.0000000
0.8095490 0.0268725 0.0000000
0.8360130 0.0271427 0.0000000
0.8624901 0.0274131 0.0000000
0.8889801 0.0276835 0.0000000
0.9154832 0.0279541 0.0000000
0.9419992 0.0282248 0.0000000
0.0000000 0.0509505 0.0000000
0.0204963 0.0512172 0.0000000
0.0508754 0.0514839 0.0000000
0.0812696 0.0517508 0.0000000
0.1116789 0.0520178 0.0000000
0.1421034 0.0522849 0.0000000
0.1725429 0.0525522 0.0000000
0.2029976 0.0528196 0.0000000
0.2334674 0.0530872 0.0000000
0.2639523 0.0533548 0.0000000
0.2944523 0.0536226 0.0000000
0.3249674 0.0538906 0.0000000
0.3554977 0.0541587 0.0000000
0.3860431 0.0544269 0.0000000
0.4166035 0.0546952 0.0000000
0.4471792 0.0549637 0.0000000
0.4777699 0.0552323 0.0000000
0.5083757 0.0555010 0.0000000
0.5389967 0.0557699 0.0000000
0.5696328 0.0560389 0.0000000
0.6002840 0.0563080 0.0000000
0.6309503 0.0565773 0.0000000
0.6616317 0.0568467 0.0000000
0.6923283 0.0571162 0.0000000
0.7230400 0.0573859 0.0000000
0.7537668 0.0576557 0.0000000
0.7838775 0.0579256 0.0000000
0.8103285 0.0581957 0.0000000
0.8367926 0.0584659 0.0000000
0.8632696 0.0587362 0.0000000
0.8897597 0.0590067 0.0000000
0.9162627 0.0592773 0.0000000
0.9427788 0.0595480 0.0000000
0.0000000 0.0822894 0.0000000
0.0214032 0.0825560 0.0000000
0.0517823 0.0828228 0.0000000
0.0821765 0.0830897 0.0000000
0.1125858 0.0833567 0.0000000
0.1430102 0.0836238 0.0000000
0.1734498 0.0838911 0.0000000
0.2039044 0.0841585 0.0000000
0.2343742 0.0844260 0.0000000
0.2648591 0.0846937 0.0000000
0.2953592 0.0849615 0.0000000
0.3258743 0.0852295 0.0000000
0.3564046 0.0854975 0.0000000
0.3869499 0.0857657 0.0000000
0.4175104 0.0860341 0.0000000
0.4480860 0.0863026 0.0000000
0.4786768 0.0865712 0.0000000
0.5092826 0.0868399 0.0000000
0.5399036 0.0871088 0.0000000
0.5705397 0.0873778 0.0000000
0.6011909 0.0876469 0.0000000
0.6318572 0.0879162 0.0000000
0.6625386 0.0881856 0.0000000
0.6932352 0.0884551 0.0000000
0.7239469 0.0887248 0.0000000
0.7546736 0.0889946 0.0000000
0.7846574 0.0892645 0.0000000
0.8111084 0.0895346 0.0000000
0.8375725 0.0898048 0.0000000
0.8640495 0.0900751 0.0000000
0.8905396 0.0903455 0.0000000
0.9170426 0.0906161 0.0000000
0.9435587 0.0908869 0.0000000
0.0000000 0.1136441 0.0000000
0.0223105 0.1139107 0.0000000
0.0526896 0.1141774 0.0000000
0.0830838 0.1144443 0.0000000
0.1134931 0.1147113 0.0000000
0.1439176 0.1149785 0.0000000
0.1743571 0.1152457 0.0000000
0.2048118 0.1155131 0.0000000
0.2352816 0.1157807 0.0000000
0.2657665 0.1160484 0.0000000
0.2962665 0.1163162 0.0000000
0.3267816 0.1165841 0.0000000
0.3573119 0.1168522 0.0000000
0.3878573 0.1171204 0.0000000
0.4184178 0.1173887 0.0000000
0.4489934 0.1176572 0.0000000
0.4795841 0.1179258 0.0000000
0.5101899 0.1181945 0.0000000
0.5408109 0.1184634 0.0000000
0.5714470 0.1187324 0.0000000
0.6020982 0.1190015 0.0000000
0.6327645 0.1192708 0.0000000
0.6634460 0.1195402 0.0000000
0.6941425 0.1198097 0.0000000
0.7248542 0.1200794 0.0000000
0.7555810 0.1203492 0.0000000
0.7854377 0.1206191 0.0000000
0.8118887 0.1208892 0.0000000
0.8383528 0.1211594 0.0000000
0.8648298 0.1214297 0.0000000
0.8913199 0.1217002 0.0000027
0.9178229 0.1219708 0.0002733
0.9443390 0.1222415 0.0005440
0.0000000 0.1450144 0.0000000
0.0232183 0.1452811 0.0000000
0.0535974 0.1455478 0.0000000
0.0839916 0.1458147 0.0000000
0.1144009 0.1460817 0.0000000
0.1448253 0.1463488 0.0000000
0.1752649 0.1466161 0.0000000
0.2057196 0.1468835 0.0000000
0.2361893 0.1471511 0.0000000
0.2666743 0.1474187 0.0000000
0.2971743 0.1476865 0.0000000
0.3276894 0.1479545 0.0000000
0.3582197 0.1482226 0.0000000
0.3887650 0.1484908 0.0000000
0.4193255 0.1487591 0.0000000
0.4499012 0.1490276 0.0000000
0.4804919 0.1492962 0.0000000
0.5110977 0.1495649 0.0000000
0.5417187 0.1498338 0.0000000
0.5723548 0.1501028 0.0000000
0.6030060 0.1503719 0.0000000
0.6336723 0.1506412 0.0000000
0.6643537 0.1509106 0.0000000
0.6950503 0.1511801 0.0000000
0.7257620 0.1514498 0.0000000
0.7564888 0.1517196 0.0000000
0.7862184 0.1519895 0.0000000
0.8126694 0.1522596 0.0000995
0.8391335 0.1525298 0.0003697
0.8656105 0.1528001 0.0006400
0.8921006 0.1530706 0.0009105
0.9186036 0.1533412 0.0011811
0.9451197 0.1536119 0.0014518
0.0000000 0.1764006 0.0000000
0.0241266 0.1766672 0.0000000
0.0545056 0.1769339 0.0000000
0.0848998 0.1772008 0.0000000
0.1153092 0.1774678 0.0000000
0.1457336 0.1777350 0.0000000
0.1761731 0.1780022 0.0000000
0.2066278 0.1782696 0.0000000
0.2370976 0.1785372 0.0000000
0.2675825 0.1788049 0.0000000
0.2980825 0.1790727 0.0000000
0.3285977 0.1793406 0.0000000
0.3591279 0.1796087 0.0000000
0.3896733 0.1798769 0.0000000
0.4202338 0.1801452 0.0000000
0.4508094 0.1804137 0.0000000
0.4814001 0.1806823 0.0000000
0.5120060 0.1809510 0.0000000
0.5426269 0.1812199 0.0000000
0.5732630 0.1814889 0.0000000
0.6039142 0.1817580 0.0000000
0.6345805 0.1820273 0.0000000
0.6652620 0.1822967 0.0000000
0.6959585 0.1825662 0.0000000
0.7266702 0.1828359 0.0001979
0.7573970 0.1831057 0.0004677
0.7869995 0.1833756 0.0007377
0.8134505 0.1836457 0.0010077
0.8399146 0.1839159 0.0012779
0.8663916 0.1841862 0.0015483
0.8928816 0.1844567 0.0018187
0.9193847 0.1847273 0.0020893
0.9459008 0.1849980 0.0023600
0.0000000 0.2078024 0.0000000
0.0250353 0.2080691 0.0000000
0.0554143 0.2083358 0.0000000
0.0858085 0.2086027 0.0000000
0.1162179 0.2088697 0.0000000
0.1466423 0.2091368 0.0000000
0.1770818 0.2094041 0.0000000
0.2075365 0.2096715 0.0000000
0.2380063 0.2099391 0.0000000
0.2684912 0.2102067 0.0000000
0.2989912 0.2104745 0.0000000
0.3295063 0.2107425 0.0000000
0.3600366 0.2110106 0.0000000
0.3905820 0.2112788 0.0000000
0.4211425 0.2115471 0.0000000
0.4517181 0.2118156 0.0000000
0.4823088 0.2120842 0.0000000
0.5129147 0.2123529 0.0000000
0.5435356 0.2126218 0.0000000
0.5741717 0.2128908 0.0000000
0.6048229 0.2131599 0.0000288
0.6354892 0.2134292 0.0002980
0.6661707 0.2136986 0.0005674
0.6968672 0.2139681 0.0008370
0.7275789 0.2142378 0.0011066
0.7583057 0.2145076 0.0013764
0.7877809 0.2147775 0.0016464
0.8142320 0.2150476 0.0019164
0.8406960 0.2153178 0.0021866
0.8671731 0.2155881 0.0024570
0.8936631 0.2158586 0.0027274
0.9201662 0.2161292 0.0029980
0.9466822 0.2163999 0.0032687
0.0000000 0.2392201 0.0000000
0.0259444 0.2394867 0.0000000
0.0563235 0.2397534 0.0000000
0.0867177 0.2400203 0.0000000
0.1171270 0.2402873 0.0000000
0.1475514 0.2405545 0.0000000
0.1779910 0.2408217 0.0000000
0.2084457 0.2410891 0.0000000
0.2389154 0.2413567 0.0000000
0.2694003 0.2416244 0.0000000
0.2999004 0.2418922 0.0000000
0.3304155 0.2421601 0.0000000
0.3609458 0.2424282 0.0000000
0.3914911 0.2426964 0.0000000
0.4220516 0.2429647 0.0000000
0.4526272 0.2432332 0.0000000
0.4832180 0.2435018 0.0000000
0.5138238 0.2437705 0.0001309
0.5444448 0.2440394 0.0003998
0.5750809 0.2443084 0.0006688
0.6057321 0.2445775 0.0009379
0.6363984 0.2448468 0.0012072
0.6670798 0.2451162 0.0014766
0.6977764 0.2453857 0.0017461
0.7284881 0.2456554 0.0020158
0.7592148 0.2459252 0.0022856
0.7885628 0.2461951 0.0025555
0.8150139 0.2464652 0.0028256
0.8414779 0.2467354 0.0030958
0.8679550 0.2470057 0.0033661
0.8944450 0.2472762 0.0036366
0.9209480 0.2475468 0.0039072
0.9474641 0.2478175 0.0041779
0.0000000 0.2706534 0.0000000
0.0268540 0.2709200 0.0000000
0.0572331 0.2711868 0.0000000
0.0876273 0.2714537 0.0000000
0.1180366 0.2717207 0.0000000
0.1484610 0.2719878 0.0000000
0.1789006 0.2722551 0.0000000
0.2093553 0.2725225 0.0000000
0.2398250 0.2727900 0.0000000
0.2703099 0.2730577 0.0000000
0.3008100 0.2733255 0.0000000
0.3313251 0.2735935 0.0000000
0.3618554 0.2738615 0.0000000
0.3924007 0.2741297 0.0000000
0.4229612 0.2743981 0.0002347
0.4535368 0.2746665 0.0005032
0.4841276 0.2749351 0.0007718
0.5147334 0.2752039 0.0010405
0.5453544 0.2754728 0.0013094
0.5759905 0.2757418 0.0015784
0.6066417 0.2760109 0.0018475
0.6373080 0.2762802 0.0021168
0.6679894 0.2765496 0.0023862
0.6986860 0.2768191 0.0026557
0.7293977 0.2770888 0.0029254
0.7601245 0.2773586 0.0031952
0.7893451 0.2776285 0.0034651
0.8157961 0.2778985 0.0037352
0.8422602 0.2781687 0.0040054
0.8687372 0.2784391 0.0042757
0.8952273 0.2787095 0.0045462
0.9217303 0.2789801 0.0048168
0.9482464 0.2792509 0.0050875
0.0000000 0.3021025 0.0000000
0.0277641 0.3023691 0.0000000
0.0581432 0.3026359 0.0000000
0.0885374 0.3029028 0.0000000
0.1189467 0.3031698 0.0000000
0.1493711 0.3034369 0.0000000
0.1798107 0.3037042 0.0000000
0.2102653 0.3039716 0.0000000
0.2407351 0.3042391 0.0000000
0.2712200 0.3045068 0.0000000
0.3017200 0.3047746 0.0000722
0.3322352 0.3050426 0.0003402
0.3627654 0.3053106 0.0006082
0.3933108 0.3055788 0.0008764
0.4238713 0.3058472 0.0011448
0.4544469 0.3061157 0.0014133
0.4850376 0.3063843 0.0016819
0.5156435 0.3066530 0.0019506
0.5462645 0.3069219 0.0022195
0.5769005 0.3071909 0.0024885
0.6075517 0.3074600 0.0027576
0.6382181 0.3077293 0.0030269
0.6688995 0.3079987 0.0032963
0.6995961 0.3082682 0.0035658
0.7303077 0.3085379 0.0038355
0.7610345 0.3088077 0.0041053
0.7901277 0.3090776 0.0043752
0.8165788 0.3093477 0.0046453
0.8430428 0.3096179 0.0049155
0.8695199 0.3098882 0.0051858
0.8960099 0.3101586 0.0054562
0.9225130 0.3104292 0.0057268
0.9490290 0.3107000 0.0059976
0.0000000 0.3335674 0.0000000
0.0286746 0.3338340 0.0000000
0.0590537 0.3341007 0.0000000
0.0894479 0.3343676 0.0000000
0.1198572 0.3346346 0.0000000
0.1502816 0.3349018 0.0000000
0.1807212 0.3351690 0.0000000
0.2111758 0.3354365 0.0001797
0.2416456 0.3357040 0.0004473
0.2721305 0.3359717 0.0007149
0.3026306 0.3362395 0.0009827
0.3331457 0.3365074 0.0012507
0.3636760 0.3367755 0.0015188
0.3942213 0.3370437 0.0017870
0.4247818 0.3373120 0.0020553
0.4553574 0.3375805 0.0023238
0.4859482 0.3378491 0.0025924
0.5165540 0.3381178 0.0028611
0.5471750 0.3383867 0.0031300
0.5778111 0.3386557 0.0033990
0.6084623 0.3389248 0.0036681
0.6391286 0.3391941 0.0039374
0.6698100 0.3394635 0.0042068
0.7005066 0.3397330 0.0044763
0.7312182 0.3400027 0.0047460
0.7619450 0.3402725 0.0050158
0.7909108 0.3405424 0.0052857
0.8173618 0.3408125 0.0055558
0.8438259 0.3410827 0.0058260
0.8703029 0.3413530 0.0060963
0.8967930 0.3416235 0.0063668
0.9232960 0.3418941 0.0066374
0.9498121 0.3421648 0.0069081
0.0000000 0.3650480 0.0000000
0.0295856 0.3653146 0.0000000
0.0599647 0.3655813 0.0000000
0.0903589 0.3658482 0.0000219
0.1207682 0.3661152 0.0002889
0.1511926 0.3663824 0.0005560
0.1816322 0.3666496 0.0008233
0.2120868 0.3669171 0.0010907
0.2425566 0.3671846 0.0013582
0.2730415 0.3674523 0.0016259
0.3035415 0.3677201 0.0018937
0.3340567 0.3679880 0.0021617
0.3645869 0.3682561 0.0024297
0.3951323 0.3685243 0.0026979
0.4256928 0.3687926 0.0029663
0.4562684 0.3690611 0.0032347
0.4868591 0.3693297 0.0035034
0.5174650 0.3695984 0.0037721
0.5480859 0.3698673 0.0040410
0.5787220 0.3701363 0.0043100
0.6093732 0.3704054 0.0045791
0.6400396 0.3706747 0.0048484
0.6707210 0.3709441 0.0051178
0.7014175 0.3712136 0.0053873
0.7321292 0.3714833 0.0056570
0.7628560 0.3717531 0.0059268
0.7916942 0.3720230 0.0061967
0.8181453 0.3722931 0.0064668
0.8446093 0.3725633 0.0067369
0.8710864 0.3728336 0.0070073
0.8975764 0.3731041 0.0072777
0.9240795 0.3733747 0.0075483
0.9505955 0.3736454 0.0078191
0.0001331 0.3965443 0.0001331
0.0304970 0.3968109 0.0003997
0.0608761 0.3970777 0.0006664
0.0912703 0.3973446 0.0009333
0.1216796 0.3976116 0.0012003
0.1521040 0.3978787 0.0014674
0.1825436 0.3981460 0.0017347
0.2129982 0.3984134 0.0020021
0.2434680 0.3986809 0.0022697
0.2739529 0.3989486 0.0025373
0.3044530 0.3992164 0.0028052
0.3349681 0.3994844 0.0030731
0.3654984 0.3997524 0.0033412
0.3960437 0.4000206 0.0036094
0.4266042 0.4002890 0.0038777
0.4571798 0.4005574 0.0041462
0.4877706 0.4008260 0.0044148
0.5183764 0.4010948 0.0046835
0.5489974 0.4013637 0.0049524
0.5796335 0.4016327 0.0052214
0.6102847 0.4019018 0.0054905
0.6409510 0.4021711 0.0057598
0.6716324 0.4024405 0.0060292
0.7023290 0.4027100 0.0062987
0.7330407 0.4029797 0.0065684
0.7637674 0.4032495 0.0068382
0.7924780 0.4035194 0.0071081
0.8189291 0.4037894 0.0073782
0.8453931 0.4040596 0.0076484
0.8718702 0.4043300 0.0079187
0.8983602 0.4046004 0.0081892
0.9248633 0.4048710 0.0084598
0.9513793 0.4051418 0.0087305
0.0010449 0.4280564 0.0010449
0.0314089 0.4283230 0.0013116
0.0617880 0.4285898 0.0015783
0.0921822 0.4288566 0.0018452
0.1225915 0.4291237 0.0021122
0.1530159 0.4293908 0.0023793
0.1834555 0.4296581 0.0026466
0.2139101 0.4299255 0.0029140
0.2443799 0.4301930 0.0031816
0.2748648 0.4304607 0.0034492
0.3053648 0.4307285 0.0037170
0.3358800 0.4309964 0.0039850
0.3664102 0.4312645 0.0042531
0.3969556 0.4315327 0.0045213
0.4275161 0.4318011 0.0047896
0.4580917 0.4320695 0.0050581
0.4886825 0.4323381 0.0053267
0.5192883 0.4326069 0.0055954
0.5499093 0.4328757 0.0058643
0.5805453 0.4331447 0.0061333
0.6111966 0.4334139 0.0064024
0.6418629 0.4336831 0.0066717
0.6725443 0.4339525 0.0069411
0.7032409 0.4342221 0.0072106
0.7339525 0.4344917 0.0074803
0.7646793 0.4347615 0.0077501
0.7932623 0.4350315 0.0080200
0.8197133 0.4353015 0.0082901
0.8461774 0.4355717 0.0085603
0.8726544 0.4358421 0.0088306
0.8991445 0.4361125 0.0091011
0.9256475 0.4363831 0.0093717
0.9521636 0.4366538 0.0096424
0.0019573 0.4595842 0.0019573
0.0323212 0.4598509 0.0022239
0.0627003 0.4601176 0.0024906
0.0930945 0.4603845 0.0027575
0.1235038 0.4606515 0.0030245
0.1539283 0.4609186 0.0032917
0.1843678 0.4611859 0.0035589
0.2148225 0.4614533 0.0038264
0.2452923 0.4617209 0.0040939
0.2757772 0.4619885 0.0043616
0.3062772 0.4622563 0.0046294
0.3367923 0.4625243 0.0048973
0.3673226 0.4627923 0.0051654
0.3978680 0.4630606 0.0054336
0.4284285 0.4633289 0.0057019
0.4590041 0.4635974 0.0059704
0.4895948 0.4638660 0.0062390
0.5202006 0.4641347 0.0065077
0.5508216 0.4644036 0.0067766
0.5814577 0.4646726 0.0070456
0.6121089 0.4649417 0.0073148
0.6427752 0.4652110 0.0075840
0.6734567 0.4654804 0.0078534
0.7041532 0.4657499 0.0081230
0.7348649 0.4660196 0.0083926
0.7655917 0.4662894 0.0086624
0.7940469 0.4665593 0.0089323
0.8204979 0.4668294 0.0092024
0.8469620 0.4670996 0.0094726
0.8734390 0.4673699 0.0097429
0.8999291 0.4676404 0.0100134
0.9264321 0.4679109 0.0102840
0.9529482 0.4681817 0.0105547
0.0028701 0.4911278 0.0028701
0.0332340 0.4913944 0.0031367
0.0636131 0.4916612 0.0034034
0.0940073 0.4919281 0.0036703
0.1244166 0.4921951 0.0039373
0.1548411 0.4924622 0.0042045
0.1852806 0.4927295 0.0044717
0.2157353 0.4929969 0.0047392
0.2462051 0.4932644 0.0050067
0.2766900 0.4935321 0.0052744
0.3071900 0.4937999 0.0055422
0.3377051 0.4940679 0.0058101
0.3682354 0.4943359 0.0060782
0.3987808 0.4946041 0.0063464
0.4293412 0.4948725 0.0066147
0.4599169 0.4951409 0.0068832
0.4905076 0.4954095 0.0071518
0.5211134 0.4956783 0.0074205
0.5517344 0.4959471 0.0076894
0.5823705 0.4962161 0.0079584
0.6130217 0.4964853 0.0082275
0.6436880 0.4967546 0.0084968
0.6743694 0.4970240 0.0087662
0.7050660 0.4972935 0.0090357
0.7357777 0.4975631 0.0093054
0.7665045 0.4978329 0.0095752
0.7948319 0.4981029 0.0098451
0.8212829 0.4983729 0.0101152
0.8477470 0.4986431 0.0103854
0.8742240 0.4989135 0.0106557
0.9007141 0.4991839 0.0109262
0.9272171 0.4994545 0.0111968
0.9537332 0.4997253 0.0114675
0.0037833 0.5226871 0.0037833
0.0341473 0.5229538 0.0040499
0.0645264 0.5232205 0.0043167
0.0949206 0.5234874 0.0045836
0.1253299 0.5237544 0.0048506
0.1557543 0.5240215 0.0051177
0.1861939 0.5242888 0.0053850
0.2166485 0.5245562 0.0056524
0.2471183 0.5248238 0.0059199
0.2776032 0.5250914 0.0061876
0.3081032 0.5253592 0.0064554
0.3386184 0.5256272 0.0067234
0.3691486 0.5258952 0.0069914
0.3996940 0.5261635 0.0072596
0.4302545 0.5264318 0.0075280
0.4608301 0.5267003 0.0077965
0.4914208 0.5269689 0.0080651
0.5220267 0.5272376 0.0083338
0.5526477 0.5275065 0.0086027
0.5832837 0.5277755 0.0088717
0.6139349 0.5280446 0.0091408
0.6446013 0.5283139 0.0094101
0.6752827 0.5285833 0.0096795
0.7059793 0.5288528 0.0099490
0.7366909 0.5291225 0.0102187
0.7674177 0.5293923 0.0104885
0.7956173 0.5296622 0.0107584
0.8220683 0.5299323 0.0110285
0.8485324 0.5302025 0.0112987
0.8750094 0.5304728 0.0115690
0.9014995 0.5307433 0.0118394
0.9280025 0.5310138 0.0121100
0.9545186 0.5312846 0.0123808
0.0046970 0.5542622 0.0046970
0.0350610 0.5545288 0.0049637
0.0654401 0.5547956 0.0052304
0.0958343 0.5550624 0.0054973
0.1262436 0.5553295 0.0057643
0.1566680 0.5555966 0.0060314
0.1871076 0.5558639 0.0062987
0.2175622 0.5561313 0.0065661
0.2480320 0.5563988 0.0068337
0.2785169 0.5566665 0.0071013
0.3090169 0.5569343 0.0073691
0.3395321 0.5572022 0.0076371
0.3700623 0.5574703 0.0079052
0.4006077 0.5577385 0.0081734
0.4311682 0.5580069 0.0084417
0.4617438 0.5582753 0.0087102
0.4923346 0.5585439 0.0089788
0.5229404 0.5588127 0.0092475
0.5535614 0.5590815 0.0095164
0.5841974 0.5593505 0.0097854
0.6148487 0.5596197 0.0100545
0.6455150 0.5598889 0.0103238
0.6761964 0.5601583 0.0105932
0.7068930 0.5604279 0.0108627
0.7376046 0.5606975 0.0111324
0.7683314 0.5609673 0.0114022
0.7964031 0.5612373 0.0116721
0.8228541 0.5615073 0.0119422
0.8493182 0.5617775 0.0122124
0.8757952 0.5620479 0.0124827
0.9022853 0.5623183 0.0127532
0.9287883 0.5625889 0.0130238
0.9553044 0.5628596 0.0132945
0.0056112 0.5858530 0.0056112
0.0359752 0.5861196 0.0058778
0.0663542 0.5863864 0.0061446
0.0967484 0.5866533 0.0064114
0.1271578 0.5869203 0.0066785
0.1575822 0.5871874 0.0069456
0.1880217 0.5874547 0.0072129
0.2184764 0.5877221 0.0074803
0.2489462 0.5879896 0.0077478
0.2794311 0.5882573 0.0080155
0.3099311 0.5885251 0.0082833
0.3404462 0.5887931 0.0085512
0.3709765 0.5890611 0.0088193
0.4015219 0.5893293 0.0090875
0.4320824 0.5895977 0.0093559
0.4626580 0.5898661 0.0096243
0.4932487 0.5901347 0.0098929
0.5238546 0.5904035 0.0101617
0.5544755 0.5906724 0.0104305
0.5851116 0.5909414 0.0106995
0.6157628 0.5912105 0.0109687
0.6464291 0.5914798 0.0112379
0.6771106 0.5917492 0.0115073
0.7078071 0.5920187 0.0117769
0.7385188 0.5922884 0.0120465
0.7692456 0.5925582 0.0123163
0.7971893 0.5928281 0.0125863
0.8236403 0.5930981 0.0128563
0.8501043 0.5933683 0.0131265
0.8765814 0.5936387 0.0133969
0.9030714 0.5939091 0.0136673
0.9295745 0.5941797 0.0139379
0.9560905 0.5944505 0.0142086
0.0065258 0.6174596 0.0065258
0.0368898 0.6177262 0.0067924
0.0672689 0.6179929 0.0070592
0.0976631 0.6182598 0.0073261
0.1280724 0.6185268 0.0075931
0.1584968 0.6187940 0.0078602
0.1889364 0.6190612 0.0081275
0.2193910 0.6193287 0.0083949
0.2498608 0.6195962 0.0086624
0.2803457 0.6198639 0.0089301
0.3108457 0.6201317 0.0091979
0.3413609 0.6203996 0.0094659
0.3718911 0.6206677 0.0097339
0.4024365 0.6209359 0.0100021
0.4329970 0.6212042 0.0102705
0.4635726 0.6214727 0.0105389
0.4941633 0.6217413 0.0108076
0.5247692 0.6220100 0.0110763
0.5553901 0.6222789 0.0113452
0.5860262 0.6225479 0.0116142
0.6166774 0.6228170 0.0118833
0.6473438 0.6230863 0.0121526
0.6780252 0.6233557 0.0124220
0.7087217 0.6236252 0.0126915
0.7394334 0.6238949 0.0129612
0.7701602 0.6241647 0.0132310
0.7979758 0.6244346 0.0135009
0.8244269 0.6247047 0.0137710
0.8508909 0.6249749 0.0140411
0.8773680 0.6252452 0.0143115
0.9038580 0.6255157 0.0145819
0.9303611 0.6257863 0.0148525
0.9568771 0.6260570 0.0151233
0.0074409 0.6490819 0.0074409
0.0378049 0.6493485 0.0077075
0.0681839 0.6496152 0.0079743
0.0985781 0.6498821 0.0082411
0.1289874 0.6501491 0.0085081
0.1594119 0.6504163 0.0087753
0.1898514 0.6506835 0.0090426
0.2203061 0.6509510 0.0093100
0.2507759 0.6512185 0.0095775
0.2812608 0.6514862 0.0098452
0.3117608 0.6517540 0.0101130
0.3422759 0.6520219 0.0103809
0.3728062 0.6522900 0.0106490
0.4033516 0.6525582 0.0109172
0.4339121 0.6528265 0.0111856
0.4644877 0.6530950 0.0114540
0.4950784 0.6533636 0.0117226
0.5256843 0.6536323 0.0119914
0.5563052 0.6539012 0.0122602
0.5869413 0.6541702 0.0125292
0.6175925 0.6544393 0.0127984
0.6482588 0.6547086 0.0130676
0.6789403 0.6549780 0.0133370
0.7096368 0.6552475 0.0136066
0.7403485 0.6555172 0.0138762
0.7710753 0.6557870 0.0141460
0.7987628 0.6560569 0.0144160
0.8252138 0.6563270 0.0146860
0.8516779 0.6565972 0.0149562
0.8781549 0.6568675 0.0152266
0.9046450 0.6571380 0.0154970
0.9311480 0.6574086 0.0157676
0.9576641 0.6576793 0.0160383
0.0083564 0.6807199 0.0083564
0.0387204 0.6809865 0.0086230
0.0690995 0.6812533 0.0088898
0.0994937 0.6815202 0.0091567
0.1299030 0.6817872 0.0094237
0.1603274 0.6820543 0.0096908
0.1907670 0.6823216 0.0099581
0.2212216 0.6825890 0.0102255
0.2516914 0.6828565 0.0104930
0.2821763 0.6831242 0.0107607
0.3126763 0.6833920 0.0110285
0.3431915 0.6836600 0.0112965
0.3737217 0.6839280 0.0115645
0.4042671 0.6841962 0.0118327
0.4348276 0.6844646 0.0121011
0.4654032 0.6847331 0.0123696
0.4959939 0.6850017 0.0126382
0.5265998 0.6852704 0.0129069
0.5572208 0.6855393 0.0131758
0.5878568 0.6858083 0.0134448
0.6185080 0.6860774 0.0137139
0.6491744 0.6863467 0.0139832
0.6798558 0.6866161 0.0142526
0.7105524 0.6868856 0.0145221
0.7412640 0.6871553 0.0147918
0.7719908 0.6874251 0.0150616
0.7995501 0.6876950 0.0153315
0.8260012 0.6879651 0.0156016
0.8524652 0.6882353 0.0158718
0.8789423 0.6885056 0.0161421
0.9054323 0.6887760 0.0164125
0.9319354 0.6890466 0.0166831
0.9584514 0.6893174 0.0169539
0.0092724 0.7123737 0.0092724
0.0396364 0.7126403 0.0095390
0.0700155 0.7129071 0.0098058
0.1004097 0.7131740 0.0100727
0.1308190 0.7134410 0.0103397
0.1612434 0.7137081 0.0106068
0.1916829 0.7139754 0.0108741
0.2221376 0.7142428 0.0111415
0.2526074 0.7145103 0.0114090
0.2830923 0.7147780 0.0116767
0.3135923 0.7150458 0.0119445
0.3441075 0.7153138 0.0122125
0.3746377 0.7155818 0.0124805
0.4051831 0.7158500 0.0127487
0.4357436 0.7161184 0.0130171
0.4663192 0.7163868 0.0132855
0.4969099 0.7166555 0.0135541
0.5275158 0.7169242 0.0138229
0.5581367 0.7171931 0.0140918
0.5887728 0.7174621 0.0143608
0.6194240 0.7177312 0.0146299
0.6500903 0.7180005 0.0148992
0.6807718 0.7182699 0.0151686
0.7114683 0.7185394 0.0154381
0.7421800 0.7188091 0.0157078
0.7729068 0.7190789 0.0159776
0.8003379 0.7193488 0.0162475
0.8267889 0.7196188 0.0165175
0.8532530 0.7198890 0.0167877
0.8797300 0.7201594 0.0170581
0.9062201 0.7204298 0.0173285
0.9327231 0.7207004 0.0175991
0.9592392 0.7209712 0.0178699
0.0101889 0.7440433 0.0101889
0.0405528 0.7443099 0.0104555
