creative/exports/media-kit-v1/capcut/luts/golden-hour-control.cube
TITLE "Let's Pepper · Golden Hour Control"
# Apply at 20–40% after exposure and white-balance correction.
LUT_3D_SIZE 9
DOMAIN_MIN 0.0 0.0 0.0
DOMAIN_MAX 1.0 1.0 1.0
0.0000000 0.0000000 0.0000000
0.1098665 0.0000000 0.0000000
0.2316550 0.0000000 0.0000000
0.3536853 0.0000000 0.0000000
0.4759575 0.0000000 0.0000000
0.5984716 0.0000000 0.0000000
0.7212276 0.0000000 0.0000000
0.8352339 0.0000000 0.0000000
0.9412201 0.0000000 0.0000000
0.0000000 0.1136441 0.0000000
0.1134931 0.1147113 0.0000000
0.2352816 0.1157807 0.0000000
0.3573119 0.1168522 0.0000000
0.4795841 0.1179258 0.0000000
0.6020982 0.1190015 0.0000000
0.7248542 0.1200794 0.0000000
0.8383528 0.1211594 0.0000000
0.9443390 0.1222415 0.0005440
0.0000000 0.2392201 0.0000000
0.1171270 0.2402873 0.0000000
0.2389154 0.2413567 0.0000000
0.3609458 0.2424282 0.0000000
0.4832180 0.2435018 0.0000000
0.6057321 0.2445775 0.0009379
0.7284881 0.2456554 0.0020158
0.8414779 0.2467354 0.0030958
0.9474641 0.2478175 0.0041779
0.0000000 0.3650480 0.0000000
0.1207682 0.3661152 0.0002889
0.2425566 0.3671846 0.0013582
0.3645869 0.3682561 0.0024297
0.4868591 0.3693297 0.0035034
0.6093732 0.3704054 0.0045791
0.7321292 0.3714833 0.0056570
0.8446093 0.3725633 0.0067369
0.9505955 0.3736454 0.0078191
0.0028701 0.4911278 0.0028701
0.1244166 0.4921951 0.0039373
0.2462051 0.4932644 0.0050067
0.3682354 0.4943359 0.0060782
0.4905076 0.4954095 0.0071518
0.6130217 0.4964853 0.0082275
0.7357777 0.4975631 0.0093054
0.8477470 0.4986431 0.0103854
0.9537332 0.4997253 0.0114675
0.0065258 0.6174596 0.0065258
0.1280724 0.6185268 0.0075931
0.2498608 0.6195962 0.0086624
0.3718911 0.6206677 0.0097339
0.4941633 0.6217413 0.0108076
0.6166774 0.6228170 0.0118833
0.7394334 0.6238949 0.0129612
0.8508909 0.6249749 0.0140411
0.9568771 0.6260570 0.0151233
0.0101889 0.7440433 0.0101889
0.1317354 0.7451105 0.0112561
0.2535238 0.7461799 0.0123255
0.3755542 0.7472514 0.0133970
0.4978264 0.7483250 0.0144706
0.6203405 0.7494007 0.0155463
0.7430965 0.7504786 0.0166242
0.8540411 0.7515586 0.0177042
0.9600273 0.7526407 0.0187863
0.0138592 0.8581558 0.0138592
0.1354057 0.8590737 0.0149264
0.2571942 0.8599933 0.0159958
0.3792245 0.8609148 0.0170673
0.5014967 0.8618381 0.0181409
0.6240108 0.8627633 0.0192167
0.7467668 0.8636902 0.0202945
0.8571976 0.8646190 0.0213745
0.9631838 0.8655496 0.0224566
0.0175368 0.9674511 0.0175368
0.1390833 0.9683689 0.0186040
0.2608718 0.9692886 0.0196734
0.3829021 0.9702101 0.0207449
0.5051743 0.9711334 0.0218185
0.6276884 0.9720585 0.0228943
0.7504444 0.9729855 0.0239721
0.8603604 0.9739143 0.0250521
0.9663466 0.9748449 0.0261342
0.0000000 0.0000000 0.1146603
0.1102455 0.0000000 0.1157275
0.2320339 0.0000000 0.1167969
0.3540642 0.0000000 0.1178684
0.4763364 0.0000000 0.1189420
0.5988505 0.0000000 0.1200177
0.7216065 0.0000000 0.1210956
0.8355598 0.0000000 0.1221756
0.9415460 0.0000000 0.1232577
0.0000000 0.1140230 0.1182868
0.1138721 0.1150902 0.1193541
0.2356605 0.1161596 0.1204235
0.3576908 0.1172311 0.1214950
0.4799630 0.1183047 0.1225686
0.6024771 0.1193805 0.1236443
0.7252331 0.1204583 0.1247222
0.8386787 0.1215383 0.1258022
0.9446649 0.1226204 0.1268843
0.0000000 0.2395990 0.1219207
0.1175059 0.2406662 0.1229880
0.2392944 0.2417356 0.1240573
0.3613247 0.2428071 0.1251288
0.4835969 0.2438807 0.1262024
0.6061110 0.2449565 0.1272782
0.7288670 0.2460343 0.1283561
0.8418038 0.2471143 0.1294360
0.9477900 0.2481964 0.1305182
0.0000000 0.3654269 0.1255619
0.1211471 0.3664942 0.1266291
0.2429355 0.3675635 0.1276985
0.3649659 0.3686350 0.1287700
0.4872381 0.3697086 0.1298436
0.6097522 0.3707844 0.1309194
0.7325082 0.3718622 0.1319972
0.8449352 0.3729422 0.1330772
0.9509214 0.3740243 0.1341593
0.0032490 0.4915067 0.1292103
0.1247956 0.4925740 0.1302776
0.2465840 0.4936434 0.1313470
0.3686143 0.4947149 0.1324185
0.4908865 0.4957885 0.1334921
0.6134006 0.4968642 0.1345678
0.7361566 0.4979421 0.1356457
0.8480729 0.4990221 0.1367257
0.9540591 0.5001042 0.1378078
0.0069048 0.6178385 0.1328661
0.1284513 0.6189058 0.1339333
0.2502397 0.6199751 0.1350027
0.3722701 0.6210466 0.1360742
0.4945423 0.6221202 0.1371478
0.6170564 0.6231960 0.1382236
0.7398124 0.6242738 0.1393014
0.8512168 0.6253538 0.1403814
0.9572030 0.6264359 0.1414635
0.0105678 0.7444222 0.1365291
0.1321143 0.7454894 0.1375964
0.2539028 0.7465588 0.1386657
0.3759331 0.7476303 0.1397372
0.4982053 0.7487039 0.1408108
0.6207194 0.7497797 0.1418866
0.7434754 0.7508575 0.1429645
0.8543670 0.7519375 0.1440444
0.9603532 0.7530196 0.1451266
0.0142381 0.8584817 0.1401994
0.1357847 0.8593995 0.1412667
0.2575731 0.8603192 0.1423361
0.3796034 0.8612407 0.1434076
0.5018756 0.8621640 0.1444812
0.6243897 0.8630891 0.1455569
0.7471457 0.8640161 0.1466348
0.8575235 0.8649449 0.1477148
0.9635097 0.8658755 0.1487969
0.0179157 0.9677770 0.1438771
0.1394623 0.9686948 0.1449443
0.2612507 0.9696145 0.1460137
0.3832810 0.9705360 0.1470852
0.5055532 0.9714593 0.1481588
0.6280673 0.9723844 0.1492345
0.7508233 0.9733114 0.1503124
0.8606862 0.9742402 0.1513924
0.9666724 0.9751708 0.1524745
0.0000000 0.0000000 0.2412634
0.1106252 0.0000000 0.2423306
0.2324136 0.0000000 0.2434000
0.3544440 0.0000000 0.2444715
0.4767162 0.0000000 0.2455451
0.5992303 0.0000000 0.2466208
0.7219863 0.0000000 0.2476987
0.8358864 0.0000000 0.2487787
0.9418725 0.0000000 0.2498608
0.0000000 0.1144027 0.2448900
0.1142518 0.1154700 0.2459572
0.2360402 0.1165393 0.2470266
0.3580705 0.1176108 0.2480981
0.4803428 0.1186845 0.2491717
0.6028568 0.1197602 0.2502474
0.7256128 0.1208381 0.2513253
0.8390052 0.1219180 0.2524053
0.9449914 0.1230002 0.2534874
0.0000000 0.2399787 0.2485238
0.1178857 0.2410460 0.2495911
0.2396741 0.2421153 0.2506604
0.3617044 0.2431868 0.2517319
0.4839766 0.2442604 0.2528056
0.6064907 0.2453362 0.2538813
0.7292467 0.2464141 0.2549592
0.8421303 0.2474940 0.2560392
0.9481165 0.2485762 0.2571213
0.0000000 0.3658066 0.2521650
0.1215268 0.3668739 0.2532322
0.2433153 0.3679432 0.2543016
0.3653456 0.3690147 0.2553731
0.4876178 0.3700884 0.2564467
0.6101319 0.3711641 0.2575225
0.7328879 0.3722420 0.2586003
0.8452617 0.3733220 0.2596803
0.9512479 0.3744041 0.2607624
0.0036287 0.4918865 0.2558134
0.1251753 0.4929537 0.2568807
0.2469637 0.4940231 0.2579501
0.3689940 0.4950946 0.2590216
0.4912662 0.4961682 0.2600952
0.6137803 0.4972439 0.2611709
0.7365363 0.4983218 0.2622488
0.8483994 0.4994018 0.2633288
0.9543856 0.5004839 0.2644109
0.0072845 0.6182182 0.2594692
0.1288310 0.6192855 0.2605364
0.2506195 0.6203548 0.2616058
0.3726498 0.6214263 0.2626773
0.4949220 0.6225000 0.2637509
0.6174361 0.6235757 0.2648267
0.7401921 0.6246536 0.2659045
0.8515434 0.6257336 0.2669845
0.9575296 0.6268157 0.2680666
0.0109475 0.7448019 0.2631322
0.1324941 0.7458692 0.2641995
0.2542825 0.7469385 0.2652688
0.3763128 0.7480100 0.2663403
0.4985850 0.7490836 0.2674140
0.6210991 0.7501594 0.2684897
0.7438551 0.7512373 0.2695676
0.8546936 0.7523172 0.2706476
0.9606798 0.7533994 0.2717297
0.0146178 0.8588083 0.2668026
0.1361644 0.8597261 0.2678698
0.2579528 0.8606458 0.2689392
0.3799831 0.8615672 0.2700107
0.5022554 0.8624906 0.2710843
0.6247695 0.8634157 0.2721600
0.7475254 0.8643427 0.2732379
0.8578501 0.8652714 0.2743179
0.9638362 0.8662021 0.2754000
0.0182955 0.9681035 0.2704802
0.1398420 0.9690214 0.2715474
0.2616304 0.9699410 0.2726168
0.3836608 0.9708625 0.2736883
0.5059330 0.9717858 0.2747619
0.6284471 0.9727110 0.2758376
0.7512031 0.9736379 0.2769155
0.8610128 0.9745667 0.2779955
0.9669990 0.9754973 0.2790776
0.0000000 0.0000000 0.3681293
0.1110057 0.0000000 0.3691966
0.2327941 0.0000000 0.3702659
0.3548245 0.0000000 0.3713374
0.4770967 0.0000000 0.3724110
0.5996108 0.0000000 0.3734868
0.7223668 0.0000000 0.3745647
0.8362136 0.0000000 0.3756446
0.9421998 0.0000000 0.3767268
0.0000000 0.1147832 0.3717559
0.1146323 0.1158505 0.3728231
0.2364207 0.1169199 0.3738925
0.3584511 0.1179913 0.3749640
0.4807233 0.1190650 0.3760376
0.6032374 0.1201407 0.3771134
0.7259933 0.1212186 0.3781912
0.8393325 0.1222986 0.3792712
0.9453187 0.1233807 0.3803533
0.0000000 0.2403592 0.3753898
0.1182662 0.2414265 0.3764570
0.2400546 0.2424958 0.3775264
0.3620849 0.2435673 0.3785979
0.4843571 0.2446410 0.3796715
0.6068712 0.2457167 0.3807472
0.7296272 0.2467946 0.3818251
0.8424576 0.2478746 0.3829051
0.9484438 0.2489567 0.3839872
0.0003608 0.3661871 0.3790309
0.1219073 0.3672544 0.3800982
0.2436958 0.3683238 0.3811676
0.3657261 0.3693953 0.3822391
0.4879983 0.3704689 0.3833127
0.6105124 0.3715446 0.3843884
0.7332684 0.3726225 0.3854663
0.8455890 0.3737025 0.3865463
0.9515752 0.3747846 0.3876284
0.0040092 0.4922670 0.3826794
0.1255558 0.4933342 0.3837466
0.2473442 0.4944036 0.3848160
0.3693745 0.4954751 0.3858875
0.4916468 0.4965487 0.3869611
0.6141609 0.4976245 0.3880369
0.7369168 0.4987023 0.3891147
0.8487267 0.4997823 0.3901947
0.9547129 0.5008644 0.3912768
0.0076650 0.6185987 0.3863351
0.1292115 0.6196660 0.3874024
0.2510000 0.6207354 0.3884718
0.3730303 0.6218069 0.3895433
0.4953025 0.6228805 0.3906169
0.6178166 0.6239562 0.3916926
0.7405726 0.6250341 0.3927705
0.8518706 0.6261141 0.3938505
0.9578568 0.6271962 0.3949326
0.0113280 0.7451824 0.3899982
0.1328746 0.7462497 0.3910654
0.2546630 0.7473190 0.3921348
0.3766933 0.7483905 0.3932063
0.4989655 0.7494642 0.3942799
0.6214796 0.7505399 0.3953556
0.7442356 0.7516178 0.3964335
0.8550208 0.7526978 0.3975135
0.9610070 0.7537799 0.3985956
0.0149984 0.8591355 0.3936685
0.1365449 0.8600533 0.3947358
0.2583333 0.8609730 0.3958051
0.3803637 0.8618945 0.3968766
0.5026359 0.8628178 0.3979502
0.6251500 0.8637429 0.3990260
0.7479059 0.8646699 0.4001038
0.8581773 0.8655987 0.4011838
0.9641635 0.8665293 0.4022659
0.0186760 0.9684308 0.3973461
0.1402225 0.9693486 0.3984134
0.2620109 0.9702683 0.3994827
0.3840413 0.9711898 0.4005542
0.5063135 0.9721131 0.4016278
0.6288276 0.9730382 0.4027036
0.7515836 0.9739652 0.4037815
0.8613400 0.9748940 0.4048614
0.9673262 0.9758246 0.4059436
0.0000000 0.0000000 0.4952581
0.1113870 0.0000000 0.4963254
0.2331754 0.0000000 0.4973947
0.3552058 0.0000000 0.4984662
0.4774780 0.0000000 0.4995398
0.5999921 0.0000000 0.5006156
0.7227481 0.0000000 0.5016934
0.8365415 0.0000000 0.5027734
0.9425277 0.0000000 0.5038556
0.0000000 0.1151645 0.4988847
0.1150136 0.1162318 0.4999519
0.2368020 0.1173011 0.5010213
0.3588323 0.1183726 0.5020928
0.4811046 0.1194463 0.5031664
0.6036187 0.1205220 0.5042422
0.7263746 0.1215999 0.5053200
0.8396604 0.1226799 0.5064000
0.9456466 0.1237620 0.5074821
0.0000000 0.2407405 0.5025186
0.1186475 0.2418078 0.5035858
0.2404359 0.2428771 0.5046552
0.3624662 0.2439486 0.5057267
0.4847384 0.2450223 0.5068003
0.6072525 0.2460980 0.5078760
0.7300085 0.2471759 0.5089539
0.8427855 0.2482558 0.5100339
0.9487717 0.2493380 0.5111160
0.0007421 0.3665684 0.5061597
0.1222886 0.3676357 0.5072270
0.2440771 0.3687051 0.5082964
0.3661074 0.3697766 0.5093679
0.4883796 0.3708502 0.5104415
0.6108937 0.3719259 0.5115172
0.7336497 0.3730038 0.5125951
0.8459169 0.3740838 0.5136751
0.9519031 0.3751659 0.5147572
0.0043905 0.4926483 0.5098082
0.1259371 0.4937155 0.5108754
0.2477255 0.4947849 0.5119448
0.3697558 0.4958564 0.5130163
0.4920281 0.4969300 0.5140899
0.6145422 0.4980057 0.5151657
0.7372981 0.4990836 0.5162435
0.8490546 0.5001636 0.5173235
0.9550408 0.5012457 0.5184056
0.0080463 0.6189800 0.5134639
0.1295928 0.6200473 0.5145312
0.2513813 0.6211167 0.5156006
0.3734116 0.6221882 0.5166721
0.4956838 0.6232618 0.5177457
0.6181979 0.6243375 0.5188214
0.7409539 0.6254154 0.5198993
0.8521985 0.6264954 0.5209793
0.9581847 0.6275775 0.5220614
0.0117093 0.7455637 0.5171270
0.1332559 0.7466310 0.5181942
0.2550443 0.7477003 0.5192636
0.3770746 0.7487718 0.5203351
0.4993468 0.7498455 0.5214087
0.6218609 0.7509212 0.5224844
0.7446169 0.7519991 0.5235623
0.8553487 0.7530790 0.5246423
0.9613349 0.7541612 0.5257244
0.0153797 0.8594634 0.5207973
0.1369262 0.8603813 0.5218645
0.2587146 0.8613009 0.5229339
0.3807450 0.8622224 0.5240054
0.5030172 0.8631457 0.5250790
0.6255313 0.8640709 0.5261548
0.7482872 0.8649978 0.5272326
0.8585052 0.8659266 0.5283126
0.9644914 0.8668572 0.5293947
0.0190573 0.9687587 0.5244749
0.1406038 0.9696765 0.5255422
0.2623922 0.9705962 0.5266115
0.3844226 0.9715177 0.5276830
0.5066948 0.9724410 0.5287566
0.6292089 0.9733661 0.5298324
0.7519649 0.9742931 0.5309103
0.8616680 0.9752219 0.5319902
0.9676542 0.9761525 0.5330724
0.0000000 0.0000000 0.6226498
0.1117691 0.0000000 0.6237170
0.2335575 0.0000000 0.6247864
0.3555879 0.0000000 0.6258579
0.4778601 0.0000000 0.6269315
0.6003742 0.0000000 0.6280072
0.7231301 0.0000000 0.6290851
0.8368701 0.0000000 0.6301651
0.9428563 0.0000000 0.6312472
0.0000000 0.1155466 0.6262763
0.1153957 0.1166139 0.6273436
0.2371841 0.1176832 0.6284130
0.3592144 0.1187547 0.6294845
0.4814866 0.1198283 0.6305581
0.6040007 0.1209041 0.6316338
0.7267567 0.1219820 0.6327117
0.8399890 0.1230619 0.6337917
0.9459752 0.1241441 0.6348738
0.0000000 0.2411226 0.6299102
0.1190296 0.2421899 0.6309775
0.2408180 0.2432592 0.6320468
0.3628483 0.2443307 0.6331183
0.4851205 0.2454043 0.6341919
0.6076346 0.2464801 0.6352677
0.7303906 0.2475579 0.6363456
0.8431141 0.2486379 0.6374255
0.9491003 0.2497200 0.6385077
0.0011242 0.3669505 0.6335514
0.1226707 0.3680178 0.6346186
0.2444592 0.3690871 0.6356880
0.3664895 0.3701586 0.6367595
0.4887617 0.3712323 0.6378331
0.6112758 0.3723080 0.6389089
0.7340318 0.3733859 0.6399867
0.8462455 0.3744659 0.6410667
0.9522317 0.3755480 0.6421488
0.0047726 0.4930304 0.6371998
0.1263192 0.4940976 0.6382671
0.2481076 0.4951670 0.6393365
0.3701379 0.4962385 0.6404079
0.4924101 0.4973121 0.6414816
0.6149242 0.4983878 0.6425573
0.7376802 0.4994657 0.6436352
0.8493832 0.5005457 0.6447152
0.9553694 0.5016278 0.6457973
0.0084284 0.6193621 0.6408556
0.1299749 0.6204294 0.6419228
0.2517634 0.6214987 0.6429922
0.3737937 0.6225702 0.6440637
0.4960659 0.6236439 0.6451373
0.6185800 0.6247196 0.6462131
0.7413360 0.6257975 0.6472909
0.8525271 0.6268775 0.6483709
0.9585133 0.6279596 0.6494530
0.0120914 0.7459458 0.6445186
0.1336380 0.7470131 0.6455859
0.2554264 0.7480824 0.6466552
0.3774567 0.7491539 0.6477267
0.4997289 0.7502275 0.6488003
0.6222430 0.7513033 0.6498761
0.7449990 0.7523811 0.6509540
0.8556773 0.7534611 0.6520339
0.9616635 0.7545433 0.6531161
0.0157617 0.8597920 0.6481889
0.1373083 0.8607099 0.6492562
0.2590967 0.8616295 0.6503256
0.3811270 0.8625510 0.6513971
0.5033992 0.8634743 0.6524707
0.6259133 0.8643994 0.6535464
0.7486693 0.8653264 0.6546243
0.8588338 0.8662552 0.6557043
0.9648200 0.8671858 0.6567864
0.0194394 0.9690873 0.6518666
0.1409859 0.9700051 0.6529338
0.2627743 0.9709248 0.6540032
0.3848047 0.9718463 0.6550747
0.5070769 0.9727696 0.6561483
0.6295910 0.9736947 0.6572240
0.7523470 0.9746217 0.6583019
0.8619966 0.9755505 0.6593819
0.9679827 0.9764811 0.6604640
0.0000000 0.0000000 0.7503042
0.1121520 0.0000000 0.7513715
0.2339404 0.0000000 0.7524409
0.3559707 0.0000000 0.7535124
0.4782429 0.0000000 0.7545860
0.6007570 0.0000000 0.7556617
0.7235130 0.0000000 0.7567396
0.8371994 0.0000000 0.7578196
0.9431856 0.0000000 0.7589017
0.0000000 0.1159295 0.7539308
0.1157786 0.1169967 0.7549981
0.2375670 0.1180661 0.7560674
0.3595973 0.1191376 0.7571389
0.4818695 0.1202112 0.7582126
0.6043836 0.1212870 0.7592883
0.7271396 0.1223648 0.7603662
0.8403182 0.1234448 0.7614462
0.9463044 0.1245269 0.7625283
0.0000000 0.2415055 0.7575647
0.1194124 0.2425727 0.7586320
0.2412009 0.2436421 0.7597013
0.3632312 0.2447136 0.7607728
0.4855034 0.2457872 0.7618464
0.6080175 0.2468630 0.7629222
0.7307735 0.2479408 0.7640000
0.8434434 0.2490208 0.7650800
0.9494296 0.2501029 0.7661621
0.0015071 0.3673334 0.7612059
0.1230536 0.3684007 0.7622731
0.2448420 0.3694700 0.7633425
0.3668724 0.3705415 0.7644140
0.4891446 0.3716151 0.7654876
0.6116587 0.3726909 0.7665633
0.7344146 0.3737687 0.7676412
0.8465748 0.3748487 0.7687212
0.9525610 0.3759308 0.7698033
0.0051555 0.4934132 0.7648543
0.1267021 0.4944805 0.7659216
0.2484905 0.4955499 0.7669909
0.3705208 0.4966214 0.7680624
0.4927930 0.4976950 0.7691361
0.6153071 0.4987707 0.7702118
0.7380631 0.4998486 0.7712897
0.8497124 0.5009286 0.7723696
0.9556986 0.5020107 0.7734518
0.0088113 0.6197450 0.7685101
0.1303578 0.6208123 0.7695773
0.2521462 0.6218816 0.7706467
0.3741766 0.6229531 0.7717182
0.4964488 0.6240267 0.7727918
0.6189629 0.6251025 0.7738675
0.7417189 0.6261803 0.7749454
0.8528564 0.6272603 0.7760254
0.9588426 0.6283424 0.7771075
0.0124743 0.7463287 0.7721731
0.1340208 0.7473959 0.7732404
0.2558093 0.7484653 0.7743097
0.3778396 0.7495368 0.7753812
0.5001118 0.7506104 0.7764548
0.6226259 0.7516862 0.7775306
0.7453819 0.7527640 0.7786084
0.8560066 0.7538440 0.7796884
0.9619928 0.7549261 0.7806627
0.0161446 0.8601213 0.7758434
0.1376912 0.8610391 0.7769107
0.2594796 0.8619588 0.7779800
0.3815099 0.8628803 0.7790515
0.5037821 0.8638036 0.7801076
0.6262962 0.8647287 0.7810328
0.7490522 0.8656557 0.7819597
0.8591631 0.8665845 0.7828885
0.9651493 0.8675151 0.7838191
0.0198222 0.9694166 0.7795210
0.1413688 0.9703344 0.7805059
0.2631572 0.9712541 0.7814256
0.3851875 0.9721755 0.7823471
0.5074597 0.9730989 0.7832704
0.6299738 0.9740240 0.7841955
0.7527298 0.9749510 0.7851225
0.8623258 0.9758797 0.7860513
0.9683120 0.9768104 0.7869819
0.0000000 0.0000000 0.8644706
0.1125356 0.0000000 0.8653884
0.2343241 0.0000000 0.8663080
0.3563544 0.0000000 0.8672295
0.4786266 0.0000000 0.8681528
0.6011407 0.0000000 0.8690780
0.7238967 0.0000000 0.8700049
0.8375293 0.0000000 0.8709337
0.9435155 0.0000000 0.8718644
0.0000000 0.1163132 0.8675894
0.1161622 0.1173804 0.8685073
0.2379507 0.1184498 0.8694269
0.3599810 0.1195213 0.8703484
0.4822532 0.1205949 0.8712717
0.6047673 0.1216706 0.8721968
0.7275233 0.1227485 0.8731238
0.8406482 0.1238285 0.8740526
0.9466344 0.1249106 0.8749832
0.0000000 0.2418892 0.8707146
0.1197961 0.2429564 0.8716324
0.2415845 0.2440258 0.8725520
0.3636149 0.2450973 0.8734735
0.4858871 0.2461709 0.8743968
0.6084012 0.2472466 0.8753220
0.7311571 0.2483245 0.8762489
0.8437733 0.2494045 0.8771777
0.9497595 0.2504866 0.8781083
0.0018907 0.3677171 0.8738460
0.1234373 0.3687843 0.8747638
0.2452257 0.3698537 0.8756834
0.3672560 0.3709252 0.8766049
0.4895282 0.3719988 0.8775282
0.6120423 0.3730745 0.8784534
0.7347983 0.3741524 0.8793803
0.8469047 0.3752324 0.8803091
0.9528909 0.3763145 0.8812398
0.0055392 0.4937969 0.8769836
0.1270857 0.4948642 0.8779015
0.2488741 0.4959335 0.8788211
0.3709045 0.4970050 0.8797426
0.4931767 0.4980786 0.8806659
0.6156908 0.4991544 0.8815910
0.7384468 0.5002322 0.8825180
0.8500424 0.5013122 0.8834468
0.9560286 0.5023943 0.8843774
0.0091949 0.6201287 0.8801276
0.1307415 0.6211959 0.8810454
0.2525299 0.6222653 0.8819651
0.3745602 0.6233368 0.8828865
0.4968324 0.6244104 0.8838099
0.6193465 0.6254861 0.8847350
0.7421025 0.6265640 0.8856620
0.8531863 0.6276440 0.8865907
0.9591725 0.6287261 0.8875214
0.0128580 0.7467124 0.8832778
0.1344045 0.7477796 0.8841956
0.2561929 0.7488490 0.8851153
0.3782233 0.7499205 0.8860368
0.5004955 0.7509941 0.8869601
0.6230096 0.7520698 0.8878852
0.7457655 0.7531477 0.8888122
0.8563365 0.7542277 0.8897410
0.9623227 0.7553098 0.8906716
0.0165283 0.8604512 0.8864343
0.1380748 0.8613691 0.8873521
0.2598633 0.8622887 0.8882717
0.3818936 0.8632102 0.8891932
0.5041658 0.8641335 0.8901165
0.6266799 0.8650587 0.8910417
0.7494359 0.8659856 0.8919686
0.8594930 0.8669144 0.8928974
0.9654792 0.8678450 0.8938281
0.0202059 0.9697465 0.8895970
0.1417524 0.9706644 0.8905148
0.2635409 0.9715840 0.8914345
0.3855712 0.9725055 0.8923560
0.5078434 0.9734288 0.8932793
0.6303575 0.9743539 0.8942044
0.7531135 0.9752809 0.8951314
0.8626558 0.9762097 0.8960602
0.9686420 0.9771403 0.8969908
0.0000000 0.0000000 0.9747055
0.1129201 0.0000000 0.9756233
0.2347085 0.0000000 0.9765430
0.3567388 0.0000000 0.9774645
0.4790111 0.0000000 0.9783878
0.6015252 0.0000000 0.9793129
0.7242811 0.0000000 0.9802399
0.8378600 0.0000000 0.9811687
0.9438462 0.0000000 0.9820993
0.0000000 0.1166976 0.9778244
0.1165467 0.1177649 0.9787422
0.2383351 0.1188342 0.9796619
0.3603654 0.1199057 0.9805833
0.4826376 0.1209793 0.9815067
0.6051517 0.1220551 0.9824318
0.7279077 0.1231329 0.9833588
0.8409788 0.1242129 0.9842876
0.9469650 0.1252950 0.9852182
0.0000000 0.2422736 0.9809495
0.1201805 0.2433409 0.9818673
0.2419690 0.2444102 0.9827870
0.3639993 0.2454817 0.9837085
0.4862715 0.2465553 0.9846318
0.6087856 0.2476311 0.9855569
0.7315416 0.2487089 0.9864839
0.8441040 0.2497889 0.9874127
0.9500901 0.2508710 0.9883433
0.0022752 0.3681015 0.9840809
0.1238217 0.3691688 0.9849987
0.2456101 0.3702381 0.9859184
0.3676405 0.3713096 0.9868399
0.4899127 0.3723832 0.9877632
0.6124268 0.3734590 0.9886883
0.7351828 0.3745369 0.9896153
0.8472354 0.3756168 0.9905441
0.9532216 0.3766990 0.9914747
0.0059236 0.4941814 0.9872186
0.1274702 0.4952486 0.9881364
0.2492586 0.4963180 0.9890561
0.3712889 0.4973895 0.9899776
0.4935611 0.4984631 0.9909009
0.6160752 0.4995388 0.9918260
0.7388312 0.5006167 0.9927530
0.8503730 0.5016967 0.9936818
0.9563592 0.5027788 0.9946124
0.0095794 0.6205131 0.9903625
0.1311259 0.6215804 0.9912804
0.2529143 0.6226497 0.9922000
0.3749447 0.6237212 0.9931215
0.4972169 0.6247948 0.9940448
0.6197310 0.6258706 0.9949699
0.7424870 0.6269485 0.9958969
0.8535170 0.6280284 0.9968257
0.9595032 0.6291106 0.9977563
0.0132424 0.7470968 0.9935127
0.1347889 0.7481641 0.9944306
0.2565774 0.7492334 0.9953502
0.3786077 0.7503049 0.9962717
0.5008799 0.7513785 0.9971950
0.6233940 0.7524543 0.9981202
0.7461500 0.7535321 0.9990471
0.8566672 0.7546121 0.9999759
0.9626534 0.7556942 1.0000000
0.0169127 0.8607819 0.9966692
0.1384593 0.8616997 0.9975870
0.2602477 0.8626194 0.9985067
0.3822780 0.8635408 0.9994282
0.5045502 0.8644642 1.0000000
0.6270643 0.8653893 1.0000000
0.7498203 0.8663163 1.0000000
0.8598237 0.8672451 1.0000000
0.9658099 0.8681757 1.0000000
0.0205903 0.9700772 0.9998320
0.1421369 0.9709950 1.0000000
0.2639253 0.9719146 1.0000000
0.3859556 0.9728361 1.0000000
0.5082279 0.9737594 1.0000000
0.6307420 0.9746846 1.0000000
0.7534979 0.9756115 1.0000000
0.8629864 0.9765403 1.0000000
0.9689726 0.9774709 1.0000000
